!!!!SEGMENT: pl-cz--iii-558--001-004_raszek-waclaw--missa-in-c-qui-tollis.krn
!!!cenid: 17xx:1038
!!!COM: Raszek, Wacław
!!!COM-rismID:
!!!CDT: <1848->1848
!!!CNT:
!!!OPR: Missa in C
!!!OTL: Qui tollis
!!!OMV: 004
!!!PDT: 1789
!!!AGN: Sacred; Mass
!!!SMS-siglum: PL-CZ
!!!SMS-shelfmark: III-558
!!!SMS-shelfwork: 001-004 M
!!!SMS-variant:
!!!SMS-altvar:
!!!NIFC-rismSourceID: 300001044
!!!NIFC-islandoraID: pl-cz:38990
!!!URL-pdf-islandora: https://repozytorium.nifc.pl/islandora/object/pl-cz%3A38990/datastream/PDF/view
!!!URL-scan:
!!!ONB-nifc: UWAGA: części Mszy: Kyrie, Gloria, Laudamus, Qui tollis, Quoniam, Credo, Et incarnatus, Et resurrexit, Sanctus, Benedictus, Agnus Dei, Dona nobis
!!!AIN: 1 alto 1 bass 2 clrno 2 cor 2 oboe 1 organ 1 soprn 1 tenor 1 timpa 1 viola 2 violn
!!!OMD:
!!!OMD-mod: Adagio
!!!key: c
**kern	**fba	**dynam	**kern	**dynam	**kern	**dynam	**kern	**dynam	**kern	**text	**dynam	**kern	**text	**dynam	**kern	**text	**dynam	**kern	**text	**dynam	**kern	**kern	**kern	**kern	**dynam	**kern	**dynam	**kern	**dynam	**kern	**dynam
*	*	*	*group4	*	*group4	*	*group4	*	*group3	*	*	*group3	*	*	*group3	*	*	*group3	*	*	*	*group2	*group2	*group2	*	*group2	*	*group1	*	*group1	*
*part15	*part15	*part15	*part14	*part14	*part13	*part13	*part12	*part12	*part11	*part11	*part11	*part10	*part10	*part10	*part9	*part9	*part9	*part8	*part8	*part8	*part7	*part6	*part5	*part4	*part4	*part3	*part3	*part2	*part2	*part1	*part1
*staff15	*	*	*staff14	*	*staff13	*	*staff12	*	*staff11	*staff11	*	*staff10	*staff10	*	*staff9	*staff9	*	*staff8	*staff8	*staff8	*staff7	*staff6	*staff5	*staff4	*	*staff3	*	*staff2	*	*staff1	*
*I"Organo	*	*	*I"Viola di Alto	*	*I"Violino Secundo	*	*I"Violino Primo.	*	*I"Basſo.	*	*	*I"Tenore	*	*	*I"Alto.	*	*	*I"Canto.	*	*	*I"Tympano	*I"Clarino 2.do in C	*I"Claryno Prymo in C	*I"Cornu Secundo in C	*	*I"Corno Prymo in C	*	*I"Oboe Secundo	*	*I"Oboe. Prima	*
*mI"Organo	*	*	*mI"Viola	*	*mI"Violino II	*	*mI"Violino I	*	*mI"Basso	*	*	*mI"Tenore	*	*	*mI"Alto	*	*	*mI"Soprano	*	*	*mI"Timpani	*mI"Clarino II in C	*mI"Clarino I in C	*mI"Corno II in C	*	*mI"Corno I in C	*	*mI"Oboe II	*	*mI"Oboe I	*
*I'org	*	*	*I'vla	*	*I'vl 2	*	*I'vl 1	*	*I'B	*	*	*I'T	*	*	*I'A	*	*	*I'S	*	*	*I'timp	*I'clno 2 in C	*I'clno 1 in C	*I'cor 2 in C	*	*I'cor 1 in C	*	*I'ob 2	*	*I'ob 1	*
*Iorgan	*	*	*Iviola	*	*Ivioln	*	*Ivioln	*	*Ibass	*	*	*Itenor	*	*	*Ialto	*	*	*Isoprn	*	*	*Itimpa	*Iclrno	*Iclrno	*Icor	*	*Icor	*	*Ioboe	*	*Ioboe	*
*ICklav	*	*	*ICstr	*	*ICstr	*	*ICstr	*	*ICvox	*	*	*ICvox	*	*	*ICvox	*	*	*ICvox	*	*	*ICidio	*ICbras	*ICbras	*ICbras	*	*ICbras	*	*ICww	*	*ICww	*
*IGcont	*	*	*	*	*	*	*	*	*IGcoro	*	*	*IGcoro	*	*	*IGcoro	*	*	*IGcoro	*	*	*	*	*	*	*	*	*	*	*	*	*
*	*	*	*	*	*	*	*	*	*	*	*	*	*	*	*	*	*	*	*	*	*tacet	*tacet	*tacet	*	*	*	*	*	*	*	*
*clefF4	*	*	*clefC3	*	*clefG2	*	*clefG2	*	*clefF4	*	*	*clefC4	*	*	*clefC3	*	*	*clefC1	*	*	*	*clefG2	*clefG2	*clefG2	*	*clefG2	*	*clefG2	*	*clefG2	*
*	*	*	*	*	*	*	*	*	*	*	*	*mclefGv2	*	*	*mclefG2	*	*	*mclefG2	*	*	*	*	*	*	*	*	*	*	*	*	*
*c:	*	*	*c:	*	*c:	*	*c:	*	*c:	*	*	*c:	*	*	*c:	*	*	*c:	*	*	*	*c:	*c:	*c:	*	*c:	*	*c:	*	*c:	*
*	*	*	*	*	*	*	*	*	*	*	*	*	*	*	*	*	*	*	*	*	*	*	*	*ITrd5c9	*	*ITrd5c9	*	*	*	*	*
*k[b-e-a-]	*	*	*k[b-e-a-]	*	*k[b-e-a-]	*	*k[b-e-a-]	*	*k[b-e-a-]	*	*	*k[b-e-a-]	*	*	*k[b-e-a-]	*	*	*k[b-e-a-]	*	*	*	*k[b-e-a-]	*k[b-e-a-]	*k[b-e-a-]	*	*k[b-e-a-]	*	*k[b-e-a-]	*	*k[b-e-a-]	*
*M3/4	*	*	*M3/4	*	*M3/4	*	*M3/4	*	*M3/4	*	*	*M3/4	*	*	*M3/4	*	*	*M3/4	*	*	*	*M3/4	*M3/4	*M3/4	*	*M3/4	*	*M3/4	*	*M3/4	*
=-	=-	=-	=-	=-	=-	=-	=-	=-	=-	=-	=-	=-	=-	=-	=-	=-	=-	=-	=-	=-	=-	=-	=-	=-	=-	=-	=-	=-	=-	=-	=-
!LO:TX:a:t=Solo.:mod=	!	!	!	!	!	!	!	!	!	!	!	!	!	!	!	!	!	!	!	!	!	!	!	!	!	!	!	!	!	!	!
!LO:TX:a:B:t=adagio:mod=	!	!	!LO:TX:a:B:t=adagio:mod=	!	!LO:TX:a:B:t=adagio,:mod=	!	!LO:TX:a:B:t=Adagio:mod=	!LO:DY:t=pia:mod=%s	!LO:TX:a:B:t=Adagio:mod=	!	!	!LO:TX:a:B:t=adagio:mod=	!	!	!LO:TX:a:B:t=Adagio:mod=	!	!	!LO:TX:a:B:t=adagio:mod=	!	!	!LO:TX:t=P:problem=zgodnie z RISM "timp missing"	!LO:TX:a:t=Laudamus Quitollis et Quoniam Tacet	!LO:TX:a:t=Laudamus Quitollis et Quoniam Tacet	!LO:TX:a:B:t=adagio:mod=	!	!LO:TX:a:B:t=adagio:mod=	!	!LO:TX:a:B:t=adagio:mod=	!	!LO:TX:a:B:t=adagio:mod=	!
8r	.	.	8r	.	8r	.	8cc\	p	8r	.	.	8r	.	.	8r	.	.	8r	.	.	8ryy	8ryy	8ryy	8ryy	.	8ryy	.	8r	.	8r	.
=1	=1	=1	=1	=1	=1	=1	=1	=1	=1	=1	=1	=1	=1	=1	=1	=1	=1	=1	=1	=1	=1	=1	=1	=1	=1	=1	=1	=1	=1	=1	=1
!	!	!	!	!LO:MO:mod=!LO&colon;DY&colon;ed=brack	!	!	!	!	!	!	!	!	!	!	!	!	!	!	!	!	!	!	!	!	!	!	!	!	!	!	!
!LO:TX:b:t=4:mod=	!	!	!	!LO:DY:t= :mod=%s	!	!LO:DY:a:t=p&colon;:mod=	!	!	!LO:TX:b:t=11.:mod=	!	!	!LO:TX:b:t=9 pau:mod=	!	!	!LO:TX:b:t=11.:mod=	!	!	!LO:TX:b:t=8:mod=	!	!	!	!	!	!LO:TX:a:t=4:mod=	!	!LO:TX:b:t=4:mod=	!	!	!	!LO:TX:a:t=4.:mod=	!
0.r	.	.	4c\	p	8.c/L	p	8.cc\L	.	0.r	.	.	0.r	.	.	0.r	.	.	0.r	.	.	2.ryy	2.ryy	2.ryy	0.r	.	0.r	.	0.r	.	0.r	.
.	.	.	.	.	16G/Jk	.	16dd\Jk	.	.	.	.	.	.	.	.	.	.	.	.	.	.	.	.	.	.	.	.	.	.	.	.
.	.	.	4C/	.	8c/L	.	8ee-\L	.	.	.	.	.	.	.	.	.	.	.	.	.	.	.	.	.	.	.	.	.	.	.	.
.	.	.	.	.	8c/	.	8ee-\	.	.	.	.	.	.	.	.	.	.	.	.	.	.	.	.	.	.	.	.	.	.	.	.
.	.	.	4r	.	8c/	.	8ee-\	.	.	.	.	.	.	.	.	.	.	.	.	.	.	.	.	.	.	.	.	.	.	.	.
.	.	.	.	.	8c/J	.	8ee-\J	.	.	.	.	.	.	.	.	.	.	.	.	.	.	.	.	.	.	.	.	.	.	.	.
=2	=2	=2	=2	=2	=2	=2	=2	=2	=2	=2	=2	=2	=2	=2	=2	=2	=2	=2	=2	=2	=2	=2	=2	=2	=2	=2	=2	=2	=2	=2	=2
.	.	.	4c\	.	8.c/L	.	8.ee-\L	.	.	.	.	.	.	.	.	.	.	.	.	.	2.ryy	2.ryy	2.ryy	.	.	.	.	.	.	.	.
.	.	.	.	.	16d/Jk	.	16ff\Jk	.	.	.	.	.	.	.	.	.	.	.	.	.	.	.	.	.	.	.	.	.	.	.	.
.	.	.	4C/	.	4e-/	.	16gg\LL	.	.	.	.	.	.	.	.	.	.	.	.	.	.	.	.	.	.	.	.	.	.	.	.
.	.	.	.	.	.	.	16ff#X\	.	.	.	.	.	.	.	.	.	.	.	.	.	.	.	.	.	.	.	.	.	.	.	.
.	.	.	.	.	.	.	16aa-\	.	.	.	.	.	.	.	.	.	.	.	.	.	.	.	.	.	.	.	.	.	.	.	.
.	.	.	.	.	.	.	16gg\JJ	.	.	.	.	.	.	.	.	.	.	.	.	.	.	.	.	.	.	.	.	.	.	.	.
.	.	.	4r	.	4r	.	16ffn\LL	.	.	.	.	.	.	.	.	.	.	.	.	.	.	.	.	.	.	.	.	.	.	.	.
.	.	.	.	.	.	.	16ee-\	.	.	.	.	.	.	.	.	.	.	.	.	.	.	.	.	.	.	.	.	.	.	.	.
.	.	.	.	.	.	.	16dd\	.	.	.	.	.	.	.	.	.	.	.	.	.	.	.	.	.	.	.	.	.	.	.	.
.	.	.	.	.	.	.	16cc\JJ	.	.	.	.	.	.	.	.	.	.	.	.	.	.	.	.	.	.	.	.	.	.	.	.
=3	=3	=3	=3	=3	=3	=3	=3	=3	=3	=3	=3	=3	=3	=3	=3	=3	=3	=3	=3	=3	=3	=3	=3	=3	=3	=3	=3	=3	=3	=3	=3
!	!	!	!LO:MO:mod=*null:null	!	!	!	!LO:MO:mod=*null:null	!	!	!	!	!	!	!	!	!	!	!	!	!	!	!	!	!	!	!	!	!	!	!	!
*	*	*	*2\right	*	*	*	*2\right	*	*	*	*	*	*	*	*	*	*	*	*	*	*	*	*	*	*	*	*	*	*	*	*
*	*	*	*tremolo	*	*tremolo	*	*	*	*	*	*	*	*	*	*	*	*	*	*	*	*	*	*	*	*	*	*	*	*	*	*
!	!	!	!LO:TX:a:t=......:mod=	!	!	!	!	!	!	!	!	!	!	!	!	!	!	!	!	!	!	!	!	!	!	!	!	!	!	!	!
.	.	.	8c'\L	.	8e-/L	.	2aa-\	.	.	.	.	.	.	.	.	.	.	.	.	.	2.ryy	2.ryy	2.ryy	.	.	.	.	.	.	.	.
.	.	.	8c'\	.	8e-/	.	.	.	.	.	.	.	.	.	.	.	.	.	.	.	.	.	.	.	.	.	.	.	.	.	.
.	.	.	8c'\	.	8e-/	.	.	.	.	.	.	.	.	.	.	.	.	.	.	.	.	.	.	.	.	.	.	.	.	.	.
.	.	.	8c'\	.	8e-/	.	.	.	.	.	.	.	.	.	.	.	.	.	.	.	.	.	.	.	.	.	.	.	.	.	.
.	.	.	8c'\	.	8e-/	.	4gg\	.	.	.	.	.	.	.	.	.	.	.	.	.	.	.	.	.	.	.	.	.	.	.	.
.	.	.	8c'\J	.	8e-/J	.	.	.	.	.	.	.	.	.	.	.	.	.	.	.	.	.	.	.	.	.	.	.	.	.	.
=4	=4	=4	=4	=4	=4	=4	=4	=4	=4	=4	=4	=4	=4	=4	=4	=4	=4	=4	=4	=4	=4	=4	=4	=4	=4	=4	=4	=4	=4	=4	=4
.	.	.	4c\	.	4e-/	.	8.ff#Xt\L	.	.	.	.	.	.	.	.	.	.	.	.	.	2.ryy	2.ryy	2.ryy	.	.	.	.	.	.	.	.
.	.	.	.	.	.	.	32ee-\LL	.	.	.	.	.	.	.	.	.	.	.	.	.	.	.	.	.	.	.	.	.	.	.	.
.	.	.	.	.	.	.	32ff#\JJJ	.	.	.	.	.	.	.	.	.	.	.	.	.	.	.	.	.	.	.	.	.	.	.	.
.	.	.	4Bn\	.	4d/	.	16gg\LL	.	.	.	.	.	.	.	.	.	.	.	.	.	.	.	.	.	.	.	.	.	.	.	.
.	.	.	.	.	.	.	16dd\	.	.	.	.	.	.	.	.	.	.	.	.	.	.	.	.	.	.	.	.	.	.	.	.
.	.	.	.	.	.	.	16bn\	.	.	.	.	.	.	.	.	.	.	.	.	.	.	.	.	.	.	.	.	.	.	.	.
.	.	.	.	.	.	.	16g\JJ	.	.	.	.	.	.	.	.	.	.	.	.	.	.	.	.	.	.	.	.	.	.	.	.
!	!	!	!	!	!	!	!LO:LB:g=original	!	!	!	!	!	!	!	!	!	!	!	!	!	!	!	!	!	!	!	!	!	!	!	!
.	.	.	4r	.	4r	.	16d/LL	.	.	.	.	.	.	.	.	.	.	.	.	.	.	.	.	.	.	.	.	.	.	.	.
.	.	.	.	.	.	.	16g/	.	.	.	.	.	.	.	.	.	.	.	.	.	.	.	.	.	.	.	.	.	.	.	.
.	.	.	.	.	.	.	16d/	.	.	.	.	.	.	.	.	.	.	.	.	.	.	.	.	.	.	.	.	.	.	.	.
.	.	.	.	.	.	.	16Bn/JJ	.	.	.	.	.	.	.	.	.	.	.	.	.	.	.	.	.	.	.	.	.	.	.	.
=5	=5	=5	=5	=5	=5	=5	=5	=5	=5	=5	=5	=5	=5	=5	=5	=5	=5	=5	=5	=5	=5	=5	=5	=5	=5	=5	=5	=5	=5	=5	=5
!	!	!	!	!	!	!	!	!	!	!	!	!	!	!	!	!	!	!	!	!	!	!	!	!	!	!	!	!LO:MO:mod=*null:null	!	!LO:MO:mod=*null:null	!
*	*	*	*	*	*	*	*	*	*	*	*	*	*	*	*	*	*	*	*	*	*	*	*	*	*	*	*	*2\right	*	*2\right	*
!	!	!	!	!	!	!	!	!	!	!	!	!	!	!	!	!	!	!	!	!	!	!	!	!	!LO:MO:mod=!LO&colon;DY&colon;ed=brack	!	!	!	!LO:MO:mod=!LO&colon;DY&colon;ed=brack	!	!
!	!	!LO:DY:a:t=pp&colon;:mod=p	!	!	!	!	!	!	!	!	!	!	!	!	!	!	!	!	!	!	!	!	!	!	!LO:DY:t= :mod=%s	!	!LO:DY:a:t=piana:mod=%s	!	!LO:DY:t= :mod=%s	!	!LO:DY:t=p.:mod=%s
8BBn|/	6_	pp	8Bn/	.	8d/	.	16G|/LL	.	0.r	.	.	0.r	.	.	0.r	.	.	0.r	.	.	2.ryy	2.ryy	2.ryy	2.G/	p	2.G/	p	2.dd\	p	2.ff\	p
.	.	.	.	.	.	.	(16G/	.	.	.	.	.	.	.	.	.	.	.	.	.	.	.	.	.	.	.	.	.	.	.	.
8r	.	.	8r	.	8r	.	16A-/	.	.	.	.	.	.	.	.	.	.	.	.	.	.	.	.	.	.	.	.	.	.	.	.
.	.	.	.	.	.	.	16G/JJ)	.	.	.	.	.	.	.	.	.	.	.	.	.	.	.	.	.	.	.	.	.	.	.	.
8BB|/	.	.	8B/	.	8d/	.	16f|/LL	.	.	.	.	.	.	.	.	.	.	.	.	.	.	.	.	.	.	.	.	.	.	.	.
.	.	.	.	.	.	.	(16G/	.	.	.	.	.	.	.	.	.	.	.	.	.	.	.	.	.	.	.	.	.	.	.	.
8r	.	.	8r	.	8r	.	16A-/	.	.	.	.	.	.	.	.	.	.	.	.	.	.	.	.	.	.	.	.	.	.	.	.
.	.	.	.	.	.	.	16G/JJ)	.	.	.	.	.	.	.	.	.	.	.	.	.	.	.	.	.	.	.	.	.	.	.	.
8BB|/	x	.	8B/	.	8d/	.	16f|/LL	.	.	.	.	.	.	.	.	.	.	.	.	.	.	.	.	.	.	.	.	.	.	.	.
.	.	.	.	.	.	.	(16G/	.	.	.	.	.	.	.	.	.	.	.	.	.	.	.	.	.	.	.	.	.	.	.	.
8r	.	.	8r	.	8r	.	16A-/	.	.	.	.	.	.	.	.	.	.	.	.	.	.	.	.	.	.	.	.	.	.	.	.
.	.	.	.	.	.	.	16G/JJ)	.	.	.	.	.	.	.	.	.	.	.	.	.	.	.	.	.	.	.	.	.	.	.	.
=6	=6	=6	=6	=6	=6	=6	=6	=6	=6	=6	=6	=6	=6	=6	=6	=6	=6	=6	=6	=6	=6	=6	=6	=6	=6	=6	=6	=6	=6	=6	=6
8C/	.	.	8c\	.	8e-/	.	16e-|/LL	.	.	.	.	.	.	.	.	.	.	.	.	.	2.ryy	2.ryy	2.ryy	2.G/	.	2.G/	.	2.cc\	.	2.ee-\	.
.	.	.	.	.	.	.	(16G/	.	.	.	.	.	.	.	.	.	.	.	.	.	.	.	.	.	.	.	.	.	.	.	.
8r	.	.	8r	.	8r	.	16A-/	.	.	.	.	.	.	.	.	.	.	.	.	.	.	.	.	.	.	.	.	.	.	.	.
.	.	.	.	.	.	.	16G/JJ)	.	.	.	.	.	.	.	.	.	.	.	.	.	.	.	.	.	.	.	.	.	.	.	.
8C/	.	.	8c\	.	8e-/	.	16e-|/LL	.	.	.	.	.	.	.	.	.	.	.	.	.	.	.	.	.	.	.	.	.	.	.	.
.	.	.	.	.	.	.	(16G/	.	.	.	.	.	.	.	.	.	.	.	.	.	.	.	.	.	.	.	.	.	.	.	.
8r	.	.	8r	.	8r	.	16A-/	.	.	.	.	.	.	.	.	.	.	.	.	.	.	.	.	.	.	.	.	.	.	.	.
.	.	.	.	.	.	.	16G/JJ)	.	.	.	.	.	.	.	.	.	.	.	.	.	.	.	.	.	.	.	.	.	.	.	.
8C/	.	.	8c\	.	8e-/	.	16e-|/LL	.	.	.	.	.	.	.	.	.	.	.	.	.	.	.	.	.	.	.	.	.	.	.	.
.	.	.	.	.	.	.	(16G/	.	.	.	.	.	.	.	.	.	.	.	.	.	.	.	.	.	.	.	.	.	.	.	.
8r	.	.	8r	.	8r	.	16A-/	.	.	.	.	.	.	.	.	.	.	.	.	.	.	.	.	.	.	.	.	.	.	.	.
.	.	.	.	.	.	.	16G/JJ)	.	.	.	.	.	.	.	.	.	.	.	.	.	.	.	.	.	.	.	.	.	.	.	.
!	!	!	!LO:LB:g=original	!	!	!	!	!	!	!	!	!	!	!	!	!	!	!	!	!	!	!	!	!	!	!	!	!	!	!	!
=7	=7	=7	=7	=7	=7	=7	=7	=7	=7	=7	=7	=7	=7	=7	=7	=7	=7	=7	=7	=7	=7	=7	=7	=7	=7	=7	=7	=7	=7	=7	=7
*	*	*	*Xtremolo	*	*	*	*	*	*	*	*	*	*	*	*	*	*	*	*	*	*	*	*	*tremolo	*	*tremolo	*	*	*	*	*
8BB-/L	3	.	8Bn\L	.	8G/	.	16d|/LL	.	.	.	.	.	.	.	.	.	.	.	.	.	2.ryy	2.ryy	2.ryy	8G/L	.	8G/L	.	2.g/	.	4dd\	.
.	.	.	.	.	.	.	(16G/	.	.	.	.	.	.	.	.	.	.	.	.	.	.	.	.	.	.	.	.	.	.	.	.
8BB-/	.	.	8B\	.	4G/	.	16A-/	.	.	.	.	.	.	.	.	.	.	.	.	.	.	.	.	8G/	.	8G/	.	.	.	.	.
.	.	.	.	.	.	.	16G/JJ)	.	.	.	.	.	.	.	.	.	.	.	.	.	.	.	.	.	.	.	.	.	.	.	.
8C/	3	.	8c\	.	.	.	16e-|/LL	.	.	.	.	.	.	.	.	.	.	.	.	.	.	.	.	8G/	.	8G/	.	.	.	4ee-\	.
.	.	.	.	.	.	.	(16G/	.	.	.	.	.	.	.	.	.	.	.	.	.	.	.	.	.	.	.	.	.	.	.	.
8C/	.	.	8c\	.	4G/	.	16A-/	.	.	.	.	.	.	.	.	.	.	.	.	.	.	.	.	8G/	.	8G/	.	.	.	.	.
.	.	.	.	.	.	.	16G/JJ)	.	.	.	.	.	.	.	.	.	.	.	.	.	.	.	.	.	.	.	.	.	.	.	.
8D/	3	.	8d\	.	.	.	16f|/LL	.	.	.	.	.	.	.	.	.	.	.	.	.	.	.	.	8G/	.	8G/	.	.	.	4ff\	.
.	.	.	.	.	.	.	(16G/	.	.	.	.	.	.	.	.	.	.	.	.	.	.	.	.	.	.	.	.	.	.	.	.
8D/J	.	.	8d\J	.	8G/	.	16A-/	.	.	.	.	.	.	.	.	.	.	.	.	.	.	.	.	8G/J	.	8G/J	.	.	.	.	.
.	.	.	.	.	.	.	16G/JJ)	.	.	.	.	.	.	.	.	.	.	.	.	.	.	.	.	.	.	.	.	.	.	.	.
=8	=8	=8	=8	=8	=8	=8	=8	=8	=8	=8	=8	=8	=8	=8	=8	=8	=8	=8	=8	=8	=8	=8	=8	=8	=8	=8	=8	=8	=8	=8	=8
8E-\L	.	.	8e-\L	.	8c/L	.	16g/LL	.	.	.	.	.	.	.	.	.	.	.	.	.	2.ryy	2.ryy	2.ryy	8G/	.	8G/	.	8g\L	.	8gg\L	.
.	.	.	.	.	.	.	16e-/	.	.	.	.	.	.	.	.	.	.	.	.	.	.	.	.	.	.	.	.	.	.	.	.
8F\	.	.	8f\	.	8c/	.	16a-/	.	.	.	.	.	.	.	.	.	.	.	.	.	.	.	.	8r	.	8r	.	8cc\J	.	16aa-\L	.
.	.	.	.	.	.	.	16f/JJ	.	.	.	.	.	.	.	.	.	.	.	.	.	.	.	.	.	.	.	.	.	.	16ff\JJ	.
8G\	4	.	8g\	.	8c/	.	4e-/	.	.	.	.	.	.	.	.	.	.	.	.	.	.	.	.	4G/	.	4G/	.	4cc\	.	4ee-\	.
8G\	.	.	8g\	.	8c/J	.	.	.	.	.	.	.	.	.	.	.	.	.	.	.	.	.	.	.	.	.	.	.	.	.	.
*	*	*	*	*	*Xtremolo	*	*	*	*	*	*	*	*	*	*	*	*	*	*	*	*	*	*	*	*	*	*	*	*	*	*
8GG/	n	.	8G/	.	8Bn/L	.	4dt/	.	.	.	.	.	.	.	.	.	.	.	.	.	.	.	.	4G/	.	4G/	.	4bn\	.	4dd\	.
8GG/J	.	.	8G/J	.	8B/J	.	.	.	.	.	.	.	.	.	.	.	.	.	.	.	.	.	.	.	.	.	.	.	.	.	.
!	!	!	!	!	!LO:LB:g=original	!	!LO:LB:g=original	!	!	!	!	!	!	!	!	!	!	!	!	!	!	!	!	!	!	!	!	!	!	!	!
=9	=9	=9	=9	=9	=9	=9	=9	=9	=9	=9	=9	=9	=9	=9	=9	=9	=9	=9	=9	=9	=9	=9	=9	=9	=9	=9	=9	=9	=9	=9	=9
8C/L	.	.	8c/L	.	4c/	.	4c/	.	1.r	.	.	2.r	.	.	1.r	.	.	4r	.	.	2.ryy	2.ryy	2.ryy	8G/	.	4G/	.	4cc\	.	4cc\	.
8GG/J	.	.	8G/J	.	.	.	.	.	.	.	.	.	.	.	.	.	.	.	.	.	.	.	.	8r	.	.	.	.	.	.	.
4CC/	.	.	4C/	.	4r	.	4r	.	.	.	.	.	.	.	.	.	.	4r	.	.	.	.	.	4r	.	4r	.	4r	.	4r	.
4r	.	.	4r	.	4r	.	8r	.	.	.	.	.	.	.	.	.	.	8r	.	.	.	.	.	4r	.	4r	.	4r	.	4r	.
!	!	!	!	!	!	!	!	!	!	!	!	!	!	!	!	!	!	!	!	!LO:DY:a:t=p&colon;:mod=%s	!	!	!	!	!	!	!	!	!	!	!
.	.	.	.	.	.	.	8cc\	.	.	.	.	.	.	.	.	.	.	8cc\	Qui	p	.	.	.	.	.	.	.	.	.	.	.
=10	=10	=10	=10	=10	=10	=10	=10	=10	=10	=10	=10	=10	=10	=10	=10	=10	=10	=10	=10	=10	=10	=10	=10	=10	=10	=10	=10	=10	=10	=10	=10
!	!	!	!	!	!	!	!	!	!	!	!	!	!	!	!	!	!	!	!	!	!	!	!	!LO:TX:a:t=2.:mod=	!	!LO:TX:a:t=2:mod=	!	!	!	!LO:TX:a:t=2:mod=	!
4C/	.	.	4c\	.	8.c/L	.	8.cc\L	.	.	.	.	4r	.	.	.	.	.	8.cc\L	tol-	.	2.ryy	2.ryy	2.ryy	1.r	.	1.r	.	1.r	.	1.r	.
.	.	.	.	.	16Bn/Jk	.	16dd\Jk	.	.	.	.	.	.	.	.	.	.	16dd\Jk	.	.	.	.	.	.	.	.	.	.	.	.	.
*	*	*	*	*	*	*	*tremolo	*	*	*	*	*	*	*	*	*	*	*	*	*	*	*	*	*	*	*	*	*	*	*	*
4r	.	.	4C/	.	8c/L	.	8ee-\L	.	.	.	.	4r	.	.	.	.	.	4ee-\	-lis	.	.	.	.	.	.	.	.	.	.	.	.
.	.	.	.	.	8c/	.	8ee-\	.	.	.	.	.	.	.	.	.	.	.	.	.	.	.	.	.	.	.	.	.	.	.	.
4r	.	.	4r	.	8c/	.	8ee-\	.	.	.	.	8r	.	.	.	.	.	8re	.	.	.	.	.	.	.	.	.	.	.	.	.
!	!	!	!	!	!	!	!	!	!	!	!	!	!	!LO:MO:mod=!LO&colon;DY&colon;ed=brack	!	!	!	!	!	!	!	!	!	!	!	!	!	!	!	!	!
!	!	!	!	!	!	!	!	!	!	!	!	!	!	!LO:DY:t= :mod=%s	!	!	!	!	!	!	!	!	!	!	!	!	!	!	!	!	!
.	.	.	.	.	8c/J	.	8ee-\J	.	.	.	.	8c\	Qui	p	.	.	.	8ee-\	qui	.	.	.	.	.	.	.	.	.	.	.	.
!LO:LB:g=original	!	!	!	!	!	!	!	!	!	!	!	!	!	!	!	!	!	!	!	!	!	!	!	!	!	!	!	!	!	!	!
=11	=11	=11	=11	=11	=11	=11	=11	=11	=11	=11	=11	=11	=11	=11	=11	=11	=11	=11	=11	=11	=11	=11	=11	=11	=11	=11	=11	=11	=11	=11	=11
4C/	.	.	4c\	.	8.c/L	.	8.ee-\L	.	2.r	.	.	8.c\L	tol-	.	2.r	.	.	8.ee-\L	tol-	.	2.ryy	2.ryy	2.ryy	.	.	.	.	.	.	.	.
.	.	.	.	.	16d/Jk	.	16ff\Jk	.	.	.	.	16d\Jk	.	.	.	.	.	16ff\Jk	.	.	.	.	.	.	.	.	.	.	.	.	.
4CC/	.	.	4C/	.	4e-/	.	16gg\LL	.	.	.	.	4e-\	-lis	.	.	.	.	4gg\	-lis	.	.	.	.	.	.	.	.	.	.	.	.
.	.	.	.	.	.	.	16ff#X\	.	.	.	.	.	.	.	.	.	.	.	.	.	.	.	.	.	.	.	.	.	.	.	.
.	.	.	.	.	.	.	16aa-\	.	.	.	.	.	.	.	.	.	.	.	.	.	.	.	.	.	.	.	.	.	.	.	.
.	.	.	.	.	.	.	16gg\JJ	.	.	.	.	.	.	.	.	.	.	.	.	.	.	.	.	.	.	.	.	.	.	.	.
4r	.	.	4r	.	4r	.	16ffn\LL	.	.	.	.	4rF	.	.	.	.	.	4r	.	.	.	.	.	.	.	.	.	.	.	.	.
.	.	.	.	.	.	.	16ee-\	.	.	.	.	.	.	.	.	.	.	.	.	.	.	.	.	.	.	.	.	.	.	.	.
.	.	.	.	.	.	.	16dd\	.	.	.	.	.	.	.	.	.	.	.	.	.	.	.	.	.	.	.	.	.	.	.	.
.	.	.	.	.	.	.	16cc\JJ	.	.	.	.	.	.	.	.	.	.	.	.	.	.	.	.	.	.	.	.	.	.	.	.
!	!	!	!	!	!	!	!	!	!	!	!	!	!	!	!	!	!	!	!	!	!	!	!	!	!	!	!	!LO:LB:g=original	!	!	!
=12	=12	=12	=12	=12	=12	=12	=12	=12	=12	=12	=12	=12	=12	=12	=12	=12	=12	=12	=12	=12	=12	=12	=12	=12	=12	=12	=12	=12	=12	=12	=12
!LO:MO:mod=*null:null	!	!	!	!	!LO:MO:mod=*null:null	!	!	!	!	!	!	!	!	!	!	!	!	!	!	!	!	!	!	!LO:MO:mod=*null:null	!	!LO:MO:mod=*null:null	!	!	!	!	!
*2\right	*	*	*	*	*2\right	*	*	*	*	*	*	*	*	*	*	*	*	*	*	*	*	*	*	*2\right	*	*2\right	*	*	*	*	*
*tremolo	*	*	*tremolo	*	*tremolo	*	*	*	*	*	*	*	*	*	*	*	*	*	*	*	*	*	*	*	*	*	*	*	*	*	*
!!LO:TX:a:t= :mod=Tutti
!	!	!LO:MO:mod=!LO&colon;DY&colon;ed=brack	!	!LO:MO:mod=!LO&colon;DY&colon;ed=brack	!	!	!	!	!	!	!	!	!	!LO:MO:mod=!LO&colon;DY&colon;ed=brack	!	!	!	!	!	!	!	!	!	!	!	!	!	!	!LO:MO:mod=!LO&colon;DY&colon;ed=brack	!	!LO:MO:mod=!LO&colon;DY&colon;ed=brack
!LO:TX:a:t=Tutti:mod=	!	!LO:DY:t= :mod=%s	!	!LO:DY:t= :mod=%s	!	!LO:DY:a:t=ff&colon;:mod=%s	!	!LO:DY:a:t=ffr&colon;:mod=%s	!	!	!LO:DY:a:t=for:mod=%s	!	!	!LO:DY:t= :mod=%s	!	!LO:MO:mod=pec-	!LO:DY:a:t=for:mod=%s	!	!	!LO:DY:a:t=for:mod=%s	!	!	!LO:DY:t=for&colon;	!	!LO:DY:a:t=for:mod=%s	!	!LO:DY:a:t=for:mod=%s	!	!LO:DY:t= :mod=%s	!	!LO:DY:t= :mod=%s
8c\L	6	ff	8c\L	ff	8ee-\L	ff	2aa-\	ff	4c\	pec-	f	4c\	pec-	f	4a-\	Pec-	f	4ee-\	pec-	f	2.ryy	2.ryy	2.ryy	2e-\	f	2a-\	f	2ee-\	f	2aa-\	f
8c\	.	.	8c\	.	8ee-\	.	.	.	.	.	.	.	.	.	.	.	.	.	.	.	.	.	.	.	.	.	.	.	.	.	.
8c\	.	.	8c\	.	8ee-\	.	.	.	4c\	-ca-	.	4c\	-ca-	.	4a-\	-ca-	.	4ee-\	-ca-	.	.	.	.	.	.	.	.	.	.	.	.
!LO:SIC:s=8c	!	!	!	!	!	!	!	!	!	!	!	!	!	!	!	!	!	!	!	!	!	!	!	!	!	!	!	!	!	!	!
8c\J	.	.	8c\	.	8ee-\	.	.	.	.	.	.	.	.	.	.	.	.	.	.	.	.	.	.	.	.	.	.	.	.	.	.
!LO:MO:mod=*null:null	!	!	!	!	!	!	!	!	!	!	!	!	!	!	!	!	!	!	!	!	!	!	!	!	!	!	!	!	!	!	!
*Xtremolo	*	*	*	*	*	*	*	*	*	*	*	*	*	*	*	*	*	*	*	*	*	*	*	*	*	*	*	*	*	*	*
!LO:SIC:s=8c	!	!	!	!	!	!	!	!	!	!	!	!	!	!	!	!	!	!	!	!	!	!	!	!	!	!	!	!	!	!	!
8c\L	5	.	8c\	.	8ee-\	.	8aa-\L	.	4c\	-ta	.	4c\	-ta	.	4g\	-ta	.	4ee-\	-ta	.	.	.	.	4e-\	.	4g\	.	4ee-\	.	4gg\	.
8c\J	.	.	8c\J	.	8ee-\J	.	8gg\J	.	.	.	.	.	.	.	.	.	.	.	.	.	.	.	.	.	.	.	.	.	.	.	.
!LO:MO:mod=*Xtremolo	!	!	!	!	!	!	!	!	!	!	!	!	!	!	!	!	!	!	!	!	!	!	!	!	!	!	!	!	!	!	!
*null	*	*	*	*	*	*	*	*	*	*	*	*	*	*	*	*	*	*	*	*	*	*	*	*	*	*	*	*	*	*	*
!	!	!	!	!	!	!	!	!	!	!	!	!	!	!	!	!	!	!LO:LB:g=original	!	!	!	!	!	!	!LO:LB:g=original	!	!	!	!	!	!
=13	=13	=13	=13	=13	=13	=13	=13	=13	=13	=13	=13	=13	=13	=13	=13	=13	=13	=13	=13	=13	=13	=13	=13	=13	=13	=13	=13	=13	=13	=13	=13
!	!	!	!	!	!	!	!	!	!	!	!	!	!	!	!	!	!	!	!	!	!	!	!	!	!LO:DY:mod= 	!	!	!	!	!	!
4c\	#4r 2	.	4an\	.	4ee-\	.	8.ff#Xt\L	.	4c\	mun-	.	4An/	mun-	.	4f#X\	mun-	.	4ee-\	mun-	.	2.ryy	2.ryy	2.ryy	4e-\	p	4aX\	.	4ee-\	.	4ff#X\	.
.	.	.	.	.	.	.	32een\LL	.	.	.	.	.	.	.	.	.	.	.	.	.	.	.	.	.	.	.	.	.	.	.	.
.	.	.	.	.	.	.	32ff#\JJJ	.	.	.	.	.	.	.	.	.	.	.	.	.	.	.	.	.	.	.	.	.	.	.	.
4Bn\	6	.	4g\	.	4dd\	.	16gg\LL	.	4Bn\	-di	.	4G/	-di	.	4g\	-di	.	4dd\	-di	.	.	.	.	4g\	.	4g\	.	4dd\	.	4gg\	.
.	.	.	.	.	.	.	16gg\	.	.	.	.	.	.	.	.	.	.	.	.	.	.	.	.	.	.	.	.	.	.	.	.
.	.	.	.	.	.	.	16dd\	.	.	.	.	.	.	.	.	.	.	.	.	.	.	.	.	.	.	.	.	.	.	.	.
.	.	.	.	.	.	.	16bn\JJ	.	.	.	.	.	.	.	.	.	.	.	.	.	.	.	.	.	.	.	.	.	.	.	.
!	!	!LO:DY:a:t=pp&colon;:mod= 	!	!	!	!	!	!LO:DY:a:t=p&colon;:mod=%s	!	!	!	!	!	!	!	!	!	!	!	!	!	!	!	!	!	!	!	!	!	!	!
4r	.	pp	4r	.	4r	.	16g/LL	p	4r	.	.	4r	.	.	4r	.	.	4r	.	.	.	.	.	4r	.	4r	.	4r	.	4r	.
.	.	.	.	.	.	.	16g/	.	.	.	.	.	.	.	.	.	.	.	.	.	.	.	.	.	.	.	.	.	.	.	.
.	.	.	.	.	.	.	16d/	.	.	.	.	.	.	.	.	.	.	.	.	.	.	.	.	.	.	.	.	.	.	.	.
.	.	.	.	.	.	.	16Bn/JJ	.	.	.	.	.	.	.	.	.	.	.	.	.	.	.	.	.	.	.	.	.	.	.	.
!	!	!	!	!	!	!	!	!	!	!	!	!LO:LB:g=original	!	!	!	!	!	!	!	!	!	!	!	!	!	!	!	!	!	!	!
=14	=14	=14	=14	=14	=14	=14	=14	=14	=14	=14	=14	=14	=14	=14	=14	=14	=14	=14	=14	=14	=14	=14	=14	=14	=14	=14	=14	=14	=14	=14	=14
!	!	!	!	!	!	!	!	!	!	!	!	!LO:MO:mod=*null:null	!	!	!LO:MO:mod=*null:null	!	!	!LO:MO:mod=*null:null	!	!	!	!	!	!	!	!	!	!	!	!	!
*	*	*	*	*	*	*	*	*	*	*	*	*2\right	*	*	*2\right	*	*	*2\right	*	*	*	*	*	*	*	*	*	*	*	*	*
!	!	!	!	!LO:MO:mod=!LO&colon;DY&colon;ed=brack	!	!	!	!LO:MO:mod=!LO&colon;DY&colon;ed=brack	!	!	!	!	!	!	!	!	!	!	!	!	!	!	!	!	!	!	!	!	!LO:MO:mod=!LO&colon;DY&colon;ed=brack	!	!
!	!	!LO:DY:t= :mod=%s	!	!LO:DY:t= :mod=%s	!	!LO:DY:t=p&colon;:mod=%s	!	!LO:DY:t= :mod=%s	!	!	!LO:DY:a:t=p&colon;:mod=%s	!	!	!LO:DY:a:t=p&colon;:mod=%s	!	!	!LO:DY:a:t=p&colon;:mod=%s	!	!	!LO:DY:a:t=p&colon;:mod=%s	!	!	!	!	!	!	!LO:DY:a:t=p&colon;:mod= 	!	!LO:DY:t= :mod=%s	!LO:SIC:s=2.ff	!LO:DY:b:t=p.:mod=%s
8Bn\	.	p	8Bn/	p	8d/	p	16G/LL	p	2BBn/	mi-	p	2d\	mi-	p	2g\	mi-	p	2ff\	mi-	p	2.ryy	2.ryy	2.ryy	4r	.	4r	p	2.dd\	p	2.ffn\	p
.	.	.	.	.	.	.	16G/	.	.	.	.	.	.	.	.	.	.	.	.	.	.	.	.	.	.	.	.	.	.	.	.
8r	.	.	8r	.	8r	.	16A-/	.	.	.	.	.	.	.	.	.	.	.	.	.	.	.	.	.	.	.	.	.	.	.	.
.	.	.	.	.	.	.	16G/JJ	.	.	.	.	.	.	.	.	.	.	.	.	.	.	.	.	.	.	.	.	.	.	.	.
!	!	!	!	!	!	!	!	!	!	!	!	!	!	!	!	!	!	!	!	!	!	!	!	!	!LO:DY:t= :mod=%s	!	!LO:DY:t= :mod=%s	!	!	!	!
8B\	6_ 5_	.	8B/	.	8d/	.	16f/LL	.	.	.	.	.	.	.	.	.	.	.	.	.	.	.	.	4G/	p	4g\	p	.	.	.	.
.	.	.	.	.	.	.	16G/	.	.	.	.	.	.	.	.	.	.	.	.	.	.	.	.	.	.	.	.	.	.	.	.
8r	.	.	8r	.	8r	.	16A-/	.	.	.	.	.	.	.	.	.	.	.	.	.	.	.	.	.	.	.	.	.	.	.	.
.	.	.	.	.	.	.	16G/JJ	.	.	.	.	.	.	.	.	.	.	.	.	.	.	.	.	.	.	.	.	.	.	.	.
!	!	!	!	!	!	!	!LO:LB:g=original	!	!	!	!	!	!	!	!	!	!	!	!	!	!	!	!	!	!	!	!	!	!	!	!
8B\	X X	.	8d\	.	8d/	.	16f/LL	.	4BB/	-se-	.	4d\	-se-	.	4g\	-se-	.	4ff\	-se-	.	.	.	.	4G/	.	4g\	.	.	.	.	.
.	.	.	.	.	.	.	16G/	.	.	.	.	.	.	.	.	.	.	.	.	.	.	.	.	.	.	.	.	.	.	.	.
8r	.	.	8r	.	8r	.	16A-/	.	.	.	.	.	.	.	.	.	.	.	.	.	.	.	.	.	.	.	.	.	.	.	.
.	.	.	.	.	.	.	16G/JJ	.	.	.	.	.	.	.	.	.	.	.	.	.	.	.	.	.	.	.	.	.	.	.	.
!	!	!	!	!	!	!	!	!	!	!	!	!	!	!	!	!	!	!	!	!	!	!	!	!	!	!	!	!	!	!LO:LB:g=original	!
=15	=15	=15	=15	=15	=15	=15	=15	=15	=15	=15	=15	=15	=15	=15	=15	=15	=15	=15	=15	=15	=15	=15	=15	=15	=15	=15	=15	=15	=15	=15	=15
8c\	.	.	8G/	.	8e-/	.	16e-/LL	.	2C/	-re-	.	2c\	-re-	.	2g\	-re-	.	2ee-\	-re-	.	2.ryy	2.ryy	2.ryy	2.G/	.	2.g\	.	2.g/	.	2.ee-\	.
.	.	.	.	.	.	.	16G/	.	.	.	.	.	.	.	.	.	.	.	.	.	.	.	.	.	.	.	.	.	.	.	.
8r	.	.	8r	.	8r	.	16A-/	.	.	.	.	.	.	.	.	.	.	.	.	.	.	.	.	.	.	.	.	.	.	.	.
.	.	.	.	.	.	.	16G/JJ	.	.	.	.	.	.	.	.	.	.	.	.	.	.	.	.	.	.	.	.	.	.	.	.
*	*	*	*	*	*	*	*rep	*	*	*	*	*	*	*	*	*	*	*	*	*	*	*	*	*	*	*	*	*	*	*	*
8c\	.	.	8G/	.	8e-/	.	16e-/LL	.	.	.	.	.	.	.	.	.	.	.	.	.	.	.	.	.	.	.	.	.	.	.	.
.	.	.	.	.	.	.	16G/	.	.	.	.	.	.	.	.	.	.	.	.	.	.	.	.	.	.	.	.	.	.	.	.
8r	.	.	8r	.	8r	.	16A-/	.	.	.	.	.	.	.	.	.	.	.	.	.	.	.	.	.	.	.	.	.	.	.	.
.	.	.	.	.	.	.	16G/JJ	.	.	.	.	.	.	.	.	.	.	.	.	.	.	.	.	.	.	.	.	.	.	.	.
*	*	*	*	*	*	*	*Xrep	*	*	*	*	*	*	*	*	*	*	*	*	*	*	*	*	*	*	*	*	*	*	*	*
*	*	*	*	*	*	*	*rep	*	*	*	*	*	*	*	*	*	*	*	*	*	*	*	*	*	*	*	*	*	*	*	*
8c\	.	.	8G/	.	8e-/	.	16e-/LL	.	4C/	-re	.	4c\	-re	.	4g\	-re	.	4ee-\	-re	.	.	.	.	.	.	.	.	.	.	.	.
.	.	.	.	.	.	.	16G/	.	.	.	.	.	.	.	.	.	.	.	.	.	.	.	.	.	.	.	.	.	.	.	.
8r	.	.	8r	.	8r	.	16A-/	.	.	.	.	.	.	.	.	.	.	.	.	.	.	.	.	.	.	.	.	.	.	.	.
.	.	.	.	.	.	.	16G/JJ	.	.	.	.	.	.	.	.	.	.	.	.	.	.	.	.	.	.	.	.	.	.	.	.
!	!	!	!LO:LB:g=original	!	!	!	!	!	!	!	!	!	!	!	!LO:LB:g=original	!	!	!	!	!	!	!	!	!	!	!	!	!	!	!	!
*	*	*	*	*	*	*	*Xrep	*	*	*	*	*	*	*	*	*	*	*	*	*	*	*	*	*	*	*	*	*	*	*	*
=16	=16	=16	=16	=16	=16	=16	=16	=16	=16	=16	=16	=16	=16	=16	=16	=16	=16	=16	=16	=16	=16	=16	=16	=16	=16	=16	=16	=16	=16	=16	=16
!	!	!	!	!	!	!	!	!	!	!	!	!	!	!	!	!	!	!	!	!	!	!	!	!	!	!	!	!	!	!LO:MO:mod=*tremolo	!
*tremolo	*	*	*	*	*	*	*	*	*	*	*	*	*	*	*	*	*	*	*	*	*	*	*	*	*	*	*	*tremolo	*	*null	*
!!LO:TX:a:t= :mod=Tutti
!	!	!LO:MO:mod=!LO&colon;DY&colon;ed=brack	!	!	!	!	!	!	!	!	!	!	!	!	!	!	!	!	!	!	!	!	!	!	!	!	!LO:MO:mod=!LO&colon;DY&colon;ed=brack	!	!LO:MO:mod=!LO&colon;DY&colon;ed=brack	!	!
!LO:TX:a:t=Tutti:mod=	!	!LO:DY:t= :mod=%s	!	!LO:DY:t=fortiſ&colon;:mod=%s	!	!LO:DY:t=ff&colon;:mod=%s	!	!LO:DY:t=for:mod=%s	!	!	!LO:DY:a:t=for:mod=%s	!	!	!LO:DY:a:t=fr:mod=%s	!	!	!LO:DY:a:t=for&colon;:mod=%s	!	!	!LO:DY:a:t=for:mod=%s	!	!	!	!LO:SIC:s=8E-L	!LO:DY:a:t=for:mod=%s	!	!LO:DY:t= :mod=%s	!	!LO:DY:t= :mod=%s	!	!LO:DY:t=for&colon;:mod=%s
8C/L	6	ff	8A-/L	ff	8e-/L	ff	16e-/LL	ff	2C/	mi-	f	2c\	mi-	f	2a-\	mi-	f	2ee-\	mi-	f	2.ryy	2.ryy	2.ryy	8f\L	f	8e-\L	f	8a-X/L	f	8ee-\L	f
.	.	.	.	.	.	.	16A-/	.	.	.	.	.	.	.	.	.	.	.	.	.	.	.	.	.	.	.	.	.	.	.	.
!	!	!	!	!	!	!	!	!	!	!	!	!	!	!	!	!	!	!	!	!	!	!	!	!LO:SIC:s=8E-	!	!	!	!	!	!LO:SIC:s=8ee-	!
8C/	.	.	8A-/	.	8e-/	.	16c/	.	.	.	.	.	.	.	.	.	.	.	.	.	.	.	.	8f\	.	8e-\	.	8a-	.	8ee-\J	.
.	.	.	.	.	.	.	16e-/JJ	.	.	.	.	.	.	.	.	.	.	.	.	.	.	.	.	.	.	.	.	.	.	.	.
*	*	*	*	*	*	*	*	*	*	*	*	*	*	*	*	*	*	*	*	*	*	*	*	*	*	*	*	*	*	*tremolo	*
!	!	!	!	!	!	!	!	!	!	!	!	!	!	!	!	!	!	!	!	!	!	!	!	!LO:SIC:s=8E-	!	!	!	!	!	!LO:SIC:s=8ee-	!
8C/	.	.	8A-/	.	8e-/	.	16a-/LL	.	.	.	.	.	.	.	.	.	.	.	.	.	.	.	.	8f\	.	8e-\	.	8a-	.	8ee-\L	.
.	.	.	.	.	.	.	16e-/	.	.	.	.	.	.	.	.	.	.	.	.	.	.	.	.	.	.	.	.	.	.	.	.
!	!	!	!	!	!	!	!	!	!	!	!	!	!	!	!	!	!	!	!	!	!	!	!	!LO:SIC:s=8E-	!	!	!	!	!	!	!
8C/	.	.	8A-/	.	8e-/	.	16a-/	.	.	.	.	.	.	.	.	.	.	.	.	.	.	.	.	8f\	.	8e-\	.	8a-	.	8ee-\	.
.	.	.	.	.	.	.	16cc/JJ	.	.	.	.	.	.	.	.	.	.	.	.	.	.	.	.	.	.	.	.	.	.	.	.
!	!	!	!	!	!	!	!	!	!	!	!	!	!	!	!	!	!	!	!	!	!	!	!	!LO:SIC:s=8E-	!	!	!	!	!	!	!
8C/	.	.	8A-/	.	8e-/	.	16ee-\LL	.	4C/	-se-	.	4c\	-se-	.	4a-\	.	.	4ee-\	-se-	.	.	.	.	8f\	.	8e-\	.	8a-	.	8ee-\	.
.	.	.	.	.	.	.	16cc\	.	.	.	.	.	.	.	.	.	.	.	.	.	.	.	.	.	.	.	.	.	.	.	.
!	!	!	!	!	!	!	!	!	!	!	!	!	!	!	!	!	!	!	!	!	!	!	!	!LO:SIC:s=8E-J	!	!	!	!	!	!	!
8C/J	.	.	8A-/J	.	8e-/J	.	16b-\	.	.	.	.	.	.	.	.	.	.	.	.	.	.	.	.	8f\J	.	8e-\J	.	8a-/J	.	8ee-\J	.
.	.	.	.	.	.	.	16a-\JJ	.	.	.	.	.	.	.	.	.	.	.	.	.	.	.	.	.	.	.	.	.	.	.	.
!	!	!	!	!	!	!	!	!	!	!	!	!	!	!	!	!	!	!	!	!	!	!	!	!	!	!	!	!LO:MO:mod=*null:null	!	!	!
*	*	*	*	*	*	*	*	*	*	*	*	*	*	*	*	*	*	*	*	*	*	*	*	*	*	*	*	*Xtremolo	*	*	*
!	!	!	!	!	!	!	!	!	!LO:LB:g=original	!	!	!	!	!	!	!	!	!	!	!	!	!	!	!	!	!	!	!	!	!	!
!!LO:MO:ori
=17	=17	=17	=17	=17	=17	=17	=17	=17	=17	=17	=17	=17	=17	=17	=17	=17	=17	=17	=17	=17	=17	=17	=17	=17	=17	=17	=17	=17	=17	=17	=17
!	!	!	!	!	!	!	!	!	!LO:MO:mod=*null:null	!	!	!	!	!	!	!	!	!	!	!	!	!	!	!	!	!	!	!	!	!	!
*	*	*	*	*	*	*	*	*	*2\right	*	*	*	*	*	*	*	*	*	*	*	*	*	*	*	*	*	*	*	*	*	*
8D/L	6 5	.	8A-/L	.	8f/L	.	16a-/LL	.	2D\	-re-	.	2B-\	-re-	.	2a-\	-se-	.	2ff\	-re-	.	2.ryy	2.ryy	2.ryy	2.B-/	.	2.f\	.	2.a-/	.	8ff\L	.
.	.	.	.	.	.	.	16B-/	.	.	.	.	.	.	.	.	.	.	.	.	.	.	.	.	.	.	.	.	.	.	.	.
8D/	.	.	8A-/	.	8f/	.	16d/	.	.	.	.	.	.	.	.	.	.	.	.	.	.	.	.	.	.	.	.	.	.	8ff\	.
.	.	.	.	.	.	.	16f/JJ	.	.	.	.	.	.	.	.	.	.	.	.	.	.	.	.	.	.	.	.	.	.	.	.
8D/	.	.	8A-/	.	8f/	.	16b-\LL	.	.	.	.	.	.	.	.	.	.	.	.	.	.	.	.	.	.	.	.	.	.	8ff\	.
.	.	.	.	.	.	.	16dd\	.	.	.	.	.	.	.	.	.	.	.	.	.	.	.	.	.	.	.	.	.	.	.	.
8D/	.	.	8A-/	.	8f/	.	16ff\	.	.	.	.	.	.	.	.	.	.	.	.	.	.	.	.	.	.	.	.	.	.	8ff\	.
.	.	.	.	.	.	.	16ee-\JJ	.	.	.	.	.	.	.	.	.	.	.	.	.	.	.	.	.	.	.	.	.	.	.	.
8D/	.	.	8A-/	.	8f/	.	16dd\LL	.	4D\	-re	.	4B-\	-re	.	4a-\	.	.	4ff\	-re	.	.	.	.	.	.	.	.	.	.	8ff\	.
.	.	.	.	.	.	.	16cc\	.	.	.	.	.	.	.	.	.	.	.	.	.	.	.	.	.	.	.	.	.	.	.	.
8D/J	.	.	8A-/J	.	8f/J	.	16b-\	.	.	.	.	.	.	.	.	.	.	.	.	.	.	.	.	.	.	.	.	.	.	8ff\J	.
.	.	.	.	.	.	.	16a-\JJ	.	.	.	.	.	.	.	.	.	.	.	.	.	.	.	.	.	.	.	.	.	.	.	.
!	!	!	!	!	!	!	!	!	!	!	!	!	!	!	!	!	!	!	!	!	!	!	!	!LO:LB:g=original	!	!	!	!	!	!	!
=18	=18	=18	=18	=18	=18	=18	=18	=18	=18	=18	=18	=18	=18	=18	=18	=18	=18	=18	=18	=18	=18	=18	=18	=18	=18	=18	=18	=18	=18	=18	=18
8E-\L	.	.	8B-/L	.	8g/L	.	16g/LL	.	2E-\	mi-	.	2B-\	mi-	.	2g\	-re-	.	2ee-\	mi-	.	2.ryy	2.ryy	2.ryy	2.e-\	.	2.g\	.	2.b-\	.	8gg\L	.
.	.	.	.	.	.	.	16B-/	.	.	.	.	.	.	.	.	.	.	.	.	.	.	.	.	.	.	.	.	.	.	.	.
8E-\	.	.	8B-/	.	8g/	.	16e-/	.	.	.	.	.	.	.	.	.	.	.	.	.	.	.	.	.	.	.	.	.	.	8gg\	.
.	.	.	.	.	.	.	16g/JJ	.	.	.	.	.	.	.	.	.	.	.	.	.	.	.	.	.	.	.	.	.	.	.	.
8E-\	.	.	8B-/	.	8g/	.	16b-\LL	.	.	.	.	.	.	.	.	.	.	.	.	.	.	.	.	.	.	.	.	.	.	8gg\	.
.	.	.	.	.	.	.	16ee-\	.	.	.	.	.	.	.	.	.	.	.	.	.	.	.	.	.	.	.	.	.	.	.	.
8E-\	.	.	8B-/	.	8g/	.	16gg\	.	.	.	.	.	.	.	.	.	.	.	.	.	.	.	.	.	.	.	.	.	.	8gg\	.
.	.	.	.	.	.	.	16bb-\JJ	.	.	.	.	.	.	.	.	.	.	.	.	.	.	.	.	.	.	.	.	.	.	.	.
!	!	!	!	!	!	!	!LO:LB:g=original	!	!	!	!	!	!	!	!	!	!	!	!	!	!	!	!	!	!	!	!	!	!	!	!
8E-\	.	.	8B-/	.	8g/	.	16aa-\LL	.	4E-\	-se-	.	4B-\	-se-	.	4g\	.	.	4ee-\	-se-	.	.	.	.	.	.	.	.	.	.	8gg\	.
.	.	.	.	.	.	.	16gg\	.	.	.	.	.	.	.	.	.	.	.	.	.	.	.	.	.	.	.	.	.	.	.	.
8E-\J	.	.	8B-/J	.	8g/J	.	16ff\	.	.	.	.	.	.	.	.	.	.	.	.	.	.	.	.	.	.	.	.	.	.	8gg\J	.
.	.	.	.	.	.	.	16ee-\JJ	.	.	.	.	.	.	.	.	.	.	.	.	.	.	.	.	.	.	.	.	.	.	.	.
=19	=19	=19	=19	=19	=19	=19	=19	=19	=19	=19	=19	=19	=19	=19	=19	=19	=19	=19	=19	=19	=19	=19	=19	=19	=19	=19	=19	=19	=19	=19	=19
!	!	!	!	!	!	!	!LO:TX:t=P:problem=mixed beam:mod=	!	!	!	!	!	!	!	!	!	!	!	!	!	!	!	!	!	!	!	!	!	!	!	!
8F\L	6	.	8B-/L	.	8a-/L	.	16dd\LL	.	2F\	-re-	.	2B-\	-re-	.	2a-\	-re	.	2dd\	-re-	.	2.ryy	2.ryy	2.ryy	2.B-/	.	2.b-\	.	2.dd\	.	8aa-\L	.
.	.	.	.	.	.	.	16B-/	.	.	.	.	.	.	.	.	.	.	.	.	.	.	.	.	.	.	.	.	.	.	.	.
8F\	.	.	8B-/	.	8a-/	.	16d/	.	.	.	.	.	.	.	.	.	.	.	.	.	.	.	.	.	.	.	.	.	.	8aa-\	.
.	.	.	.	.	.	.	16f/JJ	.	.	.	.	.	.	.	.	.	.	.	.	.	.	.	.	.	.	.	.	.	.	.	.
8F\	.	.	8B-/	.	8a-/	.	16b-\LL	.	.	.	.	.	.	.	.	.	.	.	.	.	.	.	.	.	.	.	.	.	.	8aa-\	.
.	.	.	.	.	.	.	16dd\	.	.	.	.	.	.	.	.	.	.	.	.	.	.	.	.	.	.	.	.	.	.	.	.
8F\	.	.	8B-/	.	8a-/	.	16ff\	.	.	.	.	.	.	.	.	.	.	.	.	.	.	.	.	.	.	.	.	.	.	8aa-\	.
.	.	.	.	.	.	.	16dd\JJ	.	.	.	.	.	.	.	.	.	.	.	.	.	.	.	.	.	.	.	.	.	.	.	.
8F\	.	.	8B-/	.	8a-/	.	16bb-\LL	.	4F\	-re	.	4B-\	-re	.	4a-\	.	.	4dd\	-re	.	.	.	.	.	.	.	.	.	.	8aa-\	.
.	.	.	.	.	.	.	16ff\	.	.	.	.	.	.	.	.	.	.	.	.	.	.	.	.	.	.	.	.	.	.	.	.
8F\J	.	.	8B-/J	.	8a-/J	.	16dd\	.	.	.	.	.	.	.	.	.	.	.	.	.	.	.	.	.	.	.	.	.	.	8aa-\J	.
.	.	.	.	.	.	.	16b-\JJ	.	.	.	.	.	.	.	.	.	.	.	.	.	.	.	.	.	.	.	.	.	.	.	.
!	!	!	!	!	!	!	!	!	!	!	!	!	!	!	!	!	!	!	!	!	!	!	!	!	!	!	!	!	!	!LO:MO:mod=*null:null	!
*	*	*	*	*	*	*	*	*	*	*	*	*	*	*	*	*	*	*	*	*	*	*	*	*	*	*	*	*	*	*Xtremolo	*
=20	=20	=20	=20	=20	=20	=20	=20	=20	=20	=20	=20	=20	=20	=20	=20	=20	=20	=20	=20	=20	=20	=20	=20	=20	=20	=20	=20	=20	=20	=20	=20
8G\L	6	.	8e-\L	.	8b-\L	.	16gg\LL	.	2G\	mi-	.	2B-\	no-	.	2b-\	mi-	.	2ee-\	mi-	.	2.ryy	2.ryy	2.ryy	2.B-/	.	2.b-\	.	2.ee-\	.	8bb-\L	.
.	.	.	.	.	.	.	16e-/	.	.	.	.	.	.	.	.	.	.	.	.	.	.	.	.	.	.	.	.	.	.	.	.
8G\	.	.	8e-\	.	8b-\	.	16g/	.	.	.	.	.	.	.	.	.	.	.	.	.	.	.	.	.	.	.	.	.	.	8bb-\J	.
.	.	.	.	.	.	.	16b-/JJ	.	.	.	.	.	.	.	.	.	.	.	.	.	.	.	.	.	.	.	.	.	.	.	.
*	*	*	*	*	*	*	*	*	*	*	*	*	*	*	*	*	*	*	*	*	*	*	*	*	*	*	*	*	*	*tremolo	*
8G\	.	.	8e-\	.	8b-\	.	16ee-\LL	.	.	.	.	.	.	.	.	.	.	.	.	.	.	.	.	.	.	.	.	.	.	8bb-\L	.
.	.	.	.	.	.	.	16b-\	.	.	.	.	.	.	.	.	.	.	.	.	.	.	.	.	.	.	.	.	.	.	.	.
8G\	.	.	8e-\	.	8b-\	.	16ee-\	.	.	.	.	.	.	.	.	.	.	.	.	.	.	.	.	.	.	.	.	.	.	8bb-\	.
.	.	.	.	.	.	.	16gg\JJ	.	.	.	.	.	.	.	.	.	.	.	.	.	.	.	.	.	.	.	.	.	.	.	.
8G\	.	.	8e-\	.	8b-\	.	16bb-\LL	.	4G\	-se-	.	4B-\	-bis	.	4g\	-se-	.	4ee-\	-se-	.	.	.	.	.	.	.	.	.	.	8bb-\	.
.	.	.	.	.	.	.	16gg\	.	.	.	.	.	.	.	.	.	.	.	.	.	.	.	.	.	.	.	.	.	.	.	.
8G\J	.	.	8e-\J	.	8b-\J	.	16ff\	.	.	.	.	.	.	.	.	.	.	.	.	.	.	.	.	.	.	.	.	.	.	8bb-\J	.
.	.	.	.	.	.	.	16ee-\JJ	.	.	.	.	.	.	.	.	.	.	.	.	.	.	.	.	.	.	.	.	.	.	.	.
!	!	!	!	!	!LO:LB:g=original	!	!	!	!	!	!	!	!	!	!	!	!	!	!	!	!	!	!	!	!	!	!	!	!	!	!
!!LO:MO:mod
!! =17	=17	=17	=17	=17	=17	=17	=17	=17	=17	=17	=17	=17	=17	=17	=17	=17	=17	=17	=17	=17	=17	=17	=17	=17	=17	=17	=17	=17	=17	=17	=17
!! !	!	!	!	!	!	!	!	!	!LO:MO:mod=*null:null	!	!	!	!	!	!	!	!	!	!	!	!	!	!	!	!	!	!	!	!	!	!
!! *	*	*	*	*	*	*	*	*	*2\right	*	*	*	*	*	*	*	*	*	*	*	*	*	*	*	*	*	*	*	*	*	*
!! 8D/L	6 5	.	8A-/L	.	8f/L	.	16a-/LL	.	2D\	-re-	.	2B-\	-re-	.	2a-\	-se-	.	2ff\	-re-	.	2.ryy	2.ryy	2.ryy	8B-L	.	8fL	.	8a-L	.	8ff\L	.
!! .	.	.	.	.	.	.	16B-/	.	.	.	.	.	.	.	.	.	.	.	.	.	.	.	.	.	.	.	.	.	.	.	.
!! 8D/	.	.	8A-/	.	8f/	.	16d/	.	.	.	.	.	.	.	.	.	.	.	.	.	.	.	.	8B-	.	8f	.	8a-	.	8ff\	.
!! .	.	.	.	.	.	.	16f/JJ	.	.	.	.	.	.	.	.	.	.	.	.	.	.	.	.	.	.	.	.	.	.	.	.
!! 8D/	.	.	8A-/	.	8f/	.	16b-\LL	.	.	.	.	.	.	.	.	.	.	.	.	.	.	.	.	8B-	.	8f	.	8a-	.	8ff\	.
!! .	.	.	.	.	.	.	16dd\	.	.	.	.	.	.	.	.	.	.	.	.	.	.	.	.	.	.	.	.	.	.	.	.
!! 8D/	.	.	8A-/	.	8f/	.	16ff\	.	.	.	.	.	.	.	.	.	.	.	.	.	.	.	.	8B-	.	8f	.	8a-	.	8ff\	.
!! .	.	.	.	.	.	.	16ee-\JJ	.	.	.	.	.	.	.	.	.	.	.	.	.	.	.	.	.	.	.	.	.	.	.	.
!! 8D/	.	.	8A-/	.	8f/	.	16dd\LL	.	4D\	-re	.	4B-\	-re	.	4a-\	.	.	4ff\	-re	.	.	.	.	8B-	.	8f	.	8a-	.	8ff\	.
!! .	.	.	.	.	.	.	16cc\	.	.	.	.	.	.	.	.	.	.	.	.	.	.	.	.	.	.	.	.	.	.	.	.
!! 8D/J	.	.	8A-/J	.	8f/J	.	16b-\	.	.	.	.	.	.	.	.	.	.	.	.	.	.	.	.	8B-J	.	8fJ	.	8a-J	.	8ff\J	.
!! .	.	.	.	.	.	.	16a-\JJ	.	.	.	.	.	.	.	.	.	.	.	.	.	.	.	.	.	.	.	.	.	.	.	.
!! !	!	!	!	!	!	!	!	!	!	!	!	!	!	!	!	!	!	!	!	!	!	!	!	!LO:LB:g=original	!	!	!	!	!	!	!
!! =18	=18	=18	=18	=18	=18	=18	=18	=18	=18	=18	=18	=18	=18	=18	=18	=18	=18	=18	=18	=18	=18	=18	=18	=18	=18	=18	=18	=18	=18	=18	=18
!! 8E-\L	.	.	8B-/L	.	8g/L	.	16g/LL	.	2E-\	mi-	.	2B-\	mi-	.	2g\	-re-	.	2ee-\	mi-	.	2.ryy	2.ryy	2.ryy	8e-L	.	8gL	.	8b-L	.	8gg\L	.
!! .	.	.	.	.	.	.	16B-/	.	.	.	.	.	.	.	.	.	.	.	.	.	.	.	.	.	.	.	.	.	.	.	.
!! 8E-\	.	.	8B-/	.	8g/	.	16e-/	.	.	.	.	.	.	.	.	.	.	.	.	.	.	.	.	8e-	.	8g	.	8b-	.	8gg\	.
!! .	.	.	.	.	.	.	16g/JJ	.	.	.	.	.	.	.	.	.	.	.	.	.	.	.	.	.	.	.	.	.	.	.	.
!! 8E-\	.	.	8B-/	.	8g/	.	16b-\LL	.	.	.	.	.	.	.	.	.	.	.	.	.	.	.	.	8e-	.	8g	.	8b-	.	8gg\	.
!! .	.	.	.	.	.	.	16ee-\	.	.	.	.	.	.	.	.	.	.	.	.	.	.	.	.	.	.	.	.	.	.	.	.
!! 8E-\	.	.	8B-/	.	8g/	.	16gg\	.	.	.	.	.	.	.	.	.	.	.	.	.	.	.	.	8e-	.	8g	.	8b-	.	8gg\	.
!! .	.	.	.	.	.	.	16bb-\JJ	.	.	.	.	.	.	.	.	.	.	.	.	.	.	.	.	.	.	.	.	.	.	.	.
!! !	!	!	!	!	!	!	!LO:LB:g=original	!	!	!	!	!	!	!	!	!	!	!	!	!	!	!	!	!	!	!	!	!	!	!	!
!! 8E-\	.	.	8B-/	.	8g/	.	16aa-\LL	.	4E-\	-se-	.	4B-\	-se-	.	4g\	.	.	4ee-\	-se-	.	.	.	.	8e-	.	8g	.	8b-	.	8gg\	.
!! .	.	.	.	.	.	.	16gg\	.	.	.	.	.	.	.	.	.	.	.	.	.	.	.	.	.	.	.	.	.	.	.	.
!! 8E-\J	.	.	8B-/J	.	8g/J	.	16ff\	.	.	.	.	.	.	.	.	.	.	.	.	.	.	.	.	8e-J	.	8gJ	.	8b-J	.	8gg\J	.
!! .	.	.	.	.	.	.	16ee-\JJ	.	.	.	.	.	.	.	.	.	.	.	.	.	.	.	.	.	.	.	.	.	.	.	.
!! =19	=19	=19	=19	=19	=19	=19	=19	=19	=19	=19	=19	=19	=19	=19	=19	=19	=19	=19	=19	=19	=19	=19	=19	=19	=19	=19	=19	=19	=19	=19	=19
!! 8F\L	6	.	8B-/L	.	8a-/L	.	16dd\LL	.	2F\	-re-	.	2B-\	-re-	.	2a-\	-re	.	2dd\	-re-	.	2.ryy	2.ryy	2.ryy	8B-L	.	8b-L	.	8ddL	.	8aa-\L	.
!! .	.	.	.	.	.	.	16B-/	.	.	.	.	.	.	.	.	.	.	.	.	.	.	.	.	.	.	.	.	.	.	.	.
!! 8F\	.	.	8B-/	.	8a-/	.	16d/	.	.	.	.	.	.	.	.	.	.	.	.	.	.	.	.	8B-	.	8b-	.	8dd	.	8aa-\	.
!! .	.	.	.	.	.	.	16f/JJ	.	.	.	.	.	.	.	.	.	.	.	.	.	.	.	.	.	.	.	.	.	.	.	.
!! 8F\	.	.	8B-/	.	8a-/	.	16b-\LL	.	.	.	.	.	.	.	.	.	.	.	.	.	.	.	.	8B-	.	8b-	.	8dd	.	8aa-\	.
!! .	.	.	.	.	.	.	16dd\	.	.	.	.	.	.	.	.	.	.	.	.	.	.	.	.	.	.	.	.	.	.	.	.
!! 8F\	.	.	8B-/	.	8a-/	.	16ff\	.	.	.	.	.	.	.	.	.	.	.	.	.	.	.	.	8B-	.	8b-	.	8dd	.	8aa-\	.
!! .	.	.	.	.	.	.	16dd\JJ	.	.	.	.	.	.	.	.	.	.	.	.	.	.	.	.	.	.	.	.	.	.	.	.
!! 8F\	.	.	8B-/	.	8a-/	.	16bb-\LL	.	4F\	-re	.	4B-\	-re	.	4a-\	.	.	4dd\	-re	.	.	.	.	8B-	.	8b-	.	8dd	.	8aa-\	.
!! .	.	.	.	.	.	.	16ff\	.	.	.	.	.	.	.	.	.	.	.	.	.	.	.	.	.	.	.	.	.	.	.	.
!! 8F\J	.	.	8B-/J	.	8a-/J	.	16dd\	.	.	.	.	.	.	.	.	.	.	.	.	.	.	.	.	8B-J	.	8b-J	.	8ddJ	.	8aa-\J	.
!! .	.	.	.	.	.	.	16b-\JJ	.	.	.	.	.	.	.	.	.	.	.	.	.	.	.	.	.	.	.	.	.	.	.	.
!! =20	=20	=20	=20	=20	=20	=20	=20	=20	=20	=20	=20	=20	=20	=20	=20	=20	=20	=20	=20	=20	=20	=20	=20	=20	=20	=20	=20	=20	=20	=20	=20
!! 8G\L	6	.	8e-\L	.	8b-\L	.	16gg\LL	.	2G\	mi-	.	2B-\	no-	.	2b-\	mi-	.	2ee-\	mi-	.	2.ryy	2.ryy	2.ryy	8B-L	.	8b-L	.	8ee-L	.	8bb-\L	.
!! .	.	.	.	.	.	.	16e-/	.	.	.	.	.	.	.	.	.	.	.	.	.	.	.	.	.	.	.	.	.	.	.	.
!! 8G\	.	.	8e-\	.	8b-\	.	16g/	.	.	.	.	.	.	.	.	.	.	.	.	.	.	.	.	8B-	.	8b-	.	8ee-	.	8bb-\	.
!! .	.	.	.	.	.	.	16b-/JJ	.	.	.	.	.	.	.	.	.	.	.	.	.	.	.	.	.	.	.	.	.	.	.	.
!! 8G\	.	.	8e-\	.	8b-\	.	16ee-\LL	.	.	.	.	.	.	.	.	.	.	.	.	.	.	.	.	8B-	.	8b-	.	8ee-	.	8bb-\	.
!! .	.	.	.	.	.	.	16b-\	.	.	.	.	.	.	.	.	.	.	.	.	.	.	.	.	.	.	.	.	.	.	.	.
!! 8G\	.	.	8e-\	.	8b-\	.	16ee-\	.	.	.	.	.	.	.	.	.	.	.	.	.	.	.	.	8B-	.	8b-	.	8ee-	.	8bb-\	.
!! .	.	.	.	.	.	.	16gg\JJ	.	.	.	.	.	.	.	.	.	.	.	.	.	.	.	.	.	.	.	.	.	.	.	.
!! 8G\	.	.	8e-\	.	8b-\	.	16bb-\LL	.	4G\	-se-	.	4B-\	-bis	.	4g\	-se-	.	4ee-\	-se-	.	.	.	.	8B-	.	8b-	.	8ee-	.	8bb-\	.
!! .	.	.	.	.	.	.	16gg\	.	.	.	.	.	.	.	.	.	.	.	.	.	.	.	.	.	.	.	.	.	.	.	.
!! 8G\J	.	.	8e-\J	.	8b-\J	.	16ff\	.	.	.	.	.	.	.	.	.	.	.	.	.	.	.	.	8B-J	.	8b-J	.	8ee-J	.	8bb-\J	.
!! .	.	.	.	.	.	.	16ee-\JJ	.	.	.	.	.	.	.	.	.	.	.	.	.	.	.	.	.	.	.	.	.	.	.	.
!! *	*	*	*	*	*	*	*	*	*	*	*	*	*	*	*	*	*	*	*	*	*	*	*	*Xtremolo	*	*Xtremolo	*	*Xtremolo	*	*	*
!! !	!	!	!	!	!LO:LB:g=original	!	!	!	!	!	!	!	!	!	!	!	!	!	!	!	!	!	!	!	!	!	!	!	!	!	!
!!LO:MO:end
=21	=21	=21	=21	=21	=21	=21	=21	=21	=21	=21	=21	=21	=21	=21	=21	=21	=21	=21	=21	=21	=21	=21	=21	=21	=21	=21	=21	=21	=21	=21	=21
*	*	*	*Xtremolo	*	*	*	*	*	*	*	*	*	*	*	*	*	*	*	*	*	*	*	*	*	*	*	*	*	*	*	*
8A-\L	5	.	8e-\L	.	8cc\L	.	8cc\L	.	2A-\	-re-	.	2c\	mi-	.	2f\	-re-	.	2cc\	-re-	.	2.ryy	2.ryy	2.ryy	4e-\	.	4e-\	.	4ee-\	.	2.ccc\	.
8A-\	.	.	8e-\J	.	8cc\	.	8ccc\J	.	.	.	.	.	.	.	.	.	.	.	.	.	.	.	.	.	.	.	.	.	.	.	.
*	*	*	*tremolo	*	*	*	*	*	*	*	*	*	*	*	*	*	*	*	*	*	*	*	*	*	*	*	*	*	*	*	*
8A-\	6	.	8f\L	.	8cc\	.	16r	.	.	.	.	.	.	.	.	.	.	.	.	.	.	.	.	2f\	.	2f\	.	2ff\	.	.	.
.	.	.	.	.	.	.	16ff\LL	.	.	.	.	.	.	.	.	.	.	.	.	.	.	.	.	.	.	.	.	.	.	.	.
8A-\	.	.	8f\	.	8cc\	.	16een\	.	.	.	.	.	.	.	.	.	.	.	.	.	.	.	.	.	.	.	.	.	.	.	.
.	.	.	.	.	.	.	16ff\JJ	.	.	.	.	.	.	.	.	.	.	.	.	.	.	.	.	.	.	.	.	.	.	.	.
8A-\	.	.	8f\	.	8cc\	.	16gg\LL	.	4A-\	-re	.	4c\	-se-	.	4f\	-re	.	4cc\	-re	.	.	.	.	.	.	.	.	.	.	.	.
.	.	.	.	.	.	.	16ff\	.	.	.	.	.	.	.	.	.	.	.	.	.	.	.	.	.	.	.	.	.	.	.	.
8A-\J	.	.	8f\J	.	8cc\J	.	16aa-\	.	.	.	.	.	.	.	.	.	.	.	.	.	.	.	.	.	.	.	.	.	.	.	.
.	.	.	.	.	.	.	16ff\JJ	.	.	.	.	.	.	.	.	.	.	.	.	.	.	.	.	.	.	.	.	.	.	.	.
!	!	!	!	!	!	!	!	!	!	!	!	!LO:LB:g=original	!	!	!	!	!	!LO:LB:g=original	!	!	!	!	!	!	!	!	!	!	!	!	!
!!LO:MO:ori
=22	=22	=22	=22	=22	=22	=22	=22	=22	=22	=22	=22	=22	=22	=22	=22	=22	=22	=22	=22	=22	=22	=22	=22	=22	=22	=22	=22	=22	=22	=22	=22
8B-\L	5 3	.	8d\L	.	8f/L	.	16ee-\LL	.	2B-\	mi-	.	2B-\	-re-	.	2f\	no-	.	2dd\	no-	.	2.ryy	2.ryy	2.ryy	2.B-/	.	2.f\	.	8dd\L	.	8ff\L	.
.	.	.	.	.	.	.	16dd\	.	.	.	.	.	.	.	.	.	.	.	.	.	.	.	.	.	.	.	.	.	.	.	.
8B-\	.	.	8d\	.	8f/	.	16gg\	.	.	.	.	.	.	.	.	.	.	.	.	.	.	.	.	.	.	.	.	8dd\	.	8ff\	.
.	.	.	.	.	.	.	16ff\JJ	.	.	.	.	.	.	.	.	.	.	.	.	.	.	.	.	.	.	.	.	.	.	.	.
8B-\	.	.	8B-\	.	8f/	.	16aa-\LL	.	.	.	.	.	.	.	.	.	.	.	.	.	.	.	.	.	.	.	.	8dd\	.	8ff\	.
.	.	.	.	.	.	.	16gg\	.	.	.	.	.	.	.	.	.	.	.	.	.	.	.	.	.	.	.	.	.	.	.	.
8B-\J	.	.	8B-\	.	8f/	.	16ff\	.	.	.	.	.	.	.	.	.	.	.	.	.	.	.	.	.	.	.	.	8dd\	.	8ff\J	.
.	.	.	.	.	.	.	16ee-\JJ	.	.	.	.	.	.	.	.	.	.	.	.	.	.	.	.	.	.	.	.	.	.	.	.
*Xtremolo	*	*	*	*	*	*	*	*	*	*	*	*	*	*	*	*	*	*	*	*	*	*	*	*	*	*	*	*	*	*Xtremolo	*
!	!	!	!	!	!	!	!LO:LB:g=original	!	!	!	!	!	!	!	!	!	!	!	!	!	!	!	!	!	!	!	!	!	!	!	!
8D/L	6 3	.	8d\	.	8f/	.	16dd\LL	.	4D\	-se-	.	4B-\	-re	.	4a-\	-bis	.	4ff\	-bis	.	.	.	.	.	.	.	.	8ff\	.	8aa-\L	.
.	.	.	.	.	.	.	16cc\	.	.	.	.	.	.	.	.	.	.	.	.	.	.	.	.	.	.	.	.	.	.	.	.
8D/J	.	.	8d\J	.	8f/J	.	16b-\	.	.	.	.	.	.	.	.	.	.	.	.	.	.	.	.	.	.	.	.	8ff\J	.	8aa-\J	.
.	.	.	.	.	.	.	16a-\JJ	.	.	.	.	.	.	.	.	.	.	.	.	.	.	.	.	.	.	.	.	.	.	.	.
!LO:LB:g=original	!	!	!	!	!	!	!	!	!	!	!	!	!	!	!	!	!	!	!	!	!	!	!	!	!	!	!	!	!	!	!
=23	=23	=23	=23	=23	=23	=23	=23	=23	=23	=23	=23	=23	=23	=23	=23	=23	=23	=23	=23	=23	=23	=23	=23	=23	=23	=23	=23	=23	=23	=23	=23
*	*	*	*	*	*Xtremolo	*	*	*	*	*	*	*	*	*	*	*	*	*	*	*	*	*	*	*	*	*	*	*	*	*	*
!LO:TX:t=P:problem=mixed beam:mod=	!	!	!	!	!	!	!	!	!	!	!	!	!	!	!	!	!	!	!	!	!	!	!	!	!	!LO:TX:a:t=c:mod=	!	!	!	!	!
8E-\L	.	.	8e-\L	.	8g/L	.	16g/LL	.	4E-\	-re-	.	(4B-\	no-	.	(4g\	mi-	.	2ee-\	mi-	.	2.ryy	2.ryy	2.ryy	8E-/L	.	8e-\L	.	2.ee-\	.	8gg\L	.
.	.	.	.	.	.	.	16e-/	.	.	.	.	.	.	.	.	.	.	.	.	.	.	.	.	.	.	.	.	.	.	.	.
8E-\	.	.	8e-\	.	8g/	.	16f/	.	.	.	.	.	.	.	.	.	.	.	.	.	.	.	.	8E-/	.	8e-\	.	.	.	8gg\	.
.	.	.	.	.	.	.	16e-/JJ	.	.	.	.	.	.	.	.	.	.	.	.	.	.	.	.	.	.	.	.	.	.	.	.
8C\	6	.	8c\	.	8a-/	.	16a-/LL	.	4C/	.	.	4A-\)	.	.	4a-\)	.	.	.	.	.	.	.	.	8E-/	.	8e-\	.	.	.	8aa-\	.
.	.	.	.	.	.	.	16e-/	.	.	.	.	.	.	.	.	.	.	.	.	.	.	.	.	.	.	.	.	.	.	.	.
8C\	.	.	8c\	.	8a-/	.	16f/	.	.	.	.	.	.	.	.	.	.	.	.	.	.	.	.	8E-/	.	8e-\	.	.	.	8aa-\	.
.	.	.	.	.	.	.	16e-/JJ	.	.	.	.	.	.	.	.	.	.	.	.	.	.	.	.	.	.	.	.	.	.	.	.
8GG/	6	.	8d-X\	.	8b-/	.	16b-/LL	.	4G\	-re	.	4B-\	-bis	.	4b-\	-se-	.	4ee-\	-se-	.	.	.	.	8E-/	.	8e-\	.	.	.	8bb-\	.
.	.	.	.	.	.	.	16e-/	.	.	.	.	.	.	.	.	.	.	.	.	.	.	.	.	.	.	.	.	.	.	.	.
8GG/J	.	.	8d-\J	.	8b-/J	.	16f/	.	.	.	.	.	.	.	.	.	.	.	.	.	.	.	.	8E-/J	.	8e-\J	.	.	.	8bb-\J	.
.	.	.	.	.	.	.	16e-/JJ	.	.	.	.	.	.	.	.	.	.	.	.	.	.	.	.	.	.	.	.	.	.	.	.
=24	=24	=24	=24	=24	=24	=24	=24	=24	=24	=24	=24	=24	=24	=24	=24	=24	=24	=24	=24	=24	=24	=24	=24	=24	=24	=24	=24	=24	=24	=24	=24
!	!	!	!	!	!	!	!LO:TX:t=P:problem=mixed beam:mod=	!	!	!	!	!	!	!	!	!	!	!	!	!	!	!	!	!	!	!	!	!	!	!	!
8AA-/L	.	.	8e-\L	.	8cc\L	.	16cc\LL	.	4A-\	no-	.	4c\	mi-	.	4a-\	-re-	.	2ee-\	-re-	.	2.ryy	2.ryy	2.ryy	8E-/L	.	8e-\L	.	2.ee-\	.	4ccc\	.
.	.	.	.	.	.	.	16e-/	.	.	.	.	.	.	.	.	.	.	.	.	.	.	.	.	.	.	.	.	.	.	.	.
8A-\J	.	.	8e-\J	.	8cc\J	.	16f/	.	.	.	.	.	.	.	.	.	.	.	.	.	.	.	.	8E-/	.	8e-\	.	.	.	.	.
.	.	.	.	.	.	.	16e-/JJ	.	.	.	.	.	.	.	.	.	.	.	.	.	.	.	.	.	.	.	.	.	.	.	.
*tremolo	*	*	*tremolo	*	*tremolo	*	*	*	*	*	*	*	*	*	*	*	*	*	*	*	*	*	*	*	*	*	*	*	*	*	*
!	!	!	!	!	!	!	!LO:TX:t=P:problem=mixed beam:mod=	!	!	!	!	!	!	!	!	!	!	!	!	!	!	!	!	!	!	!	!	!	!	!	!
8G\L	6	.	8B-/L	.	8dd-X\L	.	16dd-X\LL	.	2G\	-bis	.	2d-X\	-se-	.	2b-\	-re	.	.	.	.	.	.	.	8E-/	.	8e-\	.	.	.	2ddd-X\	.
.	.	.	.	.	.	.	16e-/	.	.	.	.	.	.	.	.	.	.	.	.	.	.	.	.	.	.	.	.	.	.	.	.
8G\	5	.	8B-/	.	8dd-X\	.	16f/	.	.	.	.	.	.	.	.	.	.	.	.	.	.	.	.	8E-/	.	8e-\	.	.	.	.	.
.	.	.	.	.	.	.	16e-/JJ	.	.	.	.	.	.	.	.	.	.	.	.	.	.	.	.	.	.	.	.	.	.	.	.
*	*	*	*	*	*	*	*rep	*	*	*	*	*	*	*	*	*	*	*	*	*	*	*	*	*	*	*	*	*	*	*	*
!	!	!	!	!	!	!	!LO:TX:t=P:problem=mixed beam:mod=	!	!	!	!	!	!	!	!	!	!	!	!	!	!	!	!	!	!	!	!	!	!	!	!
8G\	.	.	8B-/	.	8dd-X\	.	16dd-/LL	.	.	.	.	.	.	.	.	.	.	4ee-\	-re	.	.	.	.	8E-/	.	8e-\	.	.	.	.	.
.	.	.	.	.	.	.	16e-/	.	.	.	.	.	.	.	.	.	.	.	.	.	.	.	.	.	.	.	.	.	.	.	.
8G\J	.	.	8B-/J	.	8dd-X\J	.	16f/	.	.	.	.	.	.	.	.	.	.	.	.	.	.	.	.	8E-/J	.	8e-\J	.	.	.	.	.
.	.	.	.	.	.	.	16e-/JJ	.	.	.	.	.	.	.	.	.	.	.	.	.	.	.	.	.	.	.	.	.	.	.	.
*	*	*	*	*	*	*	*Xrep	*	*	*	*	*	*	*	*	*	*	*	*	*	*	*	*	*	*	*	*	*	*	*	*
=25	=25	=25	=25	=25	=25	=25	=25	=25	=25	=25	=25	=25	=25	=25	=25	=25	=25	=25	=25	=25	=25	=25	=25	=25	=25	=25	=25	=25	=25	=25	=25
8A-\L	.	.	8A-/L	.	8cc\L	.	16cc\LL	.	2.A-\	no-	.	2.c\	-re-	.	2.a-\	no-	.	2.ee-\	no-	.	2.ryy	2.ryy	2.ryy	8E-/L	.	8e-\L	.	2.ee-\	.	2.ccc\	.
.	.	.	.	.	.	.	16cc\	.	.	.	.	.	.	.	.	.	.	.	.	.	.	.	.	.	.	.	.	.	.	.	.
8A-\	.	.	8A-/	.	8e-/J	.	16bn\	.	.	.	.	.	.	.	.	.	.	.	.	.	.	.	.	8E-/	.	8e-\	.	.	.	.	.
.	.	.	.	.	.	.	16cc\JJ	.	.	.	.	.	.	.	.	.	.	.	.	.	.	.	.	.	.	.	.	.	.	.	.
8A-\	.	.	8A-/	.	8e-/L	.	16dd\LL	.	.	.	.	.	.	.	.	.	.	.	.	.	.	.	.	8E-/	.	8e-\	.	.	.	.	.
.	.	.	.	.	.	.	16cc\	.	.	.	.	.	.	.	.	.	.	.	.	.	.	.	.	.	.	.	.	.	.	.	.
8A-\	.	.	8A-/	.	8e-/	.	16b\	.	.	.	.	.	.	.	.	.	.	.	.	.	.	.	.	8E-/	.	8e-\	.	.	.	.	.
.	.	.	.	.	.	.	16cc\JJ	.	.	.	.	.	.	.	.	.	.	.	.	.	.	.	.	.	.	.	.	.	.	.	.
8A-\	.	.	8A-/	.	8e-/	.	16b\LL	.	.	.	.	.	.	.	.	.	.	.	.	.	.	.	.	8E-/	.	8e-\	.	.	.	.	.
.	.	.	.	.	.	.	16cc\	.	.	.	.	.	.	.	.	.	.	.	.	.	.	.	.	.	.	.	.	.	.	.	.
8A-\J	.	.	8A-/J	.	8e-/J	.	16ee-\	.	.	.	.	.	.	.	.	.	.	.	.	.	.	.	.	8E-/J	.	8e-\J	.	.	.	.	.
.	.	.	.	.	.	.	16cc\JJ	.	.	.	.	.	.	.	.	.	.	.	.	.	.	.	.	.	.	.	.	.	.	.	.
*Xtremolo	*	*	*Xtremolo	*	*	*	*	*	*	*	*	*	*	*	*	*	*	*	*	*	*	*	*	*	*	*Xtremolo	*	*	*	*	*
!	!	!	!	!	!	!	!	!	!LO:LB:g=original	!	!	!	!	!	!LO:LB:g=original	!	!	!	!	!	!	!	!	!	!	!LO:LB:g=original	!	!	!	!	!
!!LO:MO:mod
!! =22	=22	=22	=22	=22	=22	=22	=22	=22	=22	=22	=22	=22	=22	=22	=22	=22	=22	=22	=22	=22	=22	=22	=22	=22	=22	=22	=22	=22	=22	=22	=22
!! *	*	*	*	*	*	*	*	*	*	*	*	*	*	*	*	*	*	*	*	*	*	*	*	*tremolo	*	*tremolo	*	*tremolo	*	*	*
!! 8B-\L	5 3	.	8d\L	.	8f/L	.	16ee-\LL	.	2B-\	mi-	.	2B-\	-re-	.	2f\	no-	.	2dd\	no-	.	2.ryy	2.ryy	2.ryy	8B-L	.	8fL	.	8dd\L	.	8ff\L	.
!! .	.	.	.	.	.	.	16dd\	.	.	.	.	.	.	.	.	.	.	.	.	.	.	.	.	.	.	.	.	.	.	.	.
!! 8B-\	.	.	8d\	.	8f/	.	16gg\	.	.	.	.	.	.	.	.	.	.	.	.	.	.	.	.	8B-	.	8f	.	8dd\	.	8ff\	.
!! .	.	.	.	.	.	.	16ff\JJ	.	.	.	.	.	.	.	.	.	.	.	.	.	.	.	.	.	.	.	.	.	.	.	.
!! 8B-\	.	.	8B-\	.	8f/	.	16aa-\LL	.	.	.	.	.	.	.	.	.	.	.	.	.	.	.	.	8B-	.	8f	.	8dd\	.	8ff\	.
!! .	.	.	.	.	.	.	16gg\	.	.	.	.	.	.	.	.	.	.	.	.	.	.	.	.	.	.	.	.	.	.	.	.
!! 8B-\J	.	.	8B-\	.	8f/	.	16ff\	.	.	.	.	.	.	.	.	.	.	.	.	.	.	.	.	8B-	.	8f	.	8dd\J	.	8ff\J	.
!! .	.	.	.	.	.	.	16ee-\JJ	.	.	.	.	.	.	.	.	.	.	.	.	.	.	.	.	.	.	.	.	.	.	.	.
!! !	!	!	!	!	!	!	!LO:LB:g=original	!	!	!	!	!	!	!	!	!	!	!	!	!	!	!	!	!	!	!	!	!	!	!	!
!! 8D/L	6 3	.	8d\	.	8f/	.	16dd\LL	.	4D\	-se-	.	4B-\	-re	.	4a-\	-bis	.	4ff\	-bis	.	.	.	.	8B-	.	8f	.	8ff\L	.	8aa-\L	.
!! .	.	.	.	.	.	.	16cc\	.	.	.	.	.	.	.	.	.	.	.	.	.	.	.	.	.	.	.	.	.	.	.	.
!! 8D/J	.	.	8d\J	.	8f/J	.	16b-\	.	.	.	.	.	.	.	.	.	.	.	.	.	.	.	.	8B-J	.	8fJ	.	8ff\J	.	8aa-\J	.
!! .	.	.	.	.	.	.	16a-\JJ	.	.	.	.	.	.	.	.	.	.	.	.	.	.	.	.	.	.	.	.	.	.	.	.
!! *Xtremolo	*	*	*	*	*	*	*	*	*	*	*	*	*	*	*	*	*	*	*	*	*	*	*	*	*	*	*	*	*	*Xtremolo	*
!! !LO:LB:g=original	!	!	!	!	!	!	!	!	!	!	!	!	!	!	!	!	!	!	!	!	!	!	!	!	!	!	!	!	!	!	!
!! =23	=23	=23	=23	=23	=23	=23	=23	=23	=23	=23	=23	=23	=23	=23	=23	=23	=23	=23	=23	=23	=23	=23	=23	=23	=23	=23	=23	=23	=23	=23	=23
!! *	*	*	*	*	*Xtremolo	*	*	*	*	*	*	*	*	*	*	*	*	*	*	*	*	*	*	*	*	*	*	*	*	*	*
!! 8E-\L	.	.	8e-\L	.	8g/L	.	16g/LL	.	4E-\	-re-	.	(4B-\	no-	.	(4g\	mi-	.	2ee-\	mi-	.	2.ryy	2.ryy	2.ryy	8E-/L	.	8e-\L	.	8ee-L	.	8gg\L	.
!! .	.	.	.	.	.	.	16e-/	.	.	.	.	.	.	.	.	.	.	.	.	.	.	.	.	.	.	.	.	.	.	.	.
!! 8E-\	.	.	8e-\	.	8g/	.	16f/	.	.	.	.	.	.	.	.	.	.	.	.	.	.	.	.	8E-/	.	8e-\	.	8ee-	.	8gg\	.
!! .	.	.	.	.	.	.	16e-/JJ	.	.	.	.	.	.	.	.	.	.	.	.	.	.	.	.	.	.	.	.	.	.	.	.
!! 8C\	6	.	8c\	.	8a-/	.	16a-/LL	.	4C/	.	.	4A-\)	.	.	4a-\)	.	.	.	.	.	.	.	.	8E-/	.	8e-\	.	8ee-	.	8aa-\	.
!! .	.	.	.	.	.	.	16e-/	.	.	.	.	.	.	.	.	.	.	.	.	.	.	.	.	.	.	.	.	.	.	.	.
!! 8C\	.	.	8c\	.	8a-/	.	16f/	.	.	.	.	.	.	.	.	.	.	.	.	.	.	.	.	8E-/	.	8e-\	.	8ee-	.	8aa-\	.
!! .	.	.	.	.	.	.	16e-/JJ	.	.	.	.	.	.	.	.	.	.	.	.	.	.	.	.	.	.	.	.	.	.	.	.
!! 8GG/	6	.	8d-X\	.	8b-/	.	16b-/LL	.	4G\	-re	.	4B-\	-bis	.	4b-\	-se-	.	4ee-\	-se-	.	.	.	.	8E-/	.	8e-\	.	8ee-	.	8bb-\	.
!! .	.	.	.	.	.	.	16e-/	.	.	.	.	.	.	.	.	.	.	.	.	.	.	.	.	.	.	.	.	.	.	.	.
!! 8GG/J	.	.	8d-\J	.	8b-/J	.	16f/	.	.	.	.	.	.	.	.	.	.	.	.	.	.	.	.	8E-/J	.	8e-\J	.	8ee-J	.	8bb-\J	.
!! .	.	.	.	.	.	.	16e-/JJ	.	.	.	.	.	.	.	.	.	.	.	.	.	.	.	.	.	.	.	.	.	.	.	.
!! =24	=24	=24	=24	=24	=24	=24	=24	=24	=24	=24	=24	=24	=24	=24	=24	=24	=24	=24	=24	=24	=24	=24	=24	=24	=24	=24	=24	=24	=24	=24	=24
!! 8AA-/L	.	.	8e-\L	.	8cc\L	.	16cc\LL	.	4A-\	no-	.	4c\	mi-	.	4a-\	-re-	.	2ee-\	-re-	.	2.ryy	2.ryy	2.ryy	8E-/L	.	8e-\L	.	8ee-L	.	8cccL	.
!! .	.	.	.	.	.	.	16e-/	.	.	.	.	.	.	.	.	.	.	.	.	.	.	.	.	.	.	.	.	.	.	.	.
!! 8A-\J	.	.	8e-\J	.	8cc\J	.	16f/	.	.	.	.	.	.	.	.	.	.	.	.	.	.	.	.	8E-/	.	8e-\	.	8ee-	.	8cccJ	.
!! .	.	.	.	.	.	.	16e-/JJ	.	.	.	.	.	.	.	.	.	.	.	.	.	.	.	.	.	.	.	.	.	.	.	.
!! *tremolo	*	*	*tremolo	*	*tremolo	*	*	*	*	*	*	*	*	*	*	*	*	*	*	*	*	*	*	*	*	*	*	*	*	*tremolo	*
!! 8G\L	6	.	8B-/L	.	8dd-X\L	.	16dd-X\LL	.	2G\	-bis	.	2d-X\	-se-	.	2b-\	-re	.	.	.	.	.	.	.	8E-/	.	8e-\	.	8ee-	.	8ddd-L	.
!! .	.	.	.	.	.	.	16e-/	.	.	.	.	.	.	.	.	.	.	.	.	.	.	.	.	.	.	.	.	.	.	.	.
!! 8G\	5	.	8B-/	.	8dd-X\	.	16f/	.	.	.	.	.	.	.	.	.	.	.	.	.	.	.	.	8E-/	.	8e-\	.	8ee-	.	8ddd-	.
!! .	.	.	.	.	.	.	16e-/JJ	.	.	.	.	.	.	.	.	.	.	.	.	.	.	.	.	.	.	.	.	.	.	.	.
!! *	*	*	*	*	*	*	*rep	*	*	*	*	*	*	*	*	*	*	*	*	*	*	*	*	*	*	*	*	*	*	*	*
!! 8G\	.	.	8B-/	.	8dd-X\	.	16dd-/LL	.	.	.	.	.	.	.	.	.	.	4ee-\	-re	.	.	.	.	8E-/	.	8e-\	.	8ee-	.	8ddd-	.
!! .	.	.	.	.	.	.	16e-/	.	.	.	.	.	.	.	.	.	.	.	.	.	.	.	.	.	.	.	.	.	.	.	.
!! 8G\J	.	.	8B-/J	.	8dd-X\J	.	16f/	.	.	.	.	.	.	.	.	.	.	.	.	.	.	.	.	8E-/J	.	8e-\J	.	8ee-J	.	8ddd-J	.
!! .	.	.	.	.	.	.	16e-/JJ	.	.	.	.	.	.	.	.	.	.	.	.	.	.	.	.	.	.	.	.	.	.	.	.
!! *	*	*	*	*	*	*	*Xrep	*	*	*	*	*	*	*	*	*	*	*	*	*	*	*	*	*	*	*	*	*	*	*	*
!! =25	=25	=25	=25	=25	=25	=25	=25	=25	=25	=25	=25	=25	=25	=25	=25	=25	=25	=25	=25	=25	=25	=25	=25	=25	=25	=25	=25	=25	=25	=25	=25
!! 8A-\L	.	.	8A-/L	.	8cc\L	.	16cc\LL	.	2.A-\	no-	.	2.c\	-re-	.	2.a-\	no-	.	2.ee-\	no-	.	2.ryy	2.ryy	2.ryy	8E-/L	.	8e-\L	.	8ee-L	.	8cccL	.
!! .	.	.	.	.	.	.	16cc\	.	.	.	.	.	.	.	.	.	.	.	.	.	.	.	.	.	.	.	.	.	.	.	.
!! 8A-\	.	.	8A-/	.	8e-/J	.	16bn\	.	.	.	.	.	.	.	.	.	.	.	.	.	.	.	.	8E-/	.	8e-\	.	8ee-	.	8ccc	.
!! .	.	.	.	.	.	.	16cc\JJ	.	.	.	.	.	.	.	.	.	.	.	.	.	.	.	.	.	.	.	.	.	.	.	.
!! 8A-\	.	.	8A-/	.	8e-/L	.	16dd\LL	.	.	.	.	.	.	.	.	.	.	.	.	.	.	.	.	8E-/	.	8e-\	.	8ee-	.	8ccc	.
!! .	.	.	.	.	.	.	16cc\	.	.	.	.	.	.	.	.	.	.	.	.	.	.	.	.	.	.	.	.	.	.	.	.
!! 8A-\	.	.	8A-/	.	8e-/	.	16b\	.	.	.	.	.	.	.	.	.	.	.	.	.	.	.	.	8E-/	.	8e-\	.	8ee-	.	8ccc	.
!! .	.	.	.	.	.	.	16cc\JJ	.	.	.	.	.	.	.	.	.	.	.	.	.	.	.	.	.	.	.	.	.	.	.	.
!! 8A-\	.	.	8A-/	.	8e-/	.	16b\LL	.	.	.	.	.	.	.	.	.	.	.	.	.	.	.	.	8E-/	.	8e-\	.	8ee-	.	8ccc	.
!! .	.	.	.	.	.	.	16cc\	.	.	.	.	.	.	.	.	.	.	.	.	.	.	.	.	.	.	.	.	.	.	.	.
!! 8A-\J	.	.	8A-/J	.	8e-/J	.	16ee-\	.	.	.	.	.	.	.	.	.	.	.	.	.	.	.	.	8E-/J	.	8e-\J	.	8ee-J	.	8cccJ	.
!! .	.	.	.	.	.	.	16cc\JJ	.	.	.	.	.	.	.	.	.	.	.	.	.	.	.	.	.	.	.	.	.	.	.	.
!! *Xtremolo	*	*	*Xtremolo	*	*	*	*	*	*	*	*	*	*	*	*	*	*	*	*	*	*	*	*	*Xtremolo	*	*Xtremolo	*	*Xtremolo	*	*Xtremolo	*
!! !	!	!	!	!	!	!	!	!	!LO:LB:g=original	!	!	!	!	!	!LO:LB:g=original	!	!	!	!	!	!	!	!	!	!	!LO:LB:g=original	!	!	!	!	!
!!LO:MO:end
=26	=26	=26	=26	=26	=26	=26	=26	=26	=26	=26	=26	=26	=26	=26	=26	=26	=26	=26	=26	=26	=26	=26	=26	=26	=26	=26	=26	=26	=26	=26	=26
8G\L	6_ 3	.	8G/L	.	8e-/L	.	16b-X/LL	.	8G\L	.	.	8B-X\L	-re	.	8g\L	.	.	2ee-\	.	.	2.ryy	2.ryy	2.ryy	4E-/	.	8e-\L	.	8ee-\L	.	8bb-\L	.
.	.	.	.	.	.	.	16g/	.	.	.	.	.	.	.	.	.	.	.	.	.	.	.	.	.	.	.	.	.	.	.	.
8A-\	x 3	.	8A-/J	.	8e-/	.	16cc/	.	8A-\J	.	.	8c\J	.	.	8a-\J	.	.	.	.	.	.	.	.	.	.	8e-\J	.	8ee-\J	.	16ccc\L	.
.	.	.	.	.	.	.	16a-/JJ	.	.	.	.	.	.	.	.	.	.	.	.	.	.	.	.	.	.	.	.	.	.	16aa-\JJ	.
*	*	*	*tremolo	*	*	*	*	*	*	*	*	*	*	*	*	*	*	*	*	*	*	*	*	*	*	*	*	*	*	*	*
8B-\	4	.	8B-/L	.	8e-/	.	4g/	.	4B-\	.	.	2c\	no-	.	4g\	.	.	.	.	.	.	.	.	4e-\	.	4g\	.	4ee-\	.	4gg\	.
8B-\	.	.	8B-/	.	8e-/J	.	.	.	.	.	.	.	.	.	.	.	.	.	.	.	.	.	.	.	.	.	.	.	.	.	.
*	*	*	*	*	*Xtremolo	*	*	*	*	*	*	*	*	*	*	*	*	*	*	*	*	*	*	*	*	*	*	*	*	*	*
!	!	!	!	!	!	!	!	!	!	!	!	!	!	!	!LO:SIC:s=4f	!	!	!	!	!	!	!	!	!	!	!	!	!	!	!	!
8BB-/	3	.	8B-/	.	8d/L	.	4fT/	.	4BB-/	.	.	.	.	.	4f#X\	.	.	4dd\	.	.	.	.	.	4B-/	.	4f\	.	4dd\	.	4ff\	.
8BB-/J	.	.	8B-/J	.	8d/J	.	.	.	.	.	.	.	.	.	.	.	.	.	.	.	.	.	.	.	.	.	.	.	.	.	.
!	!	!	!	!	!	!	!LO:LB:g=original	!	!	!	!	!	!	!	!	!	!	!	!	!	!	!	!	!	!	!	!LO:LB:g=original	!	!	!	!
=27	=27	=27	=27	=27	=27	=27	=27	=27	=27	=27	=27	=27	=27	=27	=27	=27	=27	=27	=27	=27	=27	=27	=27	=27	=27	=27	=27	=27	=27	=27	=27
!	!	!	!	!LO:MO:mod=!LO&colon;DY&colon;ed=brack	!	!	!	!	!	!	!	!	!	!	!	!	!	!	!	!	!	!	!	!	!	!	!	!	!	!	!
!	!	!LO:DY:a:t=pp&colon;:mod=p	!	!LO:DY:t= :mod=%s	!	!LO:DY:t= :mod=%s	!	!LO:DY:a:t=p&colon;:mod=%s	!	!	!	!	!	!	!	!	!	!	!	!	!	!	!	!	!	!	!	!	!	!	!
8E-\	.	pp	8e-\	p	8e-/L	p	8e-/L	p	4E-\	-bis	.	4B-\	-bis	.	4g\	-bis	.	4ee-\	-bis	.	2.ryy	2.ryy	2.ryy	4G/	.	4e-\	.	4ee-\	.	4ee-\	.
8r	.	.	8r	.	8g/J	.	8ee-/J	.	.	.	.	.	.	.	.	.	.	.	.	.	.	.	.	.	.	.	.	.	.	.	.
8E-\	.	.	8e-\	.	8r	.	16r	.	4r	.	.	4r	.	.	4r	.	.	4r	.	.	.	.	.	4r	.	4r	.	4r	.	4r	.
.	.	.	.	.	.	.	16gg\LL	.	.	.	.	.	.	.	.	.	.	.	.	.	.	.	.	.	.	.	.	.	.	.	.
!	!	!	!	!	!	!LO:DY:mod= 	!	!	!	!	!	!	!	!	!	!	!	!	!	!	!	!	!	!	!	!	!	!	!	!	!
8r	.	.	8r	.	8g/	p	16aa-\	.	.	.	.	.	.	.	.	.	.	.	.	.	.	.	.	.	.	.	.	.	.	.	.
.	.	.	.	.	.	.	16bb-\JJ	.	.	.	.	.	.	.	.	.	.	.	.	.	.	.	.	.	.	.	.	.	.	.	.
8B-\	7	.	8f\	.	8r	.	8.bb-\L	.	4r	.	.	4r	.	.	4r	.	.	4r	.	.	.	.	.	4r	.	4r	.	4r	.	4r	.
8r	.	.	8r	.	8a-/	.	.	.	.	.	.	.	.	.	.	.	.	.	.	.	.	.	.	.	.	.	.	.	.	.	.
.	.	.	.	.	.	.	16dd\Jk	.	.	.	.	.	.	.	.	.	.	.	.	.	.	.	.	.	.	.	.	.	.	.	.
!	!	!	!LO:LB:g=original	!	!	!	!	!	!	!	!	!	!	!	!	!	!	!	!	!	!	!	!	!	!	!	!	!	!	!	!
=28	=28	=28	=28	=28	=28	=28	=28	=28	=28	=28	=28	=28	=28	=28	=28	=28	=28	=28	=28	=28	=28	=28	=28	=28	=28	=28	=28	=28	=28	=28	=28
!	!	!	!	!	!	!	!	!	!LO:TX:b:t=6:mod=	!	!	!LO:TX:a:t=4:mod=	!	!	!LO:TX:b:t=3:mod=	!	!	!LO:TX:a:t=6:mod=	!	!	!	!	!	!LO:TX:a:t=4.:mod=	!	!LO:TX:a:t=4:mod=	!	!	!	!LO:TX:a:t=6:mod=	!
8c\	.	.	8r	.	8r	.	8ee-\L	.	0.r	.	.	0.r	.	.	1.r	.	.	0.r	.	.	2.ryy	2.ryy	2.ryy	0.r	.	0.r	.	0.r	.	0.r	.
8r	.	.	8e-\	.	8g/	.	8ee-\J	.	.	.	.	.	.	.	.	.	.	.	.	.	.	.	.	.	.	.	.	.	.	.	.
8C/	.	.	8r	.	8r	.	16r	.	.	.	.	.	.	.	.	.	.	.	.	.	.	.	.	.	.	.	.	.	.	.	.
.	.	.	.	.	.	.	16ee-\LL	.	.	.	.	.	.	.	.	.	.	.	.	.	.	.	.	.	.	.	.	.	.	.	.
8r	.	.	8e-\	.	8g/	.	16ff\	.	.	.	.	.	.	.	.	.	.	.	.	.	.	.	.	.	.	.	.	.	.	.	.
.	.	.	.	.	.	.	16gg\JJ	.	.	.	.	.	.	.	.	.	.	.	.	.	.	.	.	.	.	.	.	.	.	.	.
8G\	7	.	8r	.	8r	.	8.gg\L	.	.	.	.	.	.	.	.	.	.	.	.	.	.	.	.	.	.	.	.	.	.	.	.
8r	.	.	8d\	.	8f/	.	.	.	.	.	.	.	.	.	.	.	.	.	.	.	.	.	.	.	.	.	.	.	.	.	.
.	.	.	.	.	.	.	16bn\Jk	.	.	.	.	.	.	.	.	.	.	.	.	.	.	.	.	.	.	.	.	.	.	.	.
=29	=29	=29	=29	=29	=29	=29	=29	=29	=29	=29	=29	=29	=29	=29	=29	=29	=29	=29	=29	=29	=29	=29	=29	=29	=29	=29	=29	=29	=29	=29	=29
8A-\	.	.	8r	.	8r	.	8cc\L	.	.	.	.	.	.	.	.	.	.	.	.	.	2.ryy	2.ryy	2.ryy	.	.	.	.	.	.	.	.
8r	.	.	8c\	.	8e-/	.	8cc\J	.	.	.	.	.	.	.	.	.	.	.	.	.	.	.	.	.	.	.	.	.	.	.	.
8AA-/	.	.	8r	.	8r	.	16r	.	.	.	.	.	.	.	.	.	.	.	.	.	.	.	.	.	.	.	.	.	.	.	.
.	.	.	.	.	.	.	16cc\LL	.	.	.	.	.	.	.	.	.	.	.	.	.	.	.	.	.	.	.	.	.	.	.	.
8r	.	.	8c\	.	8e-/	.	16dd\	.	.	.	.	.	.	.	.	.	.	.	.	.	.	.	.	.	.	.	.	.	.	.	.
.	.	.	.	.	.	.	16ee-\JJ	.	.	.	.	.	.	.	.	.	.	.	.	.	.	.	.	.	.	.	.	.	.	.	.
8G\	6	.	8r	.	8r	.	16ee-\LL	.	.	.	.	.	.	.	.	.	.	.	.	.	.	.	.	.	.	.	.	.	.	.	.
.	.	.	.	.	.	.	16dd\	.	.	.	.	.	.	.	.	.	.	.	.	.	.	.	.	.	.	.	.	.	.	.	.
8r	.	.	8B-/	.	8e-/	.	16cc\	.	.	.	.	.	.	.	.	.	.	.	.	.	.	.	.	.	.	.	.	.	.	.	.
.	.	.	.	.	.	.	16b-\JJ	.	.	.	.	.	.	.	.	.	.	.	.	.	.	.	.	.	.	.	.	.	.	.	.
=30	=30	=30	=30	=30	=30	=30	=30	=30	=30	=30	=30	=30	=30	=30	=30	=30	=30	=30	=30	=30	=30	=30	=30	=30	=30	=30	=30	=30	=30	=30	=30
*	*	*	*Xtremolo	*	*tremolo	*	*	*	*	*	*	*	*	*	*	*	*	*	*	*	*	*	*	*	*	*	*	*	*	*	*
8A-\L	5	.	8c/L	.	8e-/L	.	16cc/LL	.	.	.	.	.	.	.	2.r	.	.	.	.	.	2.ryy	2.ryy	2.ryy	.	.	.	.	.	.	.	.
.	.	.	.	.	.	.	16g/	.	.	.	.	.	.	.	.	.	.	.	.	.	.	.	.	.	.	.	.	.	.	.	.
8B-\	.	.	8c/	.	8e-/	.	16a-/	.	.	.	.	.	.	.	.	.	.	.	.	.	.	.	.	.	.	.	.	.	.	.	.
.	.	.	.	.	.	.	16f/JJ	.	.	.	.	.	.	.	.	.	.	.	.	.	.	.	.	.	.	.	.	.	.	.	.
8B-\	4	.	8G/	.	8e-/	.	4e-/	.	.	.	.	.	.	.	.	.	.	.	.	.	.	.	.	.	.	.	.	.	.	.	.
8B-\	.	.	8G/	.	8e-/J	.	.	.	.	.	.	.	.	.	.	.	.	.	.	.	.	.	.	.	.	.	.	.	.	.	.
*	*	*	*	*	*Xtremolo	*	*	*	*	*	*	*	*	*	*	*	*	*	*	*	*	*	*	*	*	*	*	*	*	*	*
8BB-/	3	.	8B-/	.	8A-/L	.	4dt/	.	.	.	.	.	.	.	.	.	.	.	.	.	.	.	.	.	.	.	.	.	.	.	.
8BB-/J	.	.	8B-/J	.	8A-/J	.	.	.	.	.	.	.	.	.	.	.	.	.	.	.	.	.	.	.	.	.	.	.	.	.	.
!	!	!	!	!	!LO:LB:g=original	!	!	!	!	!	!	!	!	!	!	!	!	!	!	!	!	!	!	!	!	!	!	!	!	!	!
=31	=31	=31	=31	=31	=31	=31	=31	=31	=31	=31	=31	=31	=31	=31	=31	=31	=31	=31	=31	=31	=31	=31	=31	=31	=31	=31	=31	=31	=31	=31	=31
8E-/L	.	.	8G/L	.	4G/	.	4e-/	.	.	.	.	.	.	.	4r	.	.	.	.	.	2.ryy	2.ryy	2.ryy	.	.	.	.	.	.	.	.
8BB-/J	.	.	8B-/J	.	.	.	.	.	.	.	.	.	.	.	.	.	.	.	.	.	.	.	.	.	.	.	.	.	.	.	.
4EE-/	.	.	4G/	.	4r	.	4r	.	.	.	.	.	.	.	4r	.	.	.	.	.	.	.	.	.	.	.	.	.	.	.	.
4r	.	.	4r	.	4r	.	8r	.	.	.	.	.	.	.	8r	.	.	.	.	.	.	.	.	.	.	.	.	.	.	.	.
!	!	!	!	!	!	!	!	!	!	!	!	!	!	!	!	!	!LO:MO:mod=!LO&colon;DY&colon;ed=brack	!	!	!	!	!	!	!	!	!	!	!	!	!	!
!	!	!	!	!	!	!	!	!	!	!	!	!	!	!	!	!	!LO:DY:t= :mod=%s	!	!	!	!	!	!	!	!	!	!	!	!	!	!
.	.	.	.	.	.	.	8ee-\	.	.	.	.	.	.	.	8e-\	Qui	p	.	.	.	.	.	.	.	.	.	.	.	.	.	.
=32	=32	=32	=32	=32	=32	=32	=32	=32	=32	=32	=32	=32	=32	=32	=32	=32	=32	=32	=32	=32	=32	=32	=32	=32	=32	=32	=32	=32	=32	=32	=32
!	!	!	!	!	!	!	!	!	!	!	!	!	!	!	!	!	!	!	!	!	!	!	!	!	!LO:MO:mod=!LO&colon;DY&colon;ed=brack	!	!	!	!	!	!
!	!	!	!	!	!	!	!	!	!	!	!	!	!	!	!	!	!	!	!	!	!	!	!	!	!LO:DY:t= :mod=%s	!	!LO:DY:a:t=p&colon;:mod=%s	!	!	!	!
4E-/	.	.	8.G/L	.	8.e-/L	.	8.ee-\L	.	1.r	.	.	4r	.	.	8.e-\L	tol-	.	1.r	.	.	2.ryy	2.ryy	2.ryy	8.G/L	p	8.e-\L	p	1.r	.	1.r	.
.	.	.	16B-/Jk	.	16d/Jk	.	16ff\Jk	.	.	.	.	.	.	.	16f\Jk	.	.	.	.	.	.	.	.	16B-/Jk	.	16f\K	.	.	.	.	.
*	*	*	*	*	*tremolo	*	*	*	*	*	*	*	*	*	*	*	*	*	*	*	*	*	*	*	*	*	*	*	*	*	*
4EE-/	.	.	8e-\L	.	8e-/L	.	8gg\L	.	.	.	.	4r	.	.	4g\	-lis	.	.	.	.	.	.	.	8e-\L	.	8g\	.	.	.	.	.
.	.	.	8g\	.	8e-/	.	8gg\	.	.	.	.	.	.	.	.	.	.	.	.	.	.	.	.	8e-\	.	8g\	.	.	.	.	.
4r	.	.	8g\	.	8e-/	.	8gg\	.	.	.	.	8r	.	.	8r	.	.	.	.	.	.	.	.	8e-\	.	8g\	.	.	.	.	.
!	!	!	!	!	!	!	!	!	!	!	!	!	!	!LO:DY:a:t=p&colon;:mod=%s	!	!	!	!	!	!	!	!	!	!	!	!	!	!	!	!	!
.	.	.	8g\J	.	8e-/J	.	8gg\J	.	.	.	.	8e-\	Qui	p	8g\	pec-	.	.	.	.	.	.	.	8e-\J	.	8g\J	.	.	.	.	.
*	*	*	*	*	*	*	*	*	*	*	*	*	*	*	*	*	*	*	*	*	*	*	*	*Xtremolo	*	*	*	*	*	*	*
!LO:LB:g=original	!	!	!	!	!	!	!LO:LB:g=original	!	!	!	!	!LO:LB:g=original	!	!	!	!	!	!	!	!	!	!	!	!	!	!	!	!	!	!	!
=33	=33	=33	=33	=33	=33	=33	=33	=33	=33	=33	=33	=33	=33	=33	=33	=33	=33	=33	=33	=33	=33	=33	=33	=33	=33	=33	=33	=33	=33	=33	=33
!	!	!	!	!	!	!	!	!	!	!	!	!	!	!	!	!	!	!	!	!	!	!	!	!LO:SIC:s=(8.eL	!	!	!	!	!	!	!
4E-/	.	.	8g\L	.	8.e-/L	.	8.gg\L	.	.	.	.	8.e-\L	tol-	.	8.g\L	-ca-	.	.	.	.	2.ryy	2.ryy	2.ryy	8.e-\L	.	(8.g\L	.	.	.	.	.
.	.	.	8a-\J	.	.	.	.	.	.	.	.	.	.	.	.	.	.	.	.	.	.	.	.	.	.	.	.	.	.	.	.
.	.	.	.	.	16f/Jk	.	16aa-\Jk	.	.	.	.	16f\Jk	.	.	16a-\Jk	.	.	.	.	.	.	.	.	16f\Jk	.	16a-\Jk	.	.	.	.	.
!	!	!	!	!	!	!	!	!	!	!	!	!	!	!	!	!	!	!	!	!	!	!	!	!LO:SIC:s=4g)	!	!	!	!	!	!	!
4EE-/	.	.	4b-\	.	4g/	.	16bb-\LL	.	.	.	.	4g\	-lis	.	4b-\	-ta	.	.	.	.	.	.	.	4g\	.	4b-\)	.	.	.	.	.
.	.	.	.	.	.	.	16bb-\	.	.	.	.	.	.	.	.	.	.	.	.	.	.	.	.	.	.	.	.	.	.	.	.
.	.	.	.	.	.	.	16ccc\	.	.	.	.	.	.	.	.	.	.	.	.	.	.	.	.	.	.	.	.	.	.	.	.
.	.	.	.	.	.	.	16bb-\JJ	.	.	.	.	.	.	.	.	.	.	.	.	.	.	.	.	.	.	.	.	.	.	.	.
4r	.	.	4r	.	4r	.	16aa-\LL	.	.	.	.	4r	.	.	4r	.	.	.	.	.	.	.	.	4r	.	4r	.	.	.	.	.
.	.	.	.	.	.	.	16gg\	.	.	.	.	.	.	.	.	.	.	.	.	.	.	.	.	.	.	.	.	.	.	.	.
.	.	.	.	.	.	.	16ff\	.	.	.	.	.	.	.	.	.	.	.	.	.	.	.	.	.	.	.	.	.	.	.	.
.	.	.	.	.	.	.	16ee-\JJ	.	.	.	.	.	.	.	.	.	.	.	.	.	.	.	.	.	.	.	.	.	.	.	.
!	!	!	!	!	!	!	!	!	!	!	!	!	!	!	!	!	!	!	!	!	!	!	!	!	!	!	!	!	!	!LO:LB:g=original	!
=34	=34	=34	=34	=34	=34	=34	=34	=34	=34	=34	=34	=34	=34	=34	=34	=34	=34	=34	=34	=34	=34	=34	=34	=34	=34	=34	=34	=34	=34	=34	=34
*tremolo	*	*	*tremolo	*	*	*	*	*	*	*	*	*	*	*	*	*	*	*	*	*	*	*	*	*	*	*	*	*	*	*	*
!!LO:TX:a:t= :mod=Tutti
!	!	!LO:MO:mod=!LO&colon;DY&colon;ed=brack	!	!LO:MO:mod=!LO&colon;DY&colon;ed=brack	!	!	!	!	!	!	!	!	!	!	!	!	!	!	!	!	!	!	!	!	!LO:MO:mod=!LO&colon;DY&colon;ed=brack	!	!LO:MO:mod=!LO&colon;DY&colon;ed=brack	!	!LO:MO:mod=!LO&colon;DY&colon;ed=brack	!	!LO:MO:mod=!LO&colon;DY&colon;ed=brack
!LO:TX:a:t=Tutti:mod=	!	!LO:DY:t= :mod=%s	!	!LO:DY:t= :mod=%s	!	!LO:DY:t=for:mod=%s	!	!LO:DY:a:t=ffor:mod=%s	!	!	!	!	!	!	!	!	!	!	!	!	!	!	!	!	!LO:DY:t= :mod=%s	!	!LO:DY:t= :mod=%s	!	!LO:DY:t= :mod=%s	!	!LO:DY:t= :mod=%s
8E-\L	6	ff	8e-\L	ff	8gg\L	ff	2ccc\	ff	8r	.	.	8rF	.	.	8r	.	.	8r	.	.	2.ryy	2.ryy	2.ryy	2e-\	f	2g\	f	2gg\	f	2ccc\	f
!	!	!	!	!	!	!	!	!	!	!	!LO:MO:mod=!LO&colon;DY&colon;ed=brack	!	!	!LO:MO:mod=!LO&colon;DY&colon;ed=brack	!	!	!LO:MO:mod=!LO&colon;DY&colon;ed=brack	!	!	!	!	!	!	!	!	!	!	!	!	!	!
!	!	!	!	!	!	!	!	!	!	!	!LO:DY:t= :mod=%s	!	!	!LO:DY:t= :mod=%s	!	!	!LO:DY:t= :mod=%s	!	!	!LO:DY:a:t=for:mod=%s	!	!	!	!	!	!	!	!	!	!	!
8E-\	.	.	8e-\	.	8gg\	.	.	.	8E-\	pec-	f	8e-\	pec-	f	8g\	pec-	f	8cc\	pec-	f	.	.	.	.	.	.	.	.	.	.	.
8E-\	.	.	8e-\	.	8gg\	.	.	.	4E-\	-ca-	.	4e-\	-ca-	.	4g\	-ca-	.	4cc\	-ca-	.	.	.	.	.	.	.	.	.	.	.	.
8E-\J	.	.	8e-\	.	8gg\	.	.	.	.	.	.	.	.	.	.	.	.	.	.	.	.	.	.	.	.	.	.	.	.	.	.
*Xtremolo	*	*	*	*	*	*	*	*	*	*	*	*	*	*	*	*	*	*	*	*	*	*	*	*	*	*	*	*	*	*	*
8E-\L	5	.	8e-\	.	8gg\	.	4bb-\	.	4E-\	-ta	.	4e-\	-ta	.	4g\	-ta	.	4b-\	-ta	.	.	.	.	4e-\	.	8g\	.	4gg\	.	4bb-\	.
8E-\J	.	.	8e-\J	.	8gg\J	.	.	.	.	.	.	.	.	.	.	.	.	.	.	.	.	.	.	.	.	8r	.	.	.	.	.
=35	=35	=35	=35	=35	=35	=35	=35	=35	=35	=35	=35	=35	=35	=35	=35	=35	=35	=35	=35	=35	=35	=35	=35	=35	=35	=35	=35	=35	=35	=35	=35
4E-\	n4 -	.	4c\	.	4gg-X\	.	8.aant\L	.	4E-\	mun-	.	4c\	mun-	.	4g-X\	mun-	.	4an\	mun-	.	2.ryy	2.ryy	2.ryy	4e-\	.	4e-\	.	4gg-X\	.	4aan\	.
.	.	.	.	.	.	.	32gg\LL	.	.	.	.	.	.	.	.	.	.	.	.	.	.	.	.	.	.	.	.	.	.	.	.
.	.	.	.	.	.	.	32aa\JJJ	.	.	.	.	.	.	.	.	.	.	.	.	.	.	.	.	.	.	.	.	.	.	.	.
4D\	6	.	4d\	.	4ff\	.	4bb-\	.	4D\	-di	.	4B-\	-di	.	4f\	-di	.	4b-\	-di	.	.	.	.	4B-/	.	4f\	.	4ff\	.	4bb-\	.
4r	.	.	4r	.	4r	.	4r	.	4r	.	.	4r	.	.	4r	.	.	4r	.	.	.	.	.	4r	.	4r	.	4r	.	4r	.
!	!	!	!	!	!	!	!	!	!	!	!	!	!	!	!LO:LB:g=original	!	!	!LO:LB:g=original	!	!	!	!	!	!	!	!	!	!	!	!	!
=36	=36	=36	=36	=36	=36	=36	=36	=36	=36	=36	=36	=36	=36	=36	=36	=36	=36	=36	=36	=36	=36	=36	=36	=36	=36	=36	=36	=36	=36	=36	=36
*	*	*	*	*	*	*	*Xtremolo	*	*	*	*	*	*	*	*	*	*	*	*	*	*	*	*	*	*	*	*	*	*	*	*
!	!	!LO:DY:a:t=pp&colon;:mod=%s	!	!LO:DY:t=pp&colon;:mod=%s	!	!LO:DY:t=p&colon;:mod=%s	!	!	!LO:TX:b:t=2:mod=	!	!	!LO:TX:b:t=2:mod=	!	!	!LO:TX:b:t=2:mod=	!	!	!LO:TX:b:t=2:mod=	!	!	!	!	!	!LO:TX:a:t=5.:mod=	!	!LO:TX:a:t=5.:mod=	!	!	!	!LO:TX:a:t=2.:mod=	!
8D-X\	6_	pp	8d-X\	pp	8f/	p	16r	.	1.r	.	.	1.r	.	.	1.r	.	.	1.r	.	.	2.ryy	2.ryy	2.ryy	0.r	.	0.r	.	2.r	.	1.r	.
!	!	!	!	!	!	!	!	!LO:DY:a:t=p&colon;:mod=%s	!	!	!	!	!	!	!	!	!	!	!	!	!	!	!	!	!	!	!	!	!	!	!
.	.	.	.	.	.	.	16b-\LL	p	.	.	.	.	.	.	.	.	.	.	.	.	.	.	.	.	.	.	.	.	.	.	.
8r	.	.	8r	.	8r	.	16cc\	.	.	.	.	.	.	.	.	.	.	.	.	.	.	.	.	.	.	.	.	.	.	.	.
.	.	.	.	.	.	.	16b-\JJ	.	.	.	.	.	.	.	.	.	.	.	.	.	.	.	.	.	.	.	.	.	.	.	.
8D-\	.	.	8d-\	.	8f/	.	16r	.	.	.	.	.	.	.	.	.	.	.	.	.	.	.	.	.	.	.	.	.	.	.	.
.	.	.	.	.	.	.	16b-\LL	.	.	.	.	.	.	.	.	.	.	.	.	.	.	.	.	.	.	.	.	.	.	.	.
8r	.	.	8r	.	8r	.	16cc\	.	.	.	.	.	.	.	.	.	.	.	.	.	.	.	.	.	.	.	.	.	.	.	.
.	.	.	.	.	.	.	16b-\JJ	.	.	.	.	.	.	.	.	.	.	.	.	.	.	.	.	.	.	.	.	.	.	.	.
8D-\	.	.	8d-\	.	8f/	.	16r	.	.	.	.	.	.	.	.	.	.	.	.	.	.	.	.	.	.	.	.	.	.	.	.
.	.	.	.	.	.	.	16b-\LL	.	.	.	.	.	.	.	.	.	.	.	.	.	.	.	.	.	.	.	.	.	.	.	.
8r	.	.	8r	.	8r	.	16cc\	.	.	.	.	.	.	.	.	.	.	.	.	.	.	.	.	.	.	.	.	.	.	.	.
.	.	.	.	.	.	.	16b-\JJ	.	.	.	.	.	.	.	.	.	.	.	.	.	.	.	.	.	.	.	.	.	.	.	.
!	!	!	!LO:LB:g=original	!	!	!	!	!	!	!	!	!	!	!	!	!	!	!	!	!	!	!	!	!	!	!	!	!	!	!	!
=37	=37	=37	=37	=37	=37	=37	=37	=37	=37	=37	=37	=37	=37	=37	=37	=37	=37	=37	=37	=37	=37	=37	=37	=37	=37	=37	=37	=37	=37	=37	=37
8D-X\	n7_ 3	.	8A-X/	.	8f/	.	16r	.	.	.	.	.	.	.	.	.	.	.	.	.	2.ryy	2.ryy	2.ryy	.	.	.	.	2.r	.	.	.
.	.	.	.	.	.	.	16cc\LL	.	.	.	.	.	.	.	.	.	.	.	.	.	.	.	.	.	.	.	.	.	.	.	.
8r	.	.	8r	.	8r	.	16dd-X\	.	.	.	.	.	.	.	.	.	.	.	.	.	.	.	.	.	.	.	.	.	.	.	.
.	.	.	.	.	.	.	16cc\JJ	.	.	.	.	.	.	.	.	.	.	.	.	.	.	.	.	.	.	.	.	.	.	.	.
8D-\	.	.	8A-/	.	8f/	.	16r	.	.	.	.	.	.	.	.	.	.	.	.	.	.	.	.	.	.	.	.	.	.	.	.
.	.	.	.	.	.	.	16cc\LL	.	.	.	.	.	.	.	.	.	.	.	.	.	.	.	.	.	.	.	.	.	.	.	.
8r	.	.	8r	.	8r	.	16dd-\	.	.	.	.	.	.	.	.	.	.	.	.	.	.	.	.	.	.	.	.	.	.	.	.
.	.	.	.	.	.	.	16cc\JJ	.	.	.	.	.	.	.	.	.	.	.	.	.	.	.	.	.	.	.	.	.	.	.	.
8D-\	x	.	8A-/	.	8f/	.	16r	.	.	.	.	.	.	.	.	.	.	.	.	.	.	.	.	.	.	.	.	.	.	.	.
.	.	.	.	.	.	.	16cc\LL	.	.	.	.	.	.	.	.	.	.	.	.	.	.	.	.	.	.	.	.	.	.	.	.
8r	.	.	8r	.	8r	.	16dd-\	.	.	.	.	.	.	.	.	.	.	.	.	.	.	.	.	.	.	.	.	.	.	.	.
.	.	.	.	.	.	.	16cc\JJ	.	.	.	.	.	.	.	.	.	.	.	.	.	.	.	.	.	.	.	.	.	.	.	.
!	!	!	!	!	!	!	!LO:LB:g=original	!	!	!	!	!	!	!	!	!	!	!	!	!	!	!	!	!	!	!	!	!	!	!	!
=38	=38	=38	=38	=38	=38	=38	=38	=38	=38	=38	=38	=38	=38	=38	=38	=38	=38	=38	=38	=38	=38	=38	=38	=38	=38	=38	=38	=38	=38	=38	=38
*tremolo	*	*	*	*	*	*	*	*	*	*	*	*	*	*	*	*	*	*	*	*	*	*	*	*	*	*	*	*	*	*	*
!	!	!	!	!LO:DY:t=for:mod=%s	!	!LO:DY:a:t=for:mod=%s	!	!LO:DY:a:t=ffor&colon;:mod=%s	!	!	!	!	!	!	!	!	!	!	!	!LO:DY:a:t=for:mod= 	!	!	!	!	!	!	!	!	!	!	!
8G-X\L	.	.	8B-/L	f	8d-X/L	f	16b-/LL	ff	4.G-X\	sus-	.	4.d-X\	sus-	.	4.g-X\	sus-	.	4.b-\	Sus-	f	2.ryy	2.ryy	2.ryy	.	.	.	.	2.b-\	.	2.dd-X\	.
.	.	.	.	.	.	.	16d-X/	.	.	.	.	.	.	.	.	.	.	.	.	.	.	.	.	.	.	.	.	.	.	.	.
8G-X\	.	.	8B-/	.	8d-/	.	16e-/	.	.	.	.	.	.	.	.	.	.	.	.	.	.	.	.	.	.	.	.	.	.	.	.
.	.	.	.	.	.	.	16d-/JJ	.	.	.	.	.	.	.	.	.	.	.	.	.	.	.	.	.	.	.	.	.	.	.	.
*	*	*	*	*	*	*	*rep	*	*	*	*	*	*	*	*	*	*	*	*	*	*	*	*	*	*	*	*	*	*	*	*
8G-X\	.	.	8B-/	.	8d-/	.	16b-/LL	.	.	.	.	.	.	.	.	.	.	.	.	.	.	.	.	.	.	.	.	.	.	.	.
.	.	.	.	.	.	.	16d-/	.	.	.	.	.	.	.	.	.	.	.	.	.	.	.	.	.	.	.	.	.	.	.	.
8G-X\	.	.	8B-/	.	8d-/	.	16e-/	.	8G-\	-ci-	.	8d-\	-ci-	.	8g-\	-ci-	.	8b-\	-ci-	.	.	.	.	.	.	.	.	.	.	.	.
.	.	.	.	.	.	.	16d-/JJ	.	.	.	.	.	.	.	.	.	.	.	.	.	.	.	.	.	.	.	.	.	.	.	.
*	*	*	*	*	*	*	*Xrep	*	*	*	*	*	*	*	*	*	*	*	*	*	*	*	*	*	*	*	*	*	*	*	*
*	*	*	*	*	*	*	*rep	*	*	*	*	*	*	*	*	*	*	*	*	*	*	*	*	*	*	*	*	*	*	*	*
8G-X\	.	.	8B-/	.	8d-/	.	16b-/LL	.	4G-\	-pe	.	4d-\	-pe	.	4g-\	-pe	.	4b-\	-pe	.	.	.	.	.	.	.	.	.	.	.	.
.	.	.	.	.	.	.	16d-/	.	.	.	.	.	.	.	.	.	.	.	.	.	.	.	.	.	.	.	.	.	.	.	.
8G-X\J	.	.	8B-/J	.	8d-/J	.	16e-/	.	.	.	.	.	.	.	.	.	.	.	.	.	.	.	.	.	.	.	.	.	.	.	.
.	.	.	.	.	.	.	16d-/JJ	.	.	.	.	.	.	.	.	.	.	.	.	.	.	.	.	.	.	.	.	.	.	.	.
*	*	*	*	*	*	*	*Xrep	*	*	*	*	*	*	*	*	*	*	*	*	*	*	*	*	*	*	*	*	*	*	*	*
=39	=39	=39	=39	=39	=39	=39	=39	=39	=39	=39	=39	=39	=39	=39	=39	=39	=39	=39	=39	=39	=39	=39	=39	=39	=39	=39	=39	=39	=39	=39	=39
!	!	!	!	!	!LO:SIC:s=8d-L	!	!LO:TX:t=P:problem=mixed beam:mod=	!	!	!	!	!LO:SIC:s=2d-	!	!	!	!	!	!	!	!	!	!	!	!	!	!	!	!	!	!	!
8F\L	n6 n3	.	8c-X/L	.	8d/L	.	16cc-X\LL	.	2F\	de-	.	2d\	de-	.	2a-\	de-	.	2cc-X\	de-	.	2.ryy	2.ryy	2.ryy	.	.	.	.	2.cc-X\	.	2.dd-X\	.
.	.	.	.	.	.	.	16d-X/	.	.	.	.	.	.	.	.	.	.	.	.	.	.	.	.	.	.	.	.	.	.	.	.
!	!	!	!	!	!LO:SIC:s=8d-	!	!	!	!	!	!	!	!	!	!	!	!	!	!	!	!	!	!	!	!	!	!	!	!	!	!
8F\	.	.	8c-X/	.	8d/	.	16e-/	.	.	.	.	.	.	.	.	.	.	.	.	.	.	.	.	.	.	.	.	.	.	.	.
.	.	.	.	.	.	.	16d-/JJ	.	.	.	.	.	.	.	.	.	.	.	.	.	.	.	.	.	.	.	.	.	.	.	.
!	!	!	!	!	!	!	!LO:TX:t=P:problem=mixed beam:mod=	!	!	!	!	!	!	!	!	!	!	!	!	!	!	!	!	!	!	!	!	!	!	!	!
*	*	*	*	*	*	*	*rep	*	*	*	*	*	*	*	*	*	*	*	*	*	*	*	*	*	*	*	*	*	*	*	*
!	!	!	!	!	!LO:SIC:s=8d-	!	!	!	!	!	!	!	!	!	!	!	!	!	!	!	!	!	!	!	!	!	!	!	!	!	!
8F\	.	.	8c-X/	.	8d/	.	16cc-\LL	.	.	.	.	.	.	.	.	.	.	.	.	.	.	.	.	.	.	.	.	.	.	.	.
.	.	.	.	.	.	.	16d-/	.	.	.	.	.	.	.	.	.	.	.	.	.	.	.	.	.	.	.	.	.	.	.	.
!	!	!	!	!	!LO:SIC:s=8d-	!	!	!	!	!	!	!	!	!	!	!	!	!	!	!	!	!	!	!	!	!	!	!	!	!	!
8F\	.	.	8c-X/	.	8d/	.	16e-/	.	.	.	.	.	.	.	.	.	.	.	.	.	.	.	.	.	.	.	.	.	.	.	.
.	.	.	.	.	.	.	16d-/JJ	.	.	.	.	.	.	.	.	.	.	.	.	.	.	.	.	.	.	.	.	.	.	.	.
!	!	!	!	!	!	!	!LO:TX:t=P:problem=mixed beam:mod=	!	!	!	!	!	!	!	!	!	!	!	!	!	!	!	!	!	!	!	!	!	!	!	!
*	*	*	*	*	*	*	*Xrep	*	*	*	*	*	*	*	*	*	*	*	*	*	*	*	*	*	*	*	*	*	*	*	*
*	*	*	*	*	*	*	*rep	*	*	*	*	*	*	*	*	*	*	*	*	*	*	*	*	*	*	*	*	*	*	*	*
!	!	!	!	!	!LO:SIC:s=8d-	!	!	!	!	!	!	!LO:SIC:s=4d-	!	!	!	!	!	!	!	!	!	!	!	!	!	!	!	!	!	!	!
8F\	.	.	8c-X/	.	8d/	.	16cc-\LL	.	4F\	-prae-	.	4d\	-pre-	.	4a-\	-pre-	.	4cc-\	-prae-	.	.	.	.	.	.	.	.	.	.	.	.
.	.	.	.	.	.	.	16d-/	.	.	.	.	.	.	.	.	.	.	.	.	.	.	.	.	.	.	.	.	.	.	.	.
!	!	!	!	!	!LO:SIC:s=8d-J	!	!	!	!	!	!	!	!	!	!	!	!	!	!	!	!	!	!	!	!	!	!	!	!	!	!
8F\J	.	.	8c-X/J	.	8d/J	.	16e-/	.	.	.	.	.	.	.	.	.	.	.	.	.	.	.	.	.	.	.	.	.	.	.	.
.	.	.	.	.	.	.	16d-/JJ	.	.	.	.	.	.	.	.	.	.	.	.	.	.	.	.	.	.	.	.	.	.	.	.
!	!	!	!	!	!	!	!	!	!LO:LB:g=original	!	!	!	!	!	!	!	!	!	!	!	!	!	!	!	!	!	!	!	!	!	!
*	*	*	*	*	*	*	*Xrep	*	*	*	*	*	*	*	*	*	*	*	*	*	*	*	*	*	*	*	*	*	*	*	*
=40	=40	=40	=40	=40	=40	=40	=40	=40	=40	=40	=40	=40	=40	=40	=40	=40	=40	=40	=40	=40	=40	=40	=40	=40	=40	=40	=40	=40	=40	=40	=40
!	!	!	!	!	!LO:SIC:s=8d-L	!	!LO:TX:t=P:problem=mixed beam:mod=	!	!	!	!	!	!	!	!	!	!	!	!	!	!	!	!	!	!	!	!	!	!	!	!
8G-X\L	.	.	8B-/L	.	8d/L	.	16b-\LL	.	2G-X\	-ca-	.	2d-X\	-ca-	.	2g-X\	-ca-	.	2b-\	-ca-	.	2.ryy	2.ryy	2.ryy	2.r	.	2.r	.	2.dd-X\	.	2dd-X\	.
.	.	.	.	.	.	.	16d-X/	.	.	.	.	.	.	.	.	.	.	.	.	.	.	.	.	.	.	.	.	.	.	.	.
!	!	!	!	!	!LO:SIC:s=8d-	!	!	!	!	!	!	!	!	!	!	!	!	!	!	!	!	!	!	!	!	!	!	!	!	!	!
8G-X\	.	.	8B-/	.	8d/	.	16e-/	.	.	.	.	.	.	.	.	.	.	.	.	.	.	.	.	.	.	.	.	.	.	.	.
.	.	.	.	.	.	.	16d-/JJ	.	.	.	.	.	.	.	.	.	.	.	.	.	.	.	.	.	.	.	.	.	.	.	.
!	!	!	!	!	!	!	!LO:TX:t=P:problem=mixed beam:mod=	!	!	!	!	!	!	!	!	!	!	!	!	!	!	!	!	!	!	!	!	!	!	!	!
*	*	*	*	*	*	*	*rep	*	*	*	*	*	*	*	*	*	*	*	*	*	*	*	*	*	*	*	*	*	*	*	*
!	!	!	!	!	!LO:SIC:s=8d-	!	!	!	!	!	!	!	!	!	!	!	!	!	!	!	!	!	!	!	!	!	!	!	!	!	!
8G-X\	.	.	8B-/	.	8d/	.	16b-\LL	.	.	.	.	.	.	.	.	.	.	.	.	.	.	.	.	.	.	.	.	.	.	.	.
.	.	.	.	.	.	.	16d-/	.	.	.	.	.	.	.	.	.	.	.	.	.	.	.	.	.	.	.	.	.	.	.	.
!	!	!	!	!	!LO:SIC:s=8d-J	!	!	!	!	!	!	!	!	!	!	!	!	!	!	!	!	!	!	!	!	!	!	!	!	!	!
8G-X\	.	.	8B-/	.	8d/J	.	16e-/	.	.	.	.	.	.	.	.	.	.	.	.	.	.	.	.	.	.	.	.	.	.	.	.
.	.	.	.	.	.	.	16d-/JJ	.	.	.	.	.	.	.	.	.	.	.	.	.	.	.	.	.	.	.	.	.	.	.	.
!	!	!	!	!	!	!	!LO:TX:t=P:problem=mixed beam:mod=	!	!	!	!	!	!	!	!	!	!	!	!	!	!	!	!	!	!	!	!	!	!	!	!
*	*	*	*	*	*	*	*rep	*	*	*	*	*	*	*	*	*	*	*	*	*	*	*	*	*	*	*	*	*	*	*	*
*	*	*	*	*	*Xtremolo	*	*Xrep	*	*	*	*	*	*	*	*	*	*	*	*	*	*	*	*	*	*	*	*	*	*	*	*
8G-X\	.	.	8B-/	.	8en/L	.	16b-\LL	.	4G-\	-ti-	.	4en\	-ti-	.	4g-\	-ti-	.	4b-\	-ti-	.	.	.	.	.	.	.	.	.	.	4een\	.
.	.	.	.	.	.	.	16d-/	.	.	.	.	.	.	.	.	.	.	.	.	.	.	.	.	.	.	.	.	.	.	.	.
8G-X\J	.	.	8B-/J	.	8e/J	.	16e-/	.	.	.	.	.	.	.	.	.	.	.	.	.	.	.	.	.	.	.	.	.	.	.	.
.	.	.	.	.	.	.	16d-/JJ	.	.	.	.	.	.	.	.	.	.	.	.	.	.	.	.	.	.	.	.	.	.	.	.
*	*	*	*	*	*	*	*Xrep	*	*	*	*	*	*	*	*	*	*	*	*	*	*	*	*	*	*	*	*	*	*	*	*
!	!	!	!	!	!	!	!	!	!	!	!	!LO:LB:g=original	!	!	!	!	!	!	!	!	!	!	!	!LO:LB:g=original	!	!	!	!	!	!	!
=41	=41	=41	=41	=41	=41	=41	=41	=41	=41	=41	=41	=41	=41	=41	=41	=41	=41	=41	=41	=41	=41	=41	=41	=41	=41	=41	=41	=41	=41	=41	=41
*	*	*	*	*	*tremolo	*	*	*	*	*	*	*	*	*	*	*	*	*	*	*	*	*	*	*	*	*	*	*	*	*	*
!	!	!	!	!	!	!	!LO:TX:t=P:problem=mixed beam:mod=	!	!	!	!	!	!	!	!	!	!	!	!	!	!	!	!LO:DY:t=for	!	!	!	!LO:MO:mod=!LO&colon;DY&colon;ed=brack	!LO:TX:t=P:problem:brak taktu nr 41:mod=	!	!	!
!	!	!	!	!	!	!	!	!	!	!	!	!	!	!	!	!	!	!	!	!	!	!	!	!	!	!	!LO:DY:t= :mod=%s	!LO:MO:mod=2.dd-	!	!	!
8Gn\L	6 n5	.	8B-/L	.	8e-X/L	.	16dd-X\LL	.	2Gn\	-o-	.	2e-X\	-o-	.	2e-\	-o-	.	2dd-X\	-o-	.	2.ryy	2.ryy	2.ryy	2.e-\	f	2.e-\	f	2.ryy	.	2.ee-X\	.
.	.	.	.	.	.	.	16e-/	.	.	.	.	.	.	.	.	.	.	.	.	.	.	.	.	.	.	.	.	.	.	.	.
8Gn\	.	.	8B-/	.	8e-X/	.	16f-X/	.	.	.	.	.	.	.	.	.	.	.	.	.	.	.	.	.	.	.	.	.	.	.	.
.	.	.	.	.	.	.	16e-/JJ	.	.	.	.	.	.	.	.	.	.	.	.	.	.	.	.	.	.	.	.	.	.	.	.
!	!	!	!	!	!	!	!LO:TX:t=P:problem=mixed beam:mod=	!	!	!	!	!	!	!	!	!	!	!	!	!	!	!	!	!	!	!	!	!	!	!	!
*	*	*	*	*	*	*	*rep	*	*	*	*	*	*	*	*	*	*	*	*	*	*	*	*	*	*	*	*	*	*	*	*
8Gn\	.	.	8B-/	.	8e-X/	.	16dd-\LL	.	.	.	.	.	.	.	.	.	.	.	.	.	.	.	.	.	.	.	.	.	.	.	.
.	.	.	.	.	.	.	16e-/	.	.	.	.	.	.	.	.	.	.	.	.	.	.	.	.	.	.	.	.	.	.	.	.
8Gn\	.	.	8B-/	.	8e-X/	.	16f-/	.	.	.	.	.	.	.	.	.	.	.	.	.	.	.	.	.	.	.	.	.	.	.	.
.	.	.	.	.	.	.	16e-/JJ	.	.	.	.	.	.	.	.	.	.	.	.	.	.	.	.	.	.	.	.	.	.	.	.
!	!	!	!	!	!	!	!LO:TX:t=P:problem=mixed beam:mod=	!	!	!	!	!	!	!	!	!	!	!	!	!	!	!	!	!	!	!	!	!	!	!	!
*	*	*	*	*	*	*	*Xrep	*	*	*	*	*	*	*	*	*	*	*	*	*	*	*	*	*	*	*	*	*	*	*	*
*	*	*	*	*	*	*	*rep	*	*	*	*	*	*	*	*	*	*	*	*	*	*	*	*	*	*	*	*	*	*	*	*
8Gn\	.	.	8B-/	.	8e-X/	.	16dd-\LL	.	4G\	-nem	.	4e-\	-nem	.	4e-\	-nem	.	4dd-\	-nem	.	.	.	.	.	.	.	.	.	.	.	.
.	.	.	.	.	.	.	16e-/	.	.	.	.	.	.	.	.	.	.	.	.	.	.	.	.	.	.	.	.	.	.	.	.
8Gn\J	.	.	8B-/J	.	8e-X/J	.	16f-/	.	.	.	.	.	.	.	.	.	.	.	.	.	.	.	.	.	.	.	.	.	.	.	.
.	.	.	.	.	.	.	16e-/JJ	.	.	.	.	.	.	.	.	.	.	.	.	.	.	.	.	.	.	.	.	.	.	.	.
*	*	*	*	*	*	*	*Xrep	*	*	*	*	*	*	*	*	*	*	*	*	*	*	*	*	*	*	*	*	*	*	*	*
!	!	!	!	!	!LO:LB:g=original	!	!	!	!	!	!	!	!	!	!	!	!	!	!	!	!	!	!	!	!	!LO:LB:g=original	!	!	!	!	!
=42	=42	=42	=42	=42	=42	=42	=42	=42	=42	=42	=42	=42	=42	=42	=42	=42	=42	=42	=42	=42	=42	=42	=42	=42	=42	=42	=42	=42	=42	=42	=42
!	!	!	!	!	!	!	!LO:TX:t=P:problem=mixed beam:mod=	!	!	!	!	!	!	!	!	!	!	!	!	!	!	!	!	!	!	!	!	!	!	!	!
8A-\L	.	.	8cn/L	.	8e-/L	.	16cc\LL	.	2A-\	nos-	.	2c\	nos-	.	2e-\	nos-	.	2cc\	no-	.	2.ryy	2.ryy	2.ryy	2.e-\	.	2.e-\	.	2.ccn\	.	2ee-\	.
.	.	.	.	.	.	.	16e-/	.	.	.	.	.	.	.	.	.	.	.	.	.	.	.	.	.	.	.	.	.	.	.	.
8A-\	.	.	8cn/	.	8e-/	.	16f-X/	.	.	.	.	.	.	.	.	.	.	.	.	.	.	.	.	.	.	.	.	.	.	.	.
.	.	.	.	.	.	.	16e-/JJ	.	.	.	.	.	.	.	.	.	.	.	.	.	.	.	.	.	.	.	.	.	.	.	.
!	!	!	!	!	!	!	!LO:TX:t=P:problem=mixed beam:mod=	!	!	!	!	!	!	!	!	!	!	!	!	!	!	!	!	!	!	!	!	!	!	!	!
*	*	*	*	*	*	*	*rep	*	*	*	*	*	*	*	*	*	*	*	*	*	*	*	*	*	*	*	*	*	*	*	*
8A-\	.	.	8cn/	.	8e-/	.	16cc\LL	.	.	.	.	.	.	.	.	.	.	.	.	.	.	.	.	.	.	.	.	.	.	.	.
.	.	.	.	.	.	.	16e-/	.	.	.	.	.	.	.	.	.	.	.	.	.	.	.	.	.	.	.	.	.	.	.	.
8A-\	.	.	8cn/	.	8e-/J	.	16f-/	.	.	.	.	.	.	.	.	.	.	.	.	.	.	.	.	.	.	.	.	.	.	.	.
.	.	.	.	.	.	.	16e-/JJ	.	.	.	.	.	.	.	.	.	.	.	.	.	.	.	.	.	.	.	.	.	.	.	.
!	!	!	!	!	!	!	!LO:TX:t=P:problem=mixed beam:mod=	!	!	!	!	!	!	!	!	!	!	!	!	!	!	!	!	!	!	!	!	!	!	!	!
*	*	*	*	*	*	*	*Xrep	*	*	*	*	*	*	*	*	*	*	*	*	*	*	*	*	*	*	*	*	*	*	*	*
*	*	*	*	*	*Xtremolo	*	*rep	*	*	*	*	*	*	*	*	*	*	*	*	*	*	*	*	*	*	*	*	*	*	*	*
8A-\	.	.	8cn/	.	8g-X/L	.	16cc\LL	.	4A-\	-tram	.	4c\	-tram	.	4g-X\	-tram	.	4cc\	-stram	.	.	.	.	.	.	.	.	.	.	4gg\	.
.	.	.	.	.	.	.	16e-/	.	.	.	.	.	.	.	.	.	.	.	.	.	.	.	.	.	.	.	.	.	.	.	.
8A-\J	.	.	8cn/J	.	8g-/J	.	16f-/	.	.	.	.	.	.	.	.	.	.	.	.	.	.	.	.	.	.	.	.	.	.	.	.
.	.	.	.	.	.	.	16e-/JJ	.	.	.	.	.	.	.	.	.	.	.	.	.	.	.	.	.	.	.	.	.	.	.	.
!	!	!	!	!	!	!	!LO:LB:g=original	!	!	!	!	!	!	!	!	!	!	!	!	!	!	!	!	!	!	!	!	!	!	!	!
*	*	*	*	*	*	*	*Xrep	*	*	*	*	*	*	*	*	*	*	*	*	*	*	*	*	*	*	*	*	*	*	*	*
=43	=43	=43	=43	=43	=43	=43	=43	=43	=43	=43	=43	=43	=43	=43	=43	=43	=43	=43	=43	=43	=43	=43	=43	=43	=43	=43	=43	=43	=43	=43	=43
*	*	*	*	*	*tremolo	*	*	*	*	*	*	*	*	*	*	*	*	*	*	*	*	*	*	*	*	*	*	*	*	*	*
!	!	!	!	!	!	!	!LO:TX:t=P:problem=mixed beam:mod=	!	!	!	!	!	!	!	!	!	!	!	!	!	!	!	!	!	!	!	!	!	!	!	!
8An\L	6 5	.	8c/L	.	8f/L	.	16ee-\LL	.	2An\	de-	.	2c\	de-	.	2f\	de-	.	2ee-\	de-	.	2.ryy	2.ryy	2.ryy	2.f\	.	2.f\	.	2cc\	.	2.ff\	.
.	.	.	.	.	.	.	16f\	.	.	.	.	.	.	.	.	.	.	.	.	.	.	.	.	.	.	.	.	.	.	.	.
8An\	.	.	8c/	.	8f/	.	16g-X\	.	.	.	.	.	.	.	.	.	.	.	.	.	.	.	.	.	.	.	.	.	.	.	.
.	.	.	.	.	.	.	16f\JJ	.	.	.	.	.	.	.	.	.	.	.	.	.	.	.	.	.	.	.	.	.	.	.	.
!	!	!	!	!	!	!	!LO:TX:t=P:problem=mixed beam:mod=	!	!	!	!	!	!	!	!	!	!	!	!	!	!	!	!	!	!	!	!	!	!	!	!
*	*	*	*	*	*	*	*rep	*	*	*	*	*	*	*	*	*	*	*	*	*	*	*	*	*	*	*	*	*	*	*	*
8An\	.	.	8c/	.	8f/	.	16ee-\LL	.	.	.	.	.	.	.	.	.	.	.	.	.	.	.	.	.	.	.	.	.	.	.	.
.	.	.	.	.	.	.	16f/	.	.	.	.	.	.	.	.	.	.	.	.	.	.	.	.	.	.	.	.	.	.	.	.
8An\	.	.	8c/	.	8f/	.	16g-/	.	.	.	.	.	.	.	.	.	.	.	.	.	.	.	.	.	.	.	.	.	.	.	.
.	.	.	.	.	.	.	16f/JJ	.	.	.	.	.	.	.	.	.	.	.	.	.	.	.	.	.	.	.	.	.	.	.	.
!	!	!	!	!	!	!	!LO:TX:t=P:problem=mixed beam:mod=	!	!	!	!	!	!	!	!	!	!	!	!	!	!	!	!	!	!	!	!	!	!	!	!
*	*	*	*	*	*	*	*Xrep	*	*	*	*	*	*	*	*	*	*	*	*	*	*	*	*	*	*	*	*	*	*	*	*
*	*	*	*	*	*	*	*rep	*	*	*	*	*	*	*	*	*	*	*	*	*	*	*	*	*	*	*	*	*	*	*	*
8An\	.	.	8c/	.	8f/	.	16ee-\LL	.	4A\	-prae-	.	4c\	-pre-	.	4f\	-pre-	.	4ee-\	-prae-	.	.	.	.	.	.	.	.	4ee-\	.	.	.
.	.	.	.	.	.	.	16f/	.	.	.	.	.	.	.	.	.	.	.	.	.	.	.	.	.	.	.	.	.	.	.	.
8An\J	.	.	8c/J	.	8f/J	.	16g-/	.	.	.	.	.	.	.	.	.	.	.	.	.	.	.	.	.	.	.	.	.	.	.	.
.	.	.	.	.	.	.	16f/JJ	.	.	.	.	.	.	.	.	.	.	.	.	.	.	.	.	.	.	.	.	.	.	.	.
*	*	*	*	*	*	*	*Xrep	*	*	*	*	*	*	*	*	*	*	*	*	*	*	*	*	*	*	*	*	*	*	*	*
=44	=44	=44	=44	=44	=44	=44	=44	=44	=44	=44	=44	=44	=44	=44	=44	=44	=44	=44	=44	=44	=44	=44	=44	=44	=44	=44	=44	=44	=44	=44	=44
!	!	!	!	!	!	!	!LO:TX:t=P:problem=mixed beam:mod=	!	!	!	!	!	!	!	!	!	!	!	!	!	!	!	!	!	!	!	!	!	!	!	!
8B-\L	8	.	8d-X\L	.	8f/L	.	16dd-X/LL	.	2B-\	-ca-	.	2B-\	-ca-	.	2f\	-ca-	.	2dd-X\	-ca-	.	2.ryy	2.ryy	2.ryy	2.f\	.	2.f\	.	2.dd-	.	2.ff\	.
.	.	.	.	.	.	.	16f/	.	.	.	.	.	.	.	.	.	.	.	.	.	.	.	.	.	.	.	.	.	.	.	.
8B-\	.	.	8d-X\	.	8f/	.	16g-X/	.	.	.	.	.	.	.	.	.	.	.	.	.	.	.	.	.	.	.	.	.	.	.	.
.	.	.	.	.	.	.	16f/JJ	.	.	.	.	.	.	.	.	.	.	.	.	.	.	.	.	.	.	.	.	.	.	.	.
!	!	!	!	!	!	!	!LO:TX:t=P:problem=mixed beam:mod=	!	!	!	!	!	!	!	!	!	!	!	!	!	!	!	!	!	!	!	!	!	!	!	!
*	*	*	*	*	*	*	*rep	*	*	*	*	*	*	*	*	*	*	*	*	*	*	*	*	*	*	*	*	*	*	*	*
8B-\	.	.	8d-X\	.	8f/	.	16dd-/LL	.	.	.	.	.	.	.	.	.	.	.	.	.	.	.	.	.	.	.	.	.	.	.	.
.	.	.	.	.	.	.	16f/	.	.	.	.	.	.	.	.	.	.	.	.	.	.	.	.	.	.	.	.	.	.	.	.
8B-\	.	.	8d-X\	.	8f/	.	16g-/	.	.	.	.	.	.	.	.	.	.	.	.	.	.	.	.	.	.	.	.	.	.	.	.
.	.	.	.	.	.	.	16f/JJ	.	.	.	.	.	.	.	.	.	.	.	.	.	.	.	.	.	.	.	.	.	.	.	.
!	!	!	!	!	!	!	!LO:TX:t=P:problem=mixed beam:mod=	!	!	!	!	!	!	!	!	!	!	!	!	!	!	!	!	!	!	!	!	!	!	!	!
*	*	*	*	*	*	*	*Xrep	*	*	*	*	*	*	*	*	*	*	*	*	*	*	*	*	*	*	*	*	*	*	*	*
*	*	*	*	*	*	*	*rep	*	*	*	*	*	*	*	*	*	*	*	*	*	*	*	*	*	*	*	*	*	*	*	*
8B-\	.	.	8d-X\	.	8f/	.	16dd-/LL	.	4B-\	-ti-	.	4B-\	-ti-	.	4f\	-ti-	.	4dd-\	-ti-	.	.	.	.	.	.	.	.	.	.	.	.
.	.	.	.	.	.	.	16f/	.	.	.	.	.	.	.	.	.	.	.	.	.	.	.	.	.	.	.	.	.	.	.	.
8B-\J	.	.	8d-X\J	.	8f/J	.	16g-/	.	.	.	.	.	.	.	.	.	.	.	.	.	.	.	.	.	.	.	.	.	.	.	.
.	.	.	.	.	.	.	16f/JJ	.	.	.	.	.	.	.	.	.	.	.	.	.	.	.	.	.	.	.	.	.	.	.	.
!LO:LB:g=original	!	!	!	!	!	!	!	!	!	!	!	!	!	!	!LO:LB:g=original	!	!	!LO:LB:g=original	!	!	!	!	!	!	!	!	!	!	!	!	!
*	*	*	*	*	*	*	*Xrep	*	*	*	*	*	*	*	*	*	*	*	*	*	*	*	*	*	*	*	*	*	*	*	*
=45	=45	=45	=45	=45	=45	=45	=45	=45	=45	=45	=45	=45	=45	=45	=45	=45	=45	=45	=45	=45	=45	=45	=45	=45	=45	=45	=45	=45	=45	=45	=45
*Xtremolo	*	*	*	*	*	*	*	*	*	*	*	*	*	*	*	*	*	*	*	*	*	*	*	*	*	*	*	*	*	*	*
8c\L	n5_ 3_	.	8e-\L	.	8g-X/L	.	16r	.	2c\	-o-	.	2e-\	-o-	.	2g-X\	-o-	.	2an\	-o-	.	2.ryy	2.ryy	2.ryy	2.e-\	.	2.e-\	.	2a-/	.	2.gg-X\	.
.	.	.	.	.	.	.	16an\LL	.	.	.	.	.	.	.	.	.	.	.	.	.	.	.	.	.	.	.	.	.	.	.	.
8c\	.	.	8e-\	.	8g-X/	.	16b-\	.	.	.	.	.	.	.	.	.	.	.	.	.	.	.	.	.	.	.	.	.	.	.	.
.	.	.	.	.	.	.	16a\JJ	.	.	.	.	.	.	.	.	.	.	.	.	.	.	.	.	.	.	.	.	.	.	.	.
8c\	.	.	8e-\	.	8g-X/	.	16r	.	.	.	.	.	.	.	.	.	.	.	.	.	.	.	.	.	.	.	.	.	.	.	.
.	.	.	.	.	.	.	16a\LL	.	.	.	.	.	.	.	.	.	.	.	.	.	.	.	.	.	.	.	.	.	.	.	.
8c\	.	.	8e-\	.	8g-X/	.	16b-\	.	.	.	.	.	.	.	.	.	.	.	.	.	.	.	.	.	.	.	.	.	.	.	.
.	.	.	.	.	.	.	16a\JJ	.	.	.	.	.	.	.	.	.	.	.	.	.	.	.	.	.	.	.	.	.	.	.	.
8B-\	.	.	8e-\	.	8g-X/	.	16r	.	4B-\	-nem	.	4e-\	-nem	.	[4g-\	-nem	.	4b-\	-nem	.	.	.	.	.	.	.	.	4b-/	.	.	.
.	.	.	.	.	.	.	16b-\LL	.	.	.	.	.	.	.	.	.	.	.	.	.	.	.	.	.	.	.	.	.	.	.	.
8B-\J	.	.	8e-\J	.	8g-X/J	.	16cc\	.	.	.	.	.	.	.	.	.	.	.	.	.	.	.	.	.	.	.	.	.	.	.	.
.	.	.	.	.	.	.	16b-\JJ	.	.	.	.	.	.	.	.	.	.	.	.	.	.	.	.	.	.	.	.	.	.	.	.
!	!	!	!	!	!	!	!LO:LB:g=original	!	!	!	!	!	!	!	!	!	!	!	!	!	!	!	!	!	!	!	!	!	!	!	!
=46	=46	=46	=46	=46	=46	=46	=46	=46	=46	=46	=46	=46	=46	=46	=46	=46	=46	=46	=46	=46	=46	=46	=46	=46	=46	=46	=46	=46	=46	=46	=46
!	!	!	!	!	!	!	!	!	!	!	!	!	!	!	!	!	!	!	!	!	!	!	!	!	!	!	!	!	!	!LO:SIC:s=2gg-	!
8An\L	.	.	8e-\L	.	8g-X/L	.	16cc\LL	.	4An\	nos-	.	2e-\	nos-	.	2g-\]	nos-	.	2cc\	nos-	.	2.ryy	2.ryy	2.ryy	2.e-\	.	2.e-\	.	2.ee-\	.	2gg\	.
.	.	.	.	.	.	.	16cc\	.	.	.	.	.	.	.	.	.	.	.	.	.	.	.	.	.	.	.	.	.	.	.	.
8A\	.	.	8e-\	.	8g-X/	.	16dd\	.	.	.	.	.	.	.	.	.	.	.	.	.	.	.	.	.	.	.	.	.	.	.	.
.	.	.	.	.	.	.	16cc\JJ	.	.	.	.	.	.	.	.	.	.	.	.	.	.	.	.	.	.	.	.	.	.	.	.
*	*	*	*	*	*	*	*rep	*	*	*	*	*	*	*	*	*	*	*	*	*	*	*	*	*	*	*	*	*	*	*	*
8A-X\	.	.	8e-\	.	8g-X/	.	16cc\LL	.	(4A-X\	-tram	.	.	.	.	.	.	.	.	.	.	.	.	.	.	.	.	.	.	.	.	.
.	.	.	.	.	.	.	16cc\	.	.	.	.	.	.	.	.	.	.	.	.	.	.	.	.	.	.	.	.	.	.	.	.
8A-\	.	.	8e-\	.	8g-X/J	.	16dd\	.	.	.	.	.	.	.	.	.	.	.	.	.	.	.	.	.	.	.	.	.	.	.	.
.	.	.	.	.	.	.	16cc\JJ	.	.	.	.	.	.	.	.	.	.	.	.	.	.	.	.	.	.	.	.	.	.	.	.
*	*	*	*	*	*	*	*Xrep	*	*	*	*	*	*	*	*	*	*	*	*	*	*	*	*	*	*	*	*	*	*	*	*
*	*	*	*	*	*	*	*rep	*	*	*	*	*	*	*	*	*	*	*	*	*	*	*	*	*	*	*	*	*	*	*	*
8G\	6_ 4_	.	8e-\	.	4gn/	.	16cc\LL	.	4G\)	.	.	4e-\	-tram	.	4gn\	-tram	.	4cc\	-tram	.	.	.	.	.	.	.	.	.	.	4ggn\	.
.	.	.	.	.	.	.	16cc\	.	.	.	.	.	.	.	.	.	.	.	.	.	.	.	.	.	.	.	.	.	.	.	.
8G\J	.	.	8e-\J	.	.	.	16dd\	.	.	.	.	.	.	.	.	.	.	.	.	.	.	.	.	.	.	.	.	.	.	.	.
.	.	.	.	.	.	.	16cc\JJ	.	.	.	.	.	.	.	.	.	.	.	.	.	.	.	.	.	.	.	.	.	.	.	.
*	*	*	*	*	*	*	*Xrep	*	*	*	*	*	*	*	*	*	*	*	*	*	*	*	*	*	*	*	*	*	*	*	*
!	!	!	!	!	!	!	!	!	!	!	!	!	!	!	!	!	!	!	!	!	!	!	!	!	!	!	!	!LO:LB:g=original	!	!	!
=47	=47	=47	=47	=47	=47	=47	=47	=47	=47	=47	=47	=47	=47	=47	=47	=47	=47	=47	=47	=47	=47	=47	=47	=47	=47	=47	=47	=47	=47	=47	=47
*tremolo	*	*	*	*	*	*	*	*	*	*	*	*	*	*	*	*	*	*	*	*	*	*	*	*	*	*	*	*	*	*	*
8F#X\L	7 5	.	8e-\L	.	8an/L	.	16ee-\LL	.	2.F#X\	nos-	.	2.e-\	nos-	.	2.an\	nos-	.	2.cc\	nos-	.	2.ryy	2.ryy	2.ryy	4e-\	.	4e-\	.	2.ee-\	.	2.aan\	.
.	.	.	.	.	.	.	16bn\	.	.	.	.	.	.	.	.	.	.	.	.	.	.	.	.	.	.	.	.	.	.	.	.
8F#X\	.	.	8e-\	.	8an/	.	16cc\	.	.	.	.	.	.	.	.	.	.	.	.	.	.	.	.	.	.	.	.	.	.	.	.
.	.	.	.	.	.	.	16b\JJ	.	.	.	.	.	.	.	.	.	.	.	.	.	.	.	.	.	.	.	.	.	.	.	.
8F#X\	.	.	8e-\	.	8an/	.	16cc\LL	.	.	.	.	.	.	.	.	.	.	.	.	.	.	.	.	4r	.	4r	.	.	.	.	.
.	.	.	.	.	.	.	16b\	.	.	.	.	.	.	.	.	.	.	.	.	.	.	.	.	.	.	.	.	.	.	.	.
8F#X\	.	.	8e-\	.	8an/	.	16cc\	.	.	.	.	.	.	.	.	.	.	.	.	.	.	.	.	.	.	.	.	.	.	.	.
.	.	.	.	.	.	.	16b\JJ	.	.	.	.	.	.	.	.	.	.	.	.	.	.	.	.	.	.	.	.	.	.	.	.
8F#X\	.	.	8e-\	.	8an/	.	16cc\LL	.	.	.	.	.	.	.	.	.	.	.	.	.	.	.	.	4r	.	4r	.	.	.	.	.
.	.	.	.	.	.	.	16ee-\	.	.	.	.	.	.	.	.	.	.	.	.	.	.	.	.	.	.	.	.	.	.	.	.
8F#X\J	.	.	8e-\J	.	8an/J	.	16cc\	.	.	.	.	.	.	.	.	.	.	.	.	.	.	.	.	.	.	.	.	.	.	.	.
.	.	.	.	.	.	.	16dd\JJ	.	.	.	.	.	.	.	.	.	.	.	.	.	.	.	.	.	.	.	.	.	.	.	.
!	!	!	!	!	!	!	!	!	!LO:LB:g=original	!	!	!	!	!	!	!	!	!	!	!	!	!	!	!	!	!	!	!	!	!	!
=48	=48	=48	=48	=48	=48	=48	=48	=48	=48	=48	=48	=48	=48	=48	=48	=48	=48	=48	=48	=48	=48	=48	=48	=48	=48	=48	=48	=48	=48	=48	=48
!	!	!LO:DY:a:t=pp&colon;:mod=p	!	!LO:DY:t=p.:mod=%s	!	!	!	!LO:DY:t=pia:mod=%s	!	!	!	!	!	!	!	!	!	!	!	!	!	!	!	!	!	!LO:MO:mod=4g	!	!	!	!	!
4G\	n	pp	4d\	p	4d/	.	8bn\L	p	4G\	-tram	.	4d\	-tram	.	4g\	-tram	.	4bn\	-tram	.	2.ryy	2.ryy	2.ryy	4G/	.	(8g\L	.	4ddn\	.	4bbn\	.
.	.	.	.	.	.	.	8qqff#X/	.	.	.	.	.	.	.	.	.	.	.	.	.	.	.	.	.	.	.	.	.	.	.	.
!	!	!	!	!	!	!	!	!	!	!	!	!	!	!	!	!	!	!	!	!	!	!	!	!	!	!LO:MO:mod=.	!	!	!	!	!
.	.	.	.	.	.	.	8gg\J	.	.	.	.	.	.	.	.	.	.	.	.	.	.	.	.	.	.	8g\J)	.	.	.	.	.
4GG/	.	.	4G/	.	8r	.	8dd\L	.	4r	.	.	4r	.	.	4r	.	.	4r	.	.	.	.	.	4r	.	4r	.	4r	.	4r	.
!	!	!	!	!	!	!LO:DY:a:t=p&colon;:mod=%s	!	!	!	!	!	!	!	!	!	!	!	!	!	!	!	!	!	!	!	!	!	!	!	!	!
.	.	.	.	.	8Bn/L	p	8dd\J	.	.	.	.	.	.	.	.	.	.	.	.	.	.	.	.	.	.	.	.	.	.	.	.
4r	.	.	4r	.	8c/	.	8.ee-t\L	.	4r	.	.	4r	.	.	4r	.	.	4r	.	.	.	.	.	4r	.	4r	.	4r	.	4r	.
.	.	.	.	.	8e-/J	.	.	.	.	.	.	.	.	.	.	.	.	.	.	.	.	.	.	.	.	.	.	.	.	.	.
.	.	.	.	.	.	.	32ff#\LL	.	.	.	.	.	.	.	.	.	.	.	.	.	.	.	.	.	.	.	.	.	.	.	.
.	.	.	.	.	.	.	32gg\JJJ	.	.	.	.	.	.	.	.	.	.	.	.	.	.	.	.	.	.	.	.	.	.	.	.
!	!	!	!	!	!	!	!LO:LB:g=original	!	!	!	!	!LO:LB:g=original	!	!	!	!	!	!	!	!	!	!	!	!	!	!	!	!	!	!LO:LB:g=original	!
=49	=49	=49	=49	=49	=49	=49	=49	=49	=49	=49	=49	=49	=49	=49	=49	=49	=49	=49	=49	=49	=49	=49	=49	=49	=49	=49	=49	=49	=49	=49	=49
!	!	!	!	!	!	!	!	!	!LO:TX:b:t=2:mod=	!	!	!LO:TX:a:t=2:mod=	!	!	!LO:TX:b:t=2:mod=	!	!	!LO:TX:a:t=2:mod=	!	!	!	!	!	!	!	!	!	!	!	!LO:TX:a:t=2.:mod=	!
*	*	*	*	*	*	*	*tremolo	*	*	*	*	*	*	*	*	*	*	*	*	*	*	*	*	*	*	*	*	*	*	*	*
!	!	!	!	!	!	!	!	!	!	!	!	!	!	!	!	!	!	!	!	!	!	!	!	!	!	!LO:MO:mod=4g	!	!	!	!	!
4G\	.	.	4G/	.	4d/	.	8bn\L	.	1.r	.	.	1.r	.	.	1.r	.	.	1.r	.	.	2.ryy	2.ryy	2.ryy	4G/	.	(8g\L	.	1.r	.	1.r	.
!	!	!	!	!	!	!	!	!	!	!	!	!	!	!	!	!	!	!	!	!	!	!	!	!	!	!LO:MO:mod=.	!	!	!	!	!
.	.	.	.	.	.	.	8bn\	.	.	.	.	.	.	.	.	.	.	.	.	.	.	.	.	.	.	8g\J)	.	.	.	.	.
4GG/	.	.	8r	.	8r	.	8bn\	.	.	.	.	.	.	.	.	.	.	.	.	.	.	.	.	4r	.	4r	.	.	.	.	.
.	.	.	8f\L	.	8d/L	.	8bn\J	.	.	.	.	.	.	.	.	.	.	.	.	.	.	.	.	.	.	.	.	.	.	.	.
*	*	*	*	*	*	*	*Xtremolo	*	*	*	*	*	*	*	*	*	*	*	*	*	*	*	*	*	*	*	*	*	*	*	*
4r	.	.	8e-\	.	8e-/	.	8.ccT\L	.	.	.	.	.	.	.	.	.	.	.	.	.	.	.	.	4r	.	4r	.	.	.	.	.
.	.	.	8c\J	.	8c/J	.	.	.	.	.	.	.	.	.	.	.	.	.	.	.	.	.	.	.	.	.	.	.	.	.	.
.	.	.	.	.	.	.	32dd\LL	.	.	.	.	.	.	.	.	.	.	.	.	.	.	.	.	.	.	.	.	.	.	.	.
.	.	.	.	.	.	.	32ee-\JJJ	.	.	.	.	.	.	.	.	.	.	.	.	.	.	.	.	.	.	.	.	.	.	.	.
!	!	!	!LO:LB:g=original	!	!	!	!	!	!	!	!	!	!	!	!	!	!	!	!	!	!	!	!	!	!	!	!	!	!	!	!
=50	=50	=50	=50	=50	=50	=50	=50	=50	=50	=50	=50	=50	=50	=50	=50	=50	=50	=50	=50	=50	=50	=50	=50	=50	=50	=50	=50	=50	=50	=50	=50
4GG/	.	.	4G/	.	4Bn/	.	(8dd\L	.	.	.	.	.	.	.	.	.	.	.	.	.	2.ryy	2.ryy	2.ryy	4G/	.	4g\	.	.	.	.	.
.	.	.	.	.	.	.	8gg\	.	.	.	.	.	.	.	.	.	.	.	.	.	.	.	.	.	.	.	.	.	.	.	.
4r	.	.	4r	.	4r	.	8ff#X\	.	.	.	.	.	.	.	.	.	.	.	.	.	.	.	.	4r	.	4r	.	.	.	.	.
.	.	.	.	.	.	.	8gg\J)	.	.	.	.	.	.	.	.	.	.	.	.	.	.	.	.	.	.	.	.	.	.	.	.
8r	.	.	8r	.	8r	.	(8aa-\L	.	.	.	.	.	.	.	.	.	.	.	.	.	.	.	.	8r	.	8r	.	.	.	.	.
!	!	!	!	!	!	!	!	!	!	!	!	!	!	!	!	!	!	!	!	!	!	!	!	!	!	!LO:TX:b:t=VC:mod=	!	!	!	!	!
8F\	4 2	.	8a-\	.	8d/	.	8bn\J)	.	.	.	.	.	.	.	.	.	.	.	.	.	.	.	.	8f\	.	8g\	.	.	.	.	.
!	!	!	!	!	!	!	!	!	!	!	!	!	!	!	!	!	!	!	!	!	!	!	!	!	!	!LO:LB:g=original	!	!	!	!	!
=51	=51	=51	=51	=51	=51	=51	=51	=51	=51	=51	=51	=51	=51	=51	=51	=51	=51	=51	=51	=51	=51	=51	=51	=51	=51	=51	=51	=51	=51	=51	=51
*	*	*	*Xtremolo	*	*	*	*	*	*	*	*	*	*	*	*	*	*	*	*	*	*	*	*	*tremolo	*	*tremolo	*	*	*	*	*
!	!	!	!	!LO:MO:mod=!LO&colon;DY&colon;ed=brack	!	!	!	!	!	!	!LO:MO:mod=!LO&colon;DY&colon;ed=brack	!	!	!LO:MO:mod=!LO&colon;DY&colon;ed=brack	!	!	!LO:MO:mod=!LO&colon;DY&colon;ed=brack	!	!	!LO:MO:mod=!LO&colon;DY&colon;ed=brack	!	!	!	!	!	!	!LO:MO:mod=!LO&colon;DY&colon;ed=brack	!	!LO:MO:mod=!LO&colon;DY&colon;ed=brack	!	!LO:MO:mod=!LO&colon;DY&colon;ed=brack
!	!	!LO:DY:a:t=ffor.:mod=%s	!	!LO:DY:t= :mod=%s	!	!LO:DY:t=for:mod=%s	!	!	!	!	!LO:DY:t= :mod=%s	!	!	!LO:DY:t= :mod=%s	!	!	!LO:DY:t= :mod=%s	!	!	!LO:DY:t= :mod=%s	!	!	!	!	!LO:DY:a:t=for..:mod=%s	!	!LO:DY:t= :mod=%s	!	!LO:DY:t= :mod=%s	!	!LO:DY:t= :mod=%s
8E-\L	6	ff	8g\L	ff	8g/L	ff	16cc\LL	ff	4E-\	qui	f	4c\	qui	f	4g\	qui	f	4cc\	qui	f	2.ryy	2.ryy	2.ryy	8e-\L	f	8g\L	f	2.cc\	f	2.gg\	f
.	.	.	.	.	.	.	16g\JJ	.	.	.	.	.	.	.	.	.	.	.	.	.	.	.	.	.	.	.	.	.	.	.	.
8E-\	.	.	8g\J	.	8g/	.	16e-/LL	.	.	.	.	.	.	.	.	.	.	.	.	.	.	.	.	8e-	.	8g\	.	.	.	.	.
.	.	.	.	.	.	.	16d/JJ	.	.	.	.	.	.	.	.	.	.	.	.	.	.	.	.	.	.	.	.	.	.	.	.
*	*	*	*tremolo	*	*	*	*	*	*	*	*	*	*	*	*	*	*	*	*	*	*	*	*	*	*	*	*	*	*	*	*
8E-\	.	.	8c\L	.	8g/	.	16c/LL	.	4E-\	se-	.	4c\	se-	.	4g\	se-	.	4cc\	se-	.	.	.	.	8e-	.	8g\	.	.	.	.	.
.	.	.	.	.	.	.	16e-/	.	.	.	.	.	.	.	.	.	.	.	.	.	.	.	.	.	.	.	.	.	.	.	.
8E-\	.	.	8c\	.	8g/	.	16g/	.	.	.	.	.	.	.	.	.	.	.	.	.	.	.	.	8e-	.	8g\	.	.	.	.	.
.	.	.	.	.	.	.	16cc/JJ	.	.	.	.	.	.	.	.	.	.	.	.	.	.	.	.	.	.	.	.	.	.	.	.
8E-\	.	.	8c\	.	8g/	.	16gg\LL	.	8E-\	-des	.	8c\	-des	.	8g\	-des	.	8cc\	-des	.	.	.	.	8e-	.	8g\	.	.	.	.	.
.	.	.	.	.	.	.	16ee-\	.	.	.	.	.	.	.	.	.	.	.	.	.	.	.	.	.	.	.	.	.	.	.	.
8E-\J	.	.	8c\J	.	8g/J	.	16dd\	.	8E-\	ad	.	8c\	ad	.	8g\	ad	.	8cc\	ad	.	.	.	.	8e-\J	.	8g\J	.	.	.	.	.
.	.	.	.	.	.	.	16cc\JJ	.	.	.	.	.	.	.	.	.	.	.	.	.	.	.	.	.	.	.	.	.	.	.	.
=52	=52	=52	=52	=52	=52	=52	=52	=52	=52	=52	=52	=52	=52	=52	=52	=52	=52	=52	=52	=52	=52	=52	=52	=52	=52	=52	=52	=52	=52	=52	=52
8F\L	5	.	8c\L	.	8a-/L	.	16aa-\LL	.	4.F\	dex-	.	4.c\	dex-	.	4.a-\	dex-	.	4.cc\	dex-	.	2.ryy	2.ryy	2.ryy	8f\L	.	8a-\L	.	2.cc\	.	2.aa-\	.
.	.	.	.	.	.	.	16cc\	.	.	.	.	.	.	.	.	.	.	.	.	.	.	.	.	.	.	.	.	.	.	.	.
8F\	.	.	8c\	.	8a-/	.	16bn\	.	.	.	.	.	.	.	.	.	.	.	.	.	.	.	.	8f	.	8a-\	.	.	.	.	.
.	.	.	.	.	.	.	16cc\JJ	.	.	.	.	.	.	.	.	.	.	.	.	.	.	.	.	.	.	.	.	.	.	.	.
8F\	.	.	8c\	.	8a-/	.	16r	.	.	.	.	.	.	.	.	.	.	.	.	.	.	.	.	8f	.	8a-\	.	.	.	.	.
.	.	.	.	.	.	.	16cc\LL	.	.	.	.	.	.	.	.	.	.	.	.	.	.	.	.	.	.	.	.	.	.	.	.
8F\	.	.	8c\	.	8a-/	.	16b\	.	8F\	-te-	.	8c\	-te-	.	8a-\	-te-	.	8cc\	-te-	.	.	.	.	8f	.	8a-\	.	.	.	.	.
.	.	.	.	.	.	.	16cc\JJ	.	.	.	.	.	.	.	.	.	.	.	.	.	.	.	.	.	.	.	.	.	.	.	.
!	!	!	!	!	!	!	!LO:LB:g=original	!	!	!	!	!	!	!	!	!	!	!LO:TX:t=P:problem=zapis niejednoznaczny:mod=	!	!	!	!	!	!	!	!	!	!	!	!	!
8F\	.	.	8c\	.	8a-/	.	16dd\LL	.	4F\	-ram	.	4c\	-ram	.	4a-\	-ram	.	4cc\	-ram	.	.	.	.	8f	.	8a-\	.	.	.	.	.
.	.	.	.	.	.	.	16cc\	.	.	.	.	.	.	.	.	.	.	.	.	.	.	.	.	.	.	.	.	.	.	.	.
8F\J	.	.	8c\J	.	8a-/J	.	16b\	.	.	.	.	.	.	.	.	.	.	.	.	.	.	.	.	8f\J	.	8a-\J	.	.	.	.	.
.	.	.	.	.	.	.	16cc\JJ	.	.	.	.	.	.	.	.	.	.	.	.	.	.	.	.	.	.	.	.	.	.	.	.
*Xtremolo	*	*	*Xtremolo	*	*Xtremolo	*	*	*	*	*	*	*	*	*	*	*	*	*	*	*	*	*	*	*	*	*Xtremolo	*	*	*	*	*
!	!	!	!	!	!LO:LB:g=original	!	!	!	!	!	!	!	!	!	!LO:LB:g=original	!	!	!	!	!	!	!	!	!	!	!	!	!	!	!	!
=53	=53	=53	=53	=53	=53	=53	=53	=53	=53	=53	=53	=53	=53	=53	=53	=53	=53	=53	=53	=53	=53	=53	=53	=53	=53	=53	=53	=53	=53	=53	=53
8G\L	n6 4	.	8g\L	.	8en/L	.	16een\LL	.	(4G\	Pa-	.	2c\	Pa-	.	(4en\	Pa-	.	2cc\	Pa-	.	2.ryy	2.ryy	2.ryy	4g\	.	4g\	.	2.cc\	.	4een\	.
.	.	.	.	.	.	.	16cc\	.	.	.	.	.	.	.	.	.	.	.	.	.	.	.	.	.	.	.	.	.	.	.	.
8G\	.	.	8g\	.	8e/	.	16bn\	.	.	.	.	.	.	.	.	.	.	.	.	.	.	.	.	.	.	.	.	.	.	.	.
.	.	.	.	.	.	.	16cc\JJ	.	.	.	.	.	.	.	.	.	.	.	.	.	.	.	.	.	.	.	.	.	.	.	.
8A-\	.	.	8f\	.	8f/	.	16ff\LL	.	4A-\)	.	.	.	.	.	4f\)	.	.	.	.	.	.	.	.	4f\	.	4f\	.	.	.	4ff\	.
.	.	.	.	.	.	.	16cc\	.	.	.	.	.	.	.	.	.	.	.	.	.	.	.	.	.	.	.	.	.	.	.	.
8A-\	.	.	8f\	.	8f/	.	16b\	.	.	.	.	.	.	.	.	.	.	.	.	.	.	.	.	.	.	.	.	.	.	.	.
.	.	.	.	.	.	.	16cc\JJ	.	.	.	.	.	.	.	.	.	.	.	.	.	.	.	.	.	.	.	.	.	.	.	.
8En\	6	.	8en\	.	8g/	.	16gg\LL	.	4En\	-tris	.	4c\	-tris	.	4g\	-tris	.	4cc\	-tris	.	.	.	.	4g\	.	4g\	.	.	.	4gg\	.
.	.	.	.	.	.	.	16cc\	.	.	.	.	.	.	.	.	.	.	.	.	.	.	.	.	.	.	.	.	.	.	.	.
8E\J	.	.	8e\J	.	8g/J	.	16b\	.	.	.	.	.	.	.	.	.	.	.	.	.	.	.	.	.	.	.	.	.	.	.	.
.	.	.	.	.	.	.	16cc\JJ	.	.	.	.	.	.	.	.	.	.	.	.	.	.	.	.	.	.	.	.	.	.	.	.
!	!	!	!	!	!	!	!	!	!	!	!	!	!	!	!	!	!	!LO:LB:g=original	!	!	!	!	!	!	!	!	!	!	!	!	!
=54	=54	=54	=54	=54	=54	=54	=54	=54	=54	=54	=54	=54	=54	=54	=54	=54	=54	=54	=54	=54	=54	=54	=54	=54	=54	=54	=54	=54	=54	=54	=54
*tremolo	*	*	*tremolo	*	*tremolo	*	*	*	*	*	*	*	*	*	*	*	*	*	*	*	*	*	*	*	*	*	*	*	*	*	*
8F\L	.	.	8f\L	.	8cc\L	.	16aa-\LL	.	2F\	mi-	.	2c\	mi-	.	2a-\	mi-	.	2cc\	mi-	.	2.ryy	2.ryy	2.ryy	4f\	.	4a-\	.	2.cc\	.	2.aa-\	.
.	.	.	.	.	.	.	16aa-\	.	.	.	.	.	.	.	.	.	.	.	.	.	.	.	.	.	.	.	.	.	.	.	.
8F\	.	.	8f\	.	8cc\	.	16gg\	.	.	.	.	.	.	.	.	.	.	.	.	.	.	.	.	.	.	.	.	.	.	.	.
.	.	.	.	.	.	.	16aa-\JJ	.	.	.	.	.	.	.	.	.	.	.	.	.	.	.	.	.	.	.	.	.	.	.	.
8F\	.	.	8f\	.	8cc\	.	16bb-\LL	.	.	.	.	.	.	.	.	.	.	.	.	.	.	.	.	4r	.	4r	.	.	.	.	.
.	.	.	.	.	.	.	16aa-\	.	.	.	.	.	.	.	.	.	.	.	.	.	.	.	.	.	.	.	.	.	.	.	.
8F\	.	.	8f\	.	8cc\	.	16gg\	.	.	.	.	.	.	.	.	.	.	.	.	.	.	.	.	.	.	.	.	.	.	.	.
.	.	.	.	.	.	.	16aa-\JJ	.	.	.	.	.	.	.	.	.	.	.	.	.	.	.	.	.	.	.	.	.	.	.	.
8F\	.	.	8f\	.	8cc\	.	16gg\LL	.	4F\	-se-	.	4c\	-se-	.	4a-\	-se-	.	4cc\	-se-	.	.	.	.	4r	.	4r	.	.	.	.	.
.	.	.	.	.	.	.	16aa-\	.	.	.	.	.	.	.	.	.	.	.	.	.	.	.	.	.	.	.	.	.	.	.	.
8F\J	.	.	8f\J	.	8cc\J	.	16ccc\	.	.	.	.	.	.	.	.	.	.	.	.	.	.	.	.	.	.	.	.	.	.	.	.
.	.	.	.	.	.	.	16aa-\JJ	.	.	.	.	.	.	.	.	.	.	.	.	.	.	.	.	.	.	.	.	.	.	.	.
*Xtremolo	*	*	*Xtremolo	*	*	*	*	*	*	*	*	*	*	*	*	*	*	*	*	*	*	*	*	*	*	*	*	*	*	*	*
=55	=55	=55	=55	=55	=55	=55	=55	=55	=55	=55	=55	=55	=55	=55	=55	=55	=55	=55	=55	=55	=55	=55	=55	=55	=55	=55	=55	=55	=55	=55	=55
8E-X\L	6_ 3	.	8e-X\L	.	8cc\L	.	16gg\LL	.	8E-X\	-re-	.	8c\	-re-	.	8g\	-re-	.	8cc\	-re-	.	2.ryy	2.ryy	2.ryy	8e-\L	.	8g\L	.	8cc\L	.	8gg\L	.
.	.	.	.	.	.	.	16ee-\	.	.	.	.	.	.	.	.	.	.	.	.	.	.	.	.	.	.	.	.	.	.	.	.
8F\	x 3	.	8f\J	.	8cc\	.	16aa-\	.	8F\	-re	.	8c\	-re	.	8a-\	-re	.	8cc\	-re	.	.	.	.	8f\J	.	8a-\J	.	8cc\J	.	16aa-\L	.
.	.	.	.	.	.	.	16ff\JJ	.	.	.	.	.	.	.	.	.	.	.	.	.	.	.	.	.	.	.	.	.	.	16ff\JJ	.
!	!	!	!	!	!	!	!LO:LB:g=original	!	!	!	!	!	!	!	!	!	!	!	!	!	!	!	!	!	!	!	!	!	!	!	!
8G\	4	.	8g\L	.	8cc\	.	4ee-\	.	2G\	no-	.	(4e-\	no-	.	2g\	no-	.	(4cc\	no-	.	.	.	.	4g\	.	4g\	.	4cc\	.	4ee-\	.
8G\	3	.	8g\	.	8cc\J	.	.	.	.	.	.	.	.	.	.	.	.	.	.	.	.	.	.	.	.	.	.	.	.	.	.
*	*	*	*	*	*Xtremolo	*	*	*	*	*	*	*	*	*	*	*	*	*	*	*	*	*	*	*	*	*	*	*	*	*	*
8GG/	.	.	8f\	.	8bn\L	.	4ddt\	.	.	.	.	4d\)	.	.	.	.	.	4bn\)	.	.	.	.	.	4G/	.	4g\	.	4bn\	.	4dd\	.
8GG/J	.	.	8f\J	.	8b\J	.	.	.	.	.	.	.	.	.	.	.	.	.	.	.	.	.	.	.	.	.	.	.	.	.	.
!LO:LB:g=original	!	!	!	!	!	!	!	!	!LO:LB:g=original	!	!	!LO:LB:g=original	!	!	!	!	!	!	!	!	!	!	!	!LO:LB:g=original	!	!	!	!	!	!	!
=56	=56	=56	=56	=56	=56	=56	=56	=56	=56	=56	=56	=56	=56	=56	=56	=56	=56	=56	=56	=56	=56	=56	=56	=56	=56	=56	=56	=56	=56	=56	=56
!	!	!	!	!LO:MO:mod=!LO&colon;DY&colon;ed=brack	!	!	!	!	!	!	!	!	!	!	!	!	!	!	!	!	!	!	!	!	!	!	!	!	!	!	!
!	!	!LO:DY:a:t=pp&colon;:mod=p	!	!LO:DY:t= :mod=%s	!	!LO:DY:a:t=p&colon;:mod=%s	!	!	!	!	!	!	!	!	!	!	!	!	!	!	!	!	!	!	!	!	!	!	!	!	!
8C|/	.	pp	8e-\L	p	8cc\L	p	4cc\	.	4C/	-bis	.	4c\	-bis	.	4g\	-bis	.	4cc\	-bis	.	2.ryy	2.ryy	2.ryy	4G/	.	4g\	.	4cc\	.	4cc\	.
8r	.	.	8e-\J	.	8g/J	.	.	.	.	.	.	.	.	.	.	.	.	.	.	.	.	.	.	.	.	.	.	.	.	.	.
8c|\	.	.	8r	.	8r	.	16r	.	4r	.	.	4r	.	.	4r	.	.	4r	.	.	.	.	.	4r	.	4r	.	4r	.	4r	.
!	!	!	!	!	!	!	!	!LO:DY:t=pia:mod=%s	!	!	!	!	!	!	!	!	!	!	!	!	!	!	!	!	!	!	!	!	!	!	!
.	.	.	.	.	.	.	16ee-\LL	p	.	.	.	.	.	.	.	.	.	.	.	.	.	.	.	.	.	.	.	.	.	.	.
8r	.	.	8e-\	.	8g/	.	16ff\	.	.	.	.	.	.	.	.	.	.	.	.	.	.	.	.	.	.	.	.	.	.	.	.
.	.	.	.	.	.	.	16gg\JJ	.	.	.	.	.	.	.	.	.	.	.	.	.	.	.	.	.	.	.	.	.	.	.	.
8G|\	.	.	8r	.	8r	.	8.gg\L	.	4r	.	.	4r	.	.	4r	.	.	4r	.	.	.	.	.	4r	.	4r	.	4r	.	4r	.
8r	.	.	8d\	.	8f/	.	.	.	.	.	.	.	.	.	.	.	.	.	.	.	.	.	.	.	.	.	.	.	.	.	.
.	.	.	.	.	.	.	16bn\Jk	.	.	.	.	.	.	.	.	.	.	.	.	.	.	.	.	.	.	.	.	.	.	.	.
=57	=57	=57	=57	=57	=57	=57	=57	=57	=57	=57	=57	=57	=57	=57	=57	=57	=57	=57	=57	=57	=57	=57	=57	=57	=57	=57	=57	=57	=57	=57	=57
!	!	!	!	!	!	!	!	!	!LO:TX:b:t=3:mod=	!	!	!LO:TX:a:t=3:mod=	!	!	!LO:TX:b:t=3:mod=	!	!	!LO:TX:a:t=3:mod=	!	!	!	!	!	!LO:TX:a:t=7.:mod=	!	!LO:TX:a:t=7:mod=	!	!	!	!LO:TX:a:t=2:mod=	!
8A-\	.	.	8r	.	8r	.	8cc\L	.	1.r	.	.	1.r	.	.	1.r	.	.	1.r	.	.	2.ryy	2.ryy	2.ryy	0.r	.	0.r	.	1.r	.	1.r	.
8r	.	.	8c\	.	8e-/	.	8cc\J	.	.	.	.	.	.	.	.	.	.	.	.	.	.	.	.	.	.	.	.	.	.	.	.
8AA-/	.	.	8r	.	8r	.	16r	.	.	.	.	.	.	.	.	.	.	.	.	.	.	.	.	.	.	.	.	.	.	.	.
.	.	.	.	.	.	.	16cc\LL	.	.	.	.	.	.	.	.	.	.	.	.	.	.	.	.	.	.	.	.	.	.	.	.
8r	.	.	8c\	.	8c/	.	16dd\	.	.	.	.	.	.	.	.	.	.	.	.	.	.	.	.	.	.	.	.	.	.	.	.
.	.	.	.	.	.	.	16cc\JJ	.	.	.	.	.	.	.	.	.	.	.	.	.	.	.	.	.	.	.	.	.	.	.	.
!	!	!	!	!	!	!	!LO:TX:t=P:problem=mixed beam:mod=	!	!	!	!	!	!	!	!	!	!	!	!	!	!	!	!	!	!	!	!	!	!	!	!
8En\	.	.	8r	.	8r	.	8.cc\L	.	.	.	.	.	.	.	.	.	.	.	.	.	.	.	.	.	.	.	.	.	.	.	.
8r	.	.	8G/	.	8c/	.	.	.	.	.	.	.	.	.	.	.	.	.	.	.	.	.	.	.	.	.	.	.	.	.	.
.	.	.	.	.	.	.	16g/Jk	.	.	.	.	.	.	.	.	.	.	.	.	.	.	.	.	.	.	.	.	.	.	.	.
!	!	!	!LO:LB:g=original	!	!	!	!	!	!	!	!	!	!	!	!	!	!	!	!	!	!	!	!	!	!	!	!	!	!	!	!
=58	=58	=58	=58	=58	=58	=58	=58	=58	=58	=58	=58	=58	=58	=58	=58	=58	=58	=58	=58	=58	=58	=58	=58	=58	=58	=58	=58	=58	=58	=58	=58
8F\	.	.	8r	.	8r	.	8a-/L	.	.	.	.	.	.	.	.	.	.	.	.	.	2.ryy	2.ryy	2.ryy	.	.	.	.	.	.	.	.
8r	.	.	8A-/	.	8c/	.	8a-/J	.	.	.	.	.	.	.	.	.	.	.	.	.	.	.	.	.	.	.	.	.	.	.	.
8F\	.	.	8r	.	8r	.	16r	.	.	.	.	.	.	.	.	.	.	.	.	.	.	.	.	.	.	.	.	.	.	.	.
.	.	.	.	.	.	.	16a-/LL	.	.	.	.	.	.	.	.	.	.	.	.	.	.	.	.	.	.	.	.	.	.	.	.
8r	.	.	8A-/	.	8c/	.	16b-/	.	.	.	.	.	.	.	.	.	.	.	.	.	.	.	.	.	.	.	.	.	.	.	.
.	.	.	.	.	.	.	16a-/JJ	.	.	.	.	.	.	.	.	.	.	.	.	.	.	.	.	.	.	.	.	.	.	.	.
8E-X\	.	.	8r	.	8r	.	16g/LL	.	.	.	.	.	.	.	.	.	.	.	.	.	.	.	.	.	.	.	.	.	.	.	.
.	.	.	.	.	.	.	16a-/	.	.	.	.	.	.	.	.	.	.	.	.	.	.	.	.	.	.	.	.	.	.	.	.
8r	.	.	8G/	.	8c/	.	16bn/	.	.	.	.	.	.	.	.	.	.	.	.	.	.	.	.	.	.	.	.	.	.	.	.
.	.	.	.	.	.	.	16cc/JJ	.	.	.	.	.	.	.	.	.	.	.	.	.	.	.	.	.	.	.	.	.	.	.	.
!	!	!	!	!	!	!	!LO:LB:g=original	!	!	!	!	!	!	!	!	!	!	!	!	!	!	!	!	!	!	!	!	!	!	!	!
=59	=59	=59	=59	=59	=59	=59	=59	=59	=59	=59	=59	=59	=59	=59	=59	=59	=59	=59	=59	=59	=59	=59	=59	=59	=59	=59	=59	=59	=59	=59	=59
!	!	!	!	!	!	!	!	!	!	!	!	!	!	!	!	!	!	!	!	!	!	!	!	!	!	!	!	!	!	!LO:TX:t=P:problem=brak taktu nr 59:mod=	!
*	*	*	*Xtremolo	*	*tremolo	*	*	*	*	*	*	*	*	*	*	*	*	*	*	*	*	*	*	*	*	*	*	*	*	*	*
8F\L	.	.	8A-/L	.	8c/L	.	8a-/L	.	2.r	.	.	2.r	.	.	2.r	.	.	2.r	.	.	2.ryy	2.ryy	2.ryy	.	.	.	.	2.r	.	2.ryy	.
8F\	.	.	8A-/J	.	8c/	.	16g/L	.	.	.	.	.	.	.	.	.	.	.	.	.	.	.	.	.	.	.	.	.	.	.	.
.	.	.	.	.	.	.	16f/JJ	.	.	.	.	.	.	.	.	.	.	.	.	.	.	.	.	.	.	.	.	.	.	.	.
*	*	*	*tremolo	*	*	*	*	*	*	*	*	*	*	*	*	*	*	*	*	*	*	*	*	*	*	*	*	*	*	*	*
8G\	.	.	8G/L	.	8c/	.	4e-/	.	.	.	.	.	.	.	.	.	.	.	.	.	.	.	.	.	.	.	.	.	.	.	.
8G\	.	.	8G/	.	8c/J	.	.	.	.	.	.	.	.	.	.	.	.	.	.	.	.	.	.	.	.	.	.	.	.	.	.
*	*	*	*	*	*Xtremolo	*	*	*	*	*	*	*	*	*	*	*	*	*	*	*	*	*	*	*	*	*	*	*	*	*	*
8GG/	.	.	8G/	.	8Bn/L	.	4dt/	.	.	.	.	.	.	.	.	.	.	.	.	.	.	.	.	.	.	.	.	.	.	.	.
8GG/J	.	.	8G/J	.	8B/J	.	.	.	.	.	.	.	.	.	.	.	.	.	.	.	.	.	.	.	.	.	.	.	.	.	.
*	*	*	*Xtremolo	*	*	*	*	*	*	*	*	*	*	*	*	*	*	*	*	*	*	*	*	*	*	*	*	*	*	*	*
=60	=60	=60	=60	=60	=60	=60	=60	=60	=60	=60	=60	=60	=60	=60	=60	=60	=60	=60	=60	=60	=60	=60	=60	=60	=60	=60	=60	=60	=60	=60	=60
4C/	.	.	4G/	.	4c/	.	4c/	.	4r	.	.	4r	.	.	4r	.	.	4r	.	.	2.ryy	2.ryy	2.ryy	.	.	.	.	4r	.	4r	.
!	!	!	!	!	!	!	!	!	!	!	!	!	!	!LO:MO:mod=!LO&colon;DY&colon;ed=brack	!	!	!LO:MO:mod=!LO&colon;DY&colon;ed=brack	!	!	!LO:MO:mod=!LO&colon;DY&colon;ed=brack	!	!	!	!	!	!	!	!	!LO:MO:mod=!LO&colon;DY&colon;ed=brack	!	!LO:MO:mod=!LO&colon;DY&colon;ed=brack
!	!	!	!	!	!	!	!	!	!	!	!LO:DY:a:t=p&colon;:mod=%s	!	!	!LO:DY:t= :mod=%s	!	!	!LO:DY:t= :mod=%s	!LO:TX:t=P:problem=brak tekstu	!	!LO:DY:t= :mod=%s	!	!	!	!	!	!	!	!	!LO:DY:t= :mod=%s	!	!LO:DY:t= :mod=%s
4r	.	.	4r	.	4r	.	4r	.	4C/	mi-	p	4c\	mi-	p	4en\	mi-	p	4g/	[mi-	p	.	.	.	.	.	.	.	4een\	p	4gg\	p
4r	.	.	4r	.	4r	.	4r	.	4C/	-se-	.	4c\	-se-	.	4e\	-se-	.	4g/	-se-	.	.	.	.	.	.	.	.	4ee\	.	4gg\	.
=61	=61	=61	=61	=61	=61	=61	=61	=61	=61	=61	=61	=61	=61	=61	=61	=61	=61	=61	=61	=61	=61	=61	=61	=61	=61	=61	=61	=61	=61	=61	=61
!	!	!	!	!	!LO:TX:a:t=3:mod=	!	!LO:TX:b:t=3:mod=	!	!	!	!	!	!	!	!	!	!	!	!	!	!	!	!	!	!	!	!	!	!	!	!
4CC|/	.	.	1.r	.	1.r	.	1.r	.	2C/	-re-	.	2c\	-re-	.	2f\	-re-	.	2a-\	-re-	.	2.ryy	2.ryy	2.ryy	1.r	.	1.r	.	2ff\	.	2aa-\	.
4r	.	.	.	.	.	.	.	.	.	.	.	.	.	.	.	.	.	.	.	.	.	.	.	.	.	.	.	.	.	.	.
!	!	!	!	!	!	!	!	!	!	!	!	!	!	!	!LO:SIC:4e	!	!	!	!	!	!	!	!	!	!	!	!	!	!	!	!
4r	.	.	.	.	.	.	.	.	4C/	-re	.	4c\	-re	.	4e-\	-re	.	4g\	-re	.	.	.	.	.	.	.	.	4een\	.	4gg\	.
=62	=62	=62	=62	=62	=62	=62	=62	=62	=62	=62	=62	=62	=62	=62	=62	=62	=62	=62	=62	=62	=62	=62	=62	=62	=62	=62	=62	=62	=62	=62	=62
4CC|/	.	.	.	.	.	.	.	.	2.C/	no-	.	2.c\	no-	.	2.f\	no-	.	2.a-\	no-	.	2.ryy	2.ryy	2.ryy	.	.	.	.	2.ff\	.	2.aa-\	.
4r	.	.	.	.	.	.	.	.	.	.	.	.	.	.	.	.	.	.	.	.	.	.	.	.	.	.	.	.	.	.	.
4r	.	.	.	.	.	.	.	.	.	.	.	.	.	.	.	.	.	.	.	.	.	.	.	.	.	.	.	.	.	.	.
=63	=63	=63	=63	=63	=63	=63	=63	=63	=63	=63	=63	=63	=63	=63	=63	=63	=63	=63	=63	=63	=63	=63	=63	=63	=63	=63	=63	=63	=63	=63	=63
4CC;/	.	.	2.r	.	2.r	.	2.r	.	2C/	-bis	.	2c\	-bis	.	2en\	-bis	.	2g/	-bis]	.	2.ryy	2.ryy	2.ryy	2.r	.	2.r	.	2een\	.	2gg;\	.
4r	.	.	.	.	.	.	.	.	.	.	.	.	.	.	.	.	.	.	.	.	.	.	.	.	.	.	.	.	.	.	.
4ryy	.	.	.	.	.	.	.	.	4r	.	.	4r	.	.	4r	.	.	4r	.	.	.	.	.	.	.	.	.	4r	.	4r	.
==	==	==	==	==	==	==	==	==	==	==	==	==	==	==	==	==	==	==	==	==	==	==	==	==	==	==	==	==	==	==	==
*-	*-	*-	*-	*-	*-	*-	*-	*-	*-	*-	*-	*-	*-	*-	*-	*-	*-	*-	*-	*-	*-	*-	*-	*-	*-	*-	*-	*-	*-	*-	*-
!!!system-decoration: [(g1)][(g2)]<s7>[(g3)][(g4)]<s15>
!!!RDF**kern: > = above
!!!RDF**kern: | = vertical stroke
!!!filter-modern: shed -X dynam -e "s/:a/:A/LX" | sic -sq | modori -m | autostem -r | tie -s | humtr -p | shed -e "s/yy//" | shed -e "s/^(X?)rep$/$1REP/I"
!!!ENC: Andrzej Gręziak
!!!END: 2020-09-21
!!!ENC: Jan Barakat
!!!END: 2022-02-01
!!!ENC-modern: Andrzej Kubiczek
!!!END-modern: 2022-06-14
